output/Baahubali2_cinematic.cube
# Cinematic LUT Generator
# Tint Strength=0.9, Gamma=1.0
LUT_3D_SIZE 17
0.000000 0.000000 0.000000
0.000000 0.000000 0.000000
0.000000 0.000000 0.000000
0.000000 0.000000 0.000000
0.000000 0.000000 0.000000
0.000000 0.000000 0.000000
0.000000 0.000000 0.000000
0.061618 0.000000 0.000000
0.124118 0.000000 0.000000
0.186618 0.000000 0.000000
0.249118 0.000000 0.000000
0.311618 0.000000 0.000000
0.374118 0.000000 0.000000
0.436618 0.000000 0.000000
0.499118 0.000000 0.000000
0.561618 0.000000 0.000000
0.624118 0.000000 0.000000
0.000000 0.000000 0.000000
0.000000 0.000000 0.000000
0.000000 0.000000 0.000000
0.000000 0.000000 0.000000
0.000000 0.000000 0.000000
0.000000 0.000000 0.000000
0.000000 0.000000 0.000000
0.061618 0.000000 0.000000
0.124118 0.000000 0.000000
0.186618 0.000000 0.000000
0.249118 0.000000 0.000000
0.311618 0.000000 0.000000
0.374118 0.000000 0.000000
0.436618 0.000000 0.000000
0.499118 0.000000 0.000000
0.561618 0.000000 0.000000
0.624118 0.000000 0.000000
0.000000 0.000000 0.000000
0.000000 0.000000 0.000000
0.000000 0.000000 0.000000
0.000000 0.000000 0.000000
0.000000 0.000000 0.000000
0.000000 0.000000 0.000000
0.000000 0.000000 0.000000
0.061618 0.000000 0.000000
0.124118 0.000000 0.000000
0.186618 0.000000 0.000000
0.249118 0.000000 0.000000
0.311618 0.000000 0.000000
0.374118 0.000000 0.000000
0.436618 0.000000 0.000000
0.499118 0.000000 0.000000
0.561618 0.000000 0.000000
0.624118 0.000000 0.000000
0.000000 0.000000 0.000000
0.000000 0.000000 0.000000
0.000000 0.000000 0.000000
0.000000 0.000000 0.000000
0.000000 0.000000 0.000000
0.000000 0.000000 0.000000
0.000000 0.000000 0.000000
0.061618 0.000000 0.000000
0.124118 0.000000 0.000000
0.186618 0.000000 0.000000
0.249118 0.000000 0.000000
0.311618 0.000000 0.000000
0.374118 0.000000 0.000000
0.436618 0.000000 0.000000
0.499118 0.000000 0.000000
0.561618 0.000000 0.000000
0.624118 0.000000 0.000000
0.000000 0.000000 0.000000
0.000000 0.000000 0.000000
0.000000 0.000000 0.000000
0.000000 0.000000 0.000000
0.000000 0.000000 0.000000
0.000000 0.000000 0.000000
0.000000 0.000000 0.000000
0.061618 0.000000 0.000000
0.124118 0.000000 0.000000
0.186618 0.000000 0.000000
0.249118 0.000000 0.000000
0.311618 0.000000 0.000000
0.374118 0.000000 0.000000
0.436618 0.000000 0.000000
0.499118 0.000000 0.000000
0.561618 0.000000 0.000000
0.624118 0.000000 0.000000
0.000000 0.000000 0.000000
0.000000 0.000000 0.000000
0.000000 0.000000 0.000000
0.000000 0.000000 0.000000
0.000000 0.000000 0.000000
0.000000 0.000000 0.000000
0.000000 0.000000 0.000000
0.061618 0.000000 0.000000
0.124118 0.000000 0.000000
0.186618 0.000000 0.000000
0.249118 0.000000 0.000000
0.311618 0.000000 0.000000
0.374118 0.000000 0.000000
0.436618 0.000000 0.000000
0.499118 0.000000 0.000000
0.561618 0.000000 0.000000
0.624118 0.000000 0.000000
0.000000 0.000000 0.000000
0.000000 0.000000 0.000000
0.000000 0.000000 0.000000
0.000000 0.000000 0.000000
0.000000 0.000000 0.000000
0.000000 0.000000 0.000000
0.000000 0.000000 0.000000
0.061618 0.000000 0.000000
0.124118 0.000000 0.000000
0.186618 0.000000 0.000000
0.249118 0.000000 0.000000
0.311618 0.000000 0.000000
0.374118 0.000000 0.000000
0.436618 0.000000 0.000000
0.499118 0.000000 0.000000
0.561618 0.000000 0.000000
0.624118 0.000000 0.000000
0.000000 0.022794 0.000000
0.000000 0.022794 0.000000
0.000000 0.022794 0.000000
0.000000 0.022794 0.000000
0.000000 0.022794 0.000000
0.000000 0.022794 0.000000
0.000000 0.022794 0.000000
0.061618 0.022794 0.000000
0.124118 0.022794 0.000000
0.186618 0.022794 0.000000
0.249118 0.022794 0.000000
0.311618 0.022794 0.000000
0.374118 0.022794 0.000000
0.436618 0.022794 0.000000
0.499118 0.022794 0.000000
0.561618 0.022794 0.000000
0.624118 0.022794 0.000000
0.000000 0.085294 0.000000
0.000000 0.085294 0.000000
0.000000 0.085294 0.000000
0.000000 0.085294 0.000000
0.000000 0.085294 0.000000
0.000000 0.085294 0.000000
0.000000 0.085294 0.000000
0.061618 0.085294 0.000000
0.124118 0.085294 0.000000
0.186618 0.085294 0.000000
0.249118 0.085294 0.000000
0.311618 0.085294 0.000000
0.374118 0.085294 0.000000
0.436618 0.085294 0.000000
0.499118 0.085294 0.000000
0.561618 0.085294 0.000000
0.624118 0.085294 0.000000
0.000000 0.147794 0.000000
0.000000 0.147794 0.000000
0.000000 0.147794 0.000000
0.000000 0.147794 0.000000
0.000000 0.147794 0.000000
0.000000 0.147794 0.000000
0.000000 0.147794 0.000000
0.061618 0.147794 0.000000
0.124118 0.147794 0.000000
0.186618 0.147794 0.000000
0.249118 0.147794 0.000000
0.311618 0.147794 0.000000
0.374118 0.147794 0.000000
0.436618 0.147794 0.000000
0.499118 0.147794 0.000000
0.561618 0.147794 0.000000
0.624118 0.147794 0.000000
0.000000 0.210294 0.000000
0.000000 0.210294 0.000000
0.000000 0.210294 0.000000
0.000000 0.210294 0.000000
0.000000 0.210294 0.000000
0.000000 0.210294 0.000000
0.000000 0.210294 0.000000
0.061618 0.210294 0.000000
0.124118 0.210294 0.000000
0.186618 0.210294 0.000000
0.249118 0.210294 0.000000
0.311618 0.210294 0.000000
0.374118 0.210294 0.000000
0.436618 0.210294 0.000000
0.499118 0.210294 0.000000
0.561618 0.210294 0.000000
0.624118 0.210294 0.000000
0.000000 0.272794 0.000000
0.000000 0.272794 0.000000
0.000000 0.272794 0.000000
0.000000 0.272794 0.000000
0.000000 0.272794 0.000000
0.000000 0.272794 0.000000
0.000000 0.272794 0.000000
0.061618 0.272794 0.000000
0.124118 0.272794 0.000000
0.186618 0.272794 0.000000
0.249118 0.272794 0.000000
0.311618 0.272794 0.000000
0.374118 0.272794 0.000000
0.436618 0.272794 0.000000
0.499118 0.272794 0.000000
0.561618 0.272794 0.000000
0.624118 0.272794 0.000000
0.000000 0.335294 0.000000
0.000000 0.335294 0.000000
0.000000 0.335294 0.000000
0.000000 0.335294 0.000000
0.000000 0.335294 0.000000
0.000000 0.335294 0.000000
0.000000 0.335294 0.000000
0.061618 0.335294 0.000000
0.124118 0.335294 0.000000
0.186618 0.335294 0.000000
0.249118 0.335294 0.000000
0.311618 0.335294 0.000000
0.374118 0.335294 0.000000
0.436618 0.335294 0.000000
0.499118 0.335294 0.000000
0.561618 0.335294 0.000000
0.624118 0.335294 0.000000
0.000000 0.397794 0.000000
0.000000 0.397794 0.000000
0.000000 0.397794 0.000000
0.000000 0.397794 0.000000
0.000000 0.397794 0.000000
0.000000 0.397794 0.000000
0.000000 0.397794 0.000000
0.061618 0.397794 0.000000
0.124118 0.397794 0.000000
0.186618 0.397794 0.000000
0.249118 0.397794 0.000000
0.311618 0.397794 0.000000
0.374118 0.397794 0.000000
0.436618 0.397794 0.000000
0.499118 0.397794 0.000000
0.561618 0.397794 0.000000
0.624118 0.397794 0.000000
0.000000 0.460294 0.000000
0.000000 0.460294 0.000000
0.000000 0.460294 0.000000
0.000000 0.460294 0.000000
0.000000 0.460294 0.000000
0.000000 0.460294 0.000000
0.000000 0.460294 0.000000
0.061618 0.460294 0.000000
0.124118 0.460294 0.000000
0.186618 0.460294 0.000000
0.249118 0.460294 0.000000
0.311618 0.460294 0.000000
0.374118 0.460294 0.000000
0.436618 0.460294 0.000000
0.499118 0.460294 0.000000
0.561618 0.460294 0.000000
0.624118 0.460294 0.000000
0.000000 0.522794 0.000000
0.000000 0.522794 0.000000
0.000000 0.522794 0.000000
0.000000 0.522794 0.000000
0.000000 0.522794 0.000000
0.000000 0.522794 0.000000
0.000000 0.522794 0.000000
0.061618 0.522794 0.000000
0.124118 0.522794 0.000000
0.186618 0.522794 0.000000
0.249118 0.522794 0.000000
0.311618 0.522794 0.000000
0.374118 0.522794 0.000000
0.436618 0.522794 0.000000
0.499118 0.522794 0.000000
0.561618 0.522794 0.000000
0.624118 0.522794 0.000000
0.000000 0.585294 0.000000
0.000000 0.585294 0.000000
0.000000 0.585294 0.000000
0.000000 0.585294 0.000000
0.000000 0.585294 0.000000
0.000000 0.585294 0.000000
0.000000 0.585294 0.000000
0.061618 0.585294 0.000000
0.124118 0.585294 0.000000
0.186618 0.585294 0.000000
0.249118 0.585294 0.000000
0.311618 0.585294 0.000000
0.374118 0.585294 0.000000
0.436618 0.585294 0.000000
0.499118 0.585294 0.000000
0.561618 0.585294 0.000000
0.624118 0.585294 0.000000
0.000000 0.000000 0.000000
0.000000 0.000000 0.000000
0.000000 0.000000 0.000000
0.000000 0.000000 0.000000
0.000000 0.000000 0.000000
0.000000 0.000000 0.000000
0.000000 0.000000 0.000000
0.061618 0.000000 0.000000
0.124118 0.000000 0.000000
0.186618 0.000000 0.000000
0.249118 0.000000 0.000000
0.311618 0.000000 0.000000
0.374118 0.000000 0.000000
0.436618 0.000000 0.000000
0.499118 0.000000 0.000000
0.561618 0.000000 0.000000
0.624118 0.000000 0.000000
0.000000 0.000000 0.000000
0.000000 0.000000 0.000000
0.000000 0.000000 0.000000
0.000000 0.000000 0.000000
0.000000 0.000000 0.000000
0.000000 0.000000 0.000000
0.000000 0.000000 0.000000
0.061618 0.000000 0.000000
0.124118 0.000000 0.000000
0.186618 0.000000 0.000000
0.249118 0.000000 0.000000
0.311618 0.000000 0.000000
0.374118 0.000000 0.000000
0.436618 0.000000 0.000000
0.499118 0.000000 0.000000
0.561618 0.000000 0.000000
0.624118 0.000000 0.000000
0.000000 0.000000 0.000000
0.000000 0.000000 0.000000
0.000000 0.000000 0.000000
0.000000 0.000000 0.000000
0.000000 0.000000 0.000000
0.000000 0.000000 0.000000
0.000000 0.000000 0.000000
0.061618 0.000000 0.000000
0.124118 0.000000 0.000000
0.186618 0.000000 0.000000
0.249118 0.000000 0.000000
0.311618 0.000000 0.000000
0.374118 0.000000 0.000000
0.436618 0.000000 0.000000
0.499118 0.000000 0.000000
0.561618 0.000000 0.000000
0.624118 0.000000 0.000000
0.000000 0.000000 0.000000
0.000000 0.000000 0.000000
0.000000 0.000000 0.000000
0.000000 0.000000 0.000000
0.000000 0.000000 0.000000
0.000000 0.000000 0.000000
0.000000 0.000000 0.000000
0.061618 0.000000 0.000000
0.124118 0.000000 0.000000
0.186618 0.000000 0.000000
0.249118 0.000000 0.000000
0.311618 0.000000 0.000000
0.374118 0.000000 0.000000
0.436618 0.000000 0.000000
0.499118 0.000000 0.000000
0.561618 0.000000 0.000000
0.624118 0.000000 0.000000
0.000000 0.000000 0.000000
0.000000 0.000000 0.000000
0.000000 0.000000 0.000000
0.000000 0.000000 0.000000
0.000000 0.000000 0.000000
0.000000 0.000000 0.000000
0.000000 0.000000 0.000000
0.061618 0.000000 0.000000
0.124118 0.000000 0.000000
0.186618 0.000000 0.000000
0.249118 0.000000 0.000000
0.311618 0.000000 0.000000
0.374118 0.000000 0.000000
0.436618 0.000000 0.000000
0.499118 0.000000 0.000000
0.561618 0.000000 0.000000
0.624118 0.000000 0.000000
0.000000 0.000000 0.000000
0.000000 0.000000 0.000000
0.000000 0.000000 0.000000
0.000000 0.000000 0.000000
0.000000 0.000000 0.000000
0.000000 0.000000 0.000000
0.000000 0.000000 0.000000
0.061618 0.000000 0.000000
0.124118 0.000000 0.000000
0.186618 0.000000 0.000000
0.249118 0.000000 0.000000
0.311618 0.000000 0.000000
0.374118 0.000000 0.000000
0.436618 0.000000 0.000000
0.499118 0.000000 0.000000
0.561618 0.000000 0.000000
0.624118 0.000000 0.000000
0.000000 0.000000 0.000000
0.000000 0.000000 0.000000
0.000000 0.000000 0.000000
0.000000 0.000000 0.000000
0.000000 0.000000 0.000000
0.000000 0.000000 0.000000
0.000000 0.000000 0.000000
0.061618 0.000000 0.000000
0.124118 0.000000 0.000000
0.186618 0.000000 0.000000
0.249118 0.000000 0.000000
0.311618 0.000000 0.000000
0.374118 0.000000 0.000000
0.436618 0.000000 0.000000
0.499118 0.000000 0.000000
0.561618 0.000000 0.000000
0.624118 0.000000 0.000000
0.000000 0.022794 0.000000
0.000000 0.022794 0.000000
0.000000 0.022794 0.000000
0.000000 0.022794 0.000000
0.000000 0.022794 0.000000
0.000000 0.022794 0.000000
0.000000 0.022794 0.000000
0.061618 0.022794 0.000000
0.124118 0.022794 0.000000
0.186618 0.022794 0.000000
0.249118 0.022794 0.000000
0.311618 0.022794 0.000000
0.374118 0.022794 0.000000
0.436618 0.022794 0.000000
0.499118 0.022794 0.000000
0.561618 0.022794 0.000000
0.624118 0.022794 0.000000
0.000000 0.085294 0.000000
0.000000 0.085294 0.000000
0.000000 0.085294 0.000000
0.000000 0.085294 0.000000
0.000000 0.085294 0.000000
0.000000 0.085294 0.000000
0.000000 0.085294 0.000000
0.061618 0.085294 0.000000
0.124118 0.085294 0.000000
0.186618 0.085294 0.000000
0.249118 0.085294 0.000000
0.311618 0.085294 0.000000
0.374118 0.085294 0.000000
0.436618 0.085294 0.000000
0.499118 0.085294 0.000000
0.561618 0.085294 0.000000
0.624118 0.085294 0.000000
0.000000 0.147794 0.000000
0.000000 0.147794 0.000000
0.000000 0.147794 0.000000
0.000000 0.147794 0.000000
0.000000 0.147794 0.000000
0.000000 0.147794 0.000000
0.000000 0.147794 0.000000
0.061618 0.147794 0.000000
0.124118 0.147794 0.000000
0.186618 0.147794 0.000000
0.249118 0.147794 0.000000
0.311618 0.147794 0.000000
0.374118 0.147794 0.000000
0.436618 0.147794 0.000000
0.499118 0.147794 0.000000
0.561618 0.147794 0.000000
0.624118 0.147794 0.000000
0.000000 0.210294 0.000000
0.000000 0.210294 0.000000
0.000000 0.210294 0.000000
0.000000 0.210294 0.000000
0.000000 0.210294 0.000000
0.000000 0.210294 0.000000
0.000000 0.210294 0.000000
0.061618 0.210294 0.000000
0.124118 0.210294 0.000000
0.186618 0.210294 0.000000
0.249118 0.210294 0.000000
0.311618 0.210294 0.000000
0.374118 0.210294 0.000000
0.436618 0.210294 0.000000
0.499118 0.210294 0.000000
0.561618 0.210294 0.000000
0.624118 0.210294 0.000000
0.000000 0.272794 0.000000
0.000000 0.272794 0.000000
0.000000 0.272794 0.000000
0.000000 0.272794 0.000000
0.000000 0.272794 0.000000
0.000000 0.272794 0.000000
0.000000 0.272794 0.000000
0.061618 0.272794 0.000000
0.124118 0.272794 0.000000
0.186618 0.272794 0.000000
0.249118 0.272794 0.000000
0.311618 0.272794 0.000000
0.374118 0.272794 0.000000
0.436618 0.272794 0.000000
0.499118 0.272794 0.000000
0.561618 0.272794 0.000000
0.624118 0.272794 0.000000
0.000000 0.335294 0.000000
0.000000 0.335294 0.000000
0.000000 0.335294 0.000000
0.000000 0.335294 0.000000
0.000000 0.335294 0.000000
0.000000 0.335294 0.000000
0.000000 0.335294 0.000000
0.061618 0.335294 0.000000
0.124118 0.335294 0.000000
0.186618 0.335294 0.000000
0.249118 0.335294 0.000000
0.311618 0.335294 0.000000
0.374118 0.335294 0.000000
0.436618 0.335294 0.000000
0.499118 0.335294 0.000000
0.561618 0.335294 0.000000
0.624118 0.335294 0.000000
0.000000 0.397794 0.000000
0.000000 0.397794 0.000000
0.000000 0.397794 0.000000
0.000000 0.397794 0.000000
0.000000 0.397794 0.000000
0.000000 0.397794 0.000000
0.000000 0.397794 0.000000
0.061618 0.397794 0.000000
0.124118 0.397794 0.000000
0.186618 0.397794 0.000000
0.249118 0.397794 0.000000
0.311618 0.397794 0.000000
0.374118 0.397794 0.000000
0.436618 0.397794 0.000000
0.499118 0.397794 0.000000
0.561618 0.397794 0.000000
0.624118 0.397794 0.000000
0.000000 0.460294 0.000000
0.000000 0.460294 0.000000
0.000000 0.460294 0.000000
0.000000 0.460294 0.000000
0.000000 0.460294 0.000000
0.000000 0.460294 0.000000
0.000000 0.460294 0.000000
0.061618 0.460294 0.000000
0.124118 0.460294 0.000000
0.186618 0.460294 0.000000
0.249118 0.460294 0.000000
0.311618 0.460294 0.000000
0.374118 0.460294 0.000000
0.436618 0.460294 0.000000
0.499118 0.460294 0.000000
0.561618 0.460294 0.000000
0.624118 0.460294 0.000000
0.000000 0.522794 0.000000
0.000000 0.522794 0.000000
0.000000 0.522794 0.000000
0.000000 0.522794 0.000000
0.000000 0.522794 0.000000
0.000000 0.522794 0.000000
0.000000 0.522794 0.000000
0.061618 0.522794 0.000000
0.124118 0.522794 0.000000
0.186618 0.522794 0.000000
0.249118 0.522794 0.000000
0.311618 0.522794 0.000000
0.374118 0.522794 0.000000
0.436618 0.522794 0.000000
0.499118 0.522794 0.000000
0.561618 0.522794 0.000000
0.624118 0.522794 0.000000
0.000000 0.585294 0.000000
0.000000 0.585294 0.000000
0.000000 0.585294 0.000000
0.000000 0.585294 0.000000
0.000000 0.585294 0.000000
0.000000 0.585294 0.000000
0.000000 0.585294 0.000000
0.061618 0.585294 0.000000
0.124118 0.585294 0.000000
0.186618 0.585294 0.000000
0.249118 0.585294 0.000000
0.311618 0.585294 0.000000
0.374118 0.585294 0.000000
0.436618 0.585294 0.000000
0.499118 0.585294 0.000000
0.561618 0.585294 0.000000
0.624118 0.585294 0.000000
0.000000 0.000000 0.000000
0.000000 0.000000 0.000000
0.000000 0.000000 0.000000
0.000000 0.000000 0.000000
0.000000 0.000000 0.000000
0.000000 0.000000 0.000000
0.000000 0.000000 0.000000
0.061618 0.000000 0.000000
0.124118 0.000000 0.000000
0.186618 0.000000 0.000000
0.249118 0.000000 0.000000
0.311618 0.000000 0.000000
0.374118 0.000000 0.000000
0.436618 0.000000 0.000000
0.499118 0.000000 0.000000
0.561618 0.000000 0.000000
0.624118 0.000000 0.000000
0.000000 0.000000 0.000000
0.000000 0.000000 0.000000
0.000000 0.000000 0.000000
0.000000 0.000000 0.000000
0.000000 0.000000 0.000000
0.000000 0.000000 0.000000
0.000000 0.000000 0.000000
0.061618 0.000000 0.000000
0.124118 0.000000 0.000000
0.186618 0.000000 0.000000
0.249118 0.000000 0.000000
0.311618 0.000000 0.000000
0.374118 0.000000 0.000000
0.436618 0.000000 0.000000
0.499118 0.000000 0.000000
0.561618 0.000000 0.000000
0.624118 0.000000 0.000000
0.000000 0.000000 0.000000
0.000000 0.000000 0.000000
0.000000 0.000000 0.000000
0.000000 0.000000 0.000000
0.000000 0.000000 0.000000
0.000000 0.000000 0.000000
0.000000 0.000000 0.000000
0.061618 0.000000 0.000000
0.124118 0.000000 0.000000
0.186618 0.000000 0.000000
0.249118 0.000000 0.000000
0.311618 0.000000 0.000000
0.374118 0.000000 0.000000
0.436618 0.000000 0.000000
0.499118 0.000000 0.000000
0.561618 0.000000 0.000000
0.624118 0.000000 0.000000
0.000000 0.000000 0.000000
0.000000 0.000000 0.000000
0.000000 0.000000 0.000000
0.000000 0.000000 0.000000
0.000000 0.000000 0.000000
0.000000 0.000000 0.000000
0.000000 0.000000 0.000000
0.061618 0.000000 0.000000
0.124118 0.000000 0.000000
0.186618 0.000000 0.000000
0.249118 0.000000 0.000000
0.311618 0.000000 0.000000
0.374118 0.000000 0.000000
0.436618 0.000000 0.000000
0.499118 0.000000 0.000000
0.561618 0.000000 0.000000
0.624118 0.000000 0.000000
0.000000 0.000000 0.000000
0.000000 0.000000 0.000000
0.000000 0.000000 0.000000
0.000000 0.000000 0.000000
0.000000 0.000000 0.000000
0.000000 0.000000 0.000000
0.000000 0.000000 0.000000
0.061618 0.000000 0.000000
0.124118 0.000000 0.000000
0.186618 0.000000 0.000000
0.249118 0.000000 0.000000
0.311618 0.000000 0.000000
0.374118 0.000000 0.000000
0.436618 0.000000 0.000000
0.499118 0.000000 0.000000
0.561618 0.000000 0.000000
0.624118 0.000000 0.000000
0.000000 0.000000 0.000000
0.000000 0.000000 0.000000
0.000000 0.000000 0.000000
0.000000 0.000000 0.000000
0.000000 0.000000 0.000000
0.000000 0.000000 0.000000
0.000000 0.000000 0.000000
0.061618 0.000000 0.000000
0.124118 0.000000 0.000000
0.186618 0.000000 0.000000
0.249118 0.000000 0.000000
0.311618 0.000000 0.000000
0.374118 0.000000 0.000000
0.436618 0.000000 0.000000
0.499118 0.000000 0.000000
0.561618 0.000000 0.000000
0.624118 0.000000 0.000000
0.000000 0.000000 0.000000
0.000000 0.000000 0.000000
0.000000 0.000000 0.000000
0.000000 0.000000 0.000000
0.000000 0.000000 0.000000
0.000000 0.000000 0.000000
0.000000 0.000000 0.000000
0.061618 0.000000 0.000000
0.124118 0.000000 0.000000
0.186618 0.000000 0.000000
0.249118 0.000000 0.000000
0.311618 0.000000 0.000000
0.374118 0.000000 0.000000
0.436618 0.000000 0.000000
0.499118 0.000000 0.000000
0.561618 0.000000 0.000000
0.624118 0.000000 0.000000
0.000000 0.022794 0.000000
0.000000 0.022794 0.000000
0.000000 0.022794 0.000000
0.000000 0.022794 0.000000
0.000000 0.022794 0.000000
0.000000 0.022794 0.000000
0.000000 0.022794 0.000000
0.061618 0.022794 0.000000
0.124118 0.022794 0.000000
0.186618 0.022794 0.000000
0.249118 0.022794 0.000000
0.311618 0.022794 0.000000
0.374118 0.022794 0.000000
0.436618 0.022794 0.000000
0.499118 0.022794 0.000000
0.561618 0.022794 0.000000
0.624118 0.022794 0.000000
0.000000 0.085294 0.000000
0.000000 0.085294 0.000000
0.000000 0.085294 0.000000
0.000000 0.085294 0.000000
0.000000 0.085294 0.000000
0.000000 0.085294 0.000000
0.000000 0.085294 0.000000
0.061618 0.085294 0.000000
0.124118 0.085294 0.000000
0.186618 0.085294 0.000000
0.249118 0.085294 0.000000
0.311618 0.085294 0.000000
0.374118 0.085294 0.000000
0.436618 0.085294 0.000000
0.499118 0.085294 0.000000
0.561618 0.085294 0.000000
0.624118 0.085294 0.000000
0.000000 0.147794 0.000000
0.000000 0.147794 0.000000
0.000000 0.147794 0.000000
0.000000 0.147794 0.000000
0.000000 0.147794 0.000000
0.000000 0.147794 0.000000
0.000000 0.147794 0.000000
0.061618 0.147794 0.000000
0.124118 0.147794 0.000000
0.186618 0.147794 0.000000
0.249118 0.147794 0.000000
0.311618 0.147794 0.000000
0.374118 0.147794 0.000000
0.436618 0.147794 0.000000
0.499118 0.147794 0.000000
0.561618 0.147794 0.000000
0.624118 0.147794 0.000000
0.000000 0.210294 0.000000
0.000000 0.210294 0.000000
0.000000 0.210294 0.000000
0.000000 0.210294 0.000000
0.000000 0.210294 0.000000
0.000000 0.210294 0.000000
0.000000 0.210294 0.000000
0.061618 0.210294 0.000000
0.124118 0.210294 0.000000
0.186618 0.210294 0.000000
0.249118 0.210294 0.000000
0.311618 0.210294 0.000000
0.374118 0.210294 0.000000
0.436618 0.210294 0.000000
0.499118 0.210294 0.000000
0.561618 0.210294 0.000000
0.624118 0.210294 0.000000
0.000000 0.272794 0.000000
0.000000 0.272794 0.000000
0.000000 0.272794 0.000000
0.000000 0.272794 0.000000
0.000000 0.272794 0.000000
0.000000 0.272794 0.000000
0.000000 0.272794 0.000000
0.061618 0.272794 0.000000
0.124118 0.272794 0.000000
0.186618 0.272794 0.000000
0.249118 0.272794 0.000000
0.311618 0.272794 0.000000
0.374118 0.272794 0.000000
0.436618 0.272794 0.000000
0.499118 0.272794 0.000000
0.561618 0.272794 0.000000
0.624118 0.272794 0.000000
0.000000 0.335294 0.000000
0.000000 0.335294 0.000000
0.000000 0.335294 0.000000
0.000000 0.335294 0.000000
0.000000 0.335294 0.000000
0.000000 0.335294 0.000000
0.000000 0.335294 0.000000
0.061618 0.335294 0.000000
0.124118 0.335294 0.000000
0.186618 0.335294 0.000000
0.249118 0.335294 0.000000
0.311618 0.335294 0.000000
0.374118 0.335294 0.000000
0.436618 0.335294 0.000000
0.499118 0.335294 0.000000
0.561618 0.335294 0.000000
0.624118 0.335294 0.000000
0.000000 0.397794 0.000000
0.000000 0.397794 0.000000
0.000000 0.397794 0.000000
0.000000 0.397794 0.000000
0.000000 0.397794 0.000000
0.000000 0.397794 0.000000
0.000000 0.397794 0.000000
0.061618 0.397794 0.000000
0.124118 0.397794 0.000000
0.186618 0.397794 0.000000
0.249118 0.397794 0.000000
0.311618 0.397794 0.000000
0.374118 0.397794 0.000000
0.436618 0.397794 0.000000
0.499118 0.397794 0.000000
0.561618 0.397794 0.000000
0.624118 0.397794 0.000000
0.000000 0.460294 0.000000
0.000000 0.460294 0.000000
0.000000 0.460294 0.000000
0.000000 0.460294 0.000000
0.000000 0.460294 0.000000
0.000000 0.460294 0.000000
0.000000 0.460294 0.000000
0.061618 0.460294 0.000000
0.124118 0.460294 0.000000
0.186618 0.460294 0.000000
0.249118 0.460294 0.000000
0.311618 0.460294 0.000000
0.374118 0.460294 0.000000
0.436618 0.460294 0.000000
0.499118 0.460294 0.000000
0.561618 0.460294 0.000000
0.624118 0.460294 0.000000
0.000000 0.522794 0.000000
0.000000 0.522794 0.000000
0.000000 0.522794 0.000000
0.000000 0.522794 0.000000
0.000000 0.522794 0.000000
0.000000 0.522794 0.000000
0.000000 0.522794 0.000000
0.061618 0.522794 0.000000
0.124118 0.522794 0.000000
0.186618 0.522794 0.000000
0.249118 0.522794 0.000000
0.311618 0.522794 0.000000
0.374118 0.522794 0.000000
0.436618 0.522794 0.000000
0.499118 0.522794 0.000000
0.561618 0.522794 0.000000
0.624118 0.522794 0.000000
0.000000 0.585294 0.000000
0.000000 0.585294 0.000000
0.000000 0.585294 0.000000
0.000000 0.585294 0.000000
0.000000 0.585294 0.000000
0.000000 0.585294 0.000000
0.000000 0.585294 0.000000
0.061618 0.585294 0.000000
0.124118 0.585294 0.000000
0.186618 0.585294 0.000000
0.249118 0.585294 0.000000
0.311618 0.585294 0.000000
0.374118 0.585294 0.000000
0.436618 0.585294 0.000000
0.499118 0.585294 0.000000
0.561618 0.585294 0.000000
0.624118 0.585294 0.000000
0.000000 0.000000 0.000000
0.000000 0.000000 0.000000
0.000000 0.000000 0.000000
0.000000 0.000000 0.000000
0.000000 0.000000 0.000000
0.000000 0.000000 0.000000
0.000000 0.000000 0.000000
0.061618 0.000000 0.000000
0.124118 0.000000 0.000000
0.186618 0.000000 0.000000
0.249118 0.000000 0.000000
0.311618 0.000000 0.000000
0.374118 0.000000 0.000000
0.436618 0.000000 0.000000
0.499118 0.000000 0.000000
0.561618 0.000000 0.000000
0.624118 0.000000 0.000000
0.000000 0.000000 0.000000
0.000000 0.000000 0.000000
