output/Baahubali2_cinematic.cube
# Cinematic LUT Generator
# Tint Strength=0.9, Gamma=1.0
LUT_3D_SIZE 5
0.000000 0.000000 0.000000
0.000000 0.000000 0.000000
0.124118 0.000000 0.000000
0.374118 0.000000 0.000000
0.624118 0.000000 0.000000
0.000000 0.000000 0.000000
0.000000 0.000000 0.000000
0.124118 0.000000 0.000000
0.374118 0.000000 0.000000
0.624118 0.000000 0.000000
0.000000 0.085294 0.000000
0.000000 0.085294 0.000000
0.124118 0.085294 0.000000
0.374118 0.085294 0.000000
0.624118 0.085294 0.000000
0.000000 0.335294 0.000000
0.000000 0.335294 0.000000
0.124118 0.335294 0.000000
0.374118 0.335294 0.000000
0.624118 0.335294 0.000000
0.000000 0.585294 0.000000
0.000000 0.585294 0.000000
0.124118 0.585294 0.000000
0.374118 0.585294 0.000000
0.624118 0.585294 0.000000
0.000000 0.000000 0.000000
0.000000 0.000000 0.000000
0.124118 0.000000 0.000000
0.374118 0.000000 0.000000
0.624118 0.000000 0.000000
0.000000 0.000000 0.000000
0.000000 0.000000 0.000000
0.124118 0.000000 0.000000
0.374118 0.000000 0.000000
0.624118 0.000000 0.000000
0.000000 0.085294 0.000000
0.000000 0.085294 0.000000
0.124118 0.085294 0.000000
0.374118 0.085294 0.000000
0.624118 0.085294 0.000000
0.000000 0.335294 0.000000
0.000000 0.335294 0.000000
0.124118 0.335294 0.000000
0.374118 0.335294 0.000000
0.624118 0.335294 0.000000
0.000000 0.585294 0.000000
0.000000 0.585294 0.000000
0.124118 0.585294 0.000000
0.374118 0.585294 0.000000
0.624118 0.585294 0.000000
0.000000 0.000000 0.057059
0.000000 0.000000 0.057059
0.124118 0.000000 0.057059
0.374118 0.000000 0.057059
0.624118 0.000000 0.057059
0.000000 0.000000 0.057059
0.000000 0.000000 0.057059
0.124118 0.000000 0.057059
0.374118 0.000000 0.057059
0.624118 0.000000 0.057059
0.000000 0.085294 0.057059
0.000000 0.085294 0.057059
0.124118 0.085294 0.057059
0.374118 0.085294 0.057059
0.624118 0.085294 0.057059
0.000000 0.335294 0.057059
0.000000 0.335294 0.057059
0.124118 0.335294 0.057059
0.374118 0.335294 0.057059
0.624118 0.335294 0.057059
0.000000 0.585294 0.057059
0.000000 0.585294 0.057059
0.124118 0.585294 0.057059
0.374118 0.585294 0.057059
0.624118 0.585294 0.057059
0.000000 0.000000 0.307059
0.000000 0.000000 0.307059
0.124118 0.000000 0.307059
0.374118 0.000000 0.307059
0.624118 0.000000 0.307059
0.000000 0.000000 0.307059
0.000000 0.000000 0.307059
0.124118 0.000000 0.307059
0.374118 0.000000 0.307059
0.624118 0.000000 0.307059
0.000000 0.085294 0.307059
0.000000 0.085294 0.307059
0.124118 0.085294 0.307059
0.374118 0.085294 0.307059
0.624118 0.085294 0.307059
0.000000 0.335294 0.307059
0.000000 0.335294 0.307059
0.124118 0.335294 0.307059
0.374118 0.335294 0.307059
0.624118 0.335294 0.307059
0.000000 0.585294 0.307059
0.000000 0.585294 0.307059
0.124118 0.585294 0.307059
0.374118 0.585294 0.307059
0.624118 0.585294 0.307059
0.000000 0.000000 0.557059
0.000000 0.000000 0.557059
0.124118 0.000000 0.557059
0.374118 0.000000 0.557059
0.624118 0.000000 0.557059
0.000000 0.000000 0.557059
0.000000 0.000000 0.557059
0.124118 0.000000 0.557059
0.374118 0.000000 0.557059
0.624118 0.000000 0.557059
0.000000 0.085294 0.557059
0.000000 0.085294 0.557059
0.124118 0.085294 0.557059
0.374118 0.085294 0.557059
0.624118 0.085294 0.557059
0.000000 0.335294 0.557059
0.000000 0.335294 0.557059
0.124118 0.335294 0.557059
0.374118 0.335294 0.557059
0.624118 0.335294 0.557059
0.000000 0.585294 0.557059
0.000000 0.585294 0.557059
0.124118 0.585294 0.557059
0.374118 0.585294 0.557059
0.624118 0.585294 0.557059
