output/cinematic_lut.cube
# Generated by Cinematic LUT Generator
LUT_3D_SIZE 17
0.000000 0.000000 0.000000
0.013971 0.000000 0.000000
0.076471 0.000000 0.000000
0.138971 0.000000 0.000000
0.201471 0.000000 0.000000
0.263971 0.000000 0.000000
0.326471 0.000000 0.000000
0.388971 0.000000 0.000000
0.451471 0.000000 0.000000
0.513971 0.000000 0.000000
0.576471 0.000000 0.000000
0.638971 0.000000 0.000000
0.701471 0.000000 0.000000
0.763971 0.000000 0.000000
0.826471 0.000000 0.000000
0.888971 0.000000 0.000000
0.951471 0.000000 0.000000
0.000000 0.023775 0.000000
0.013971 0.023775 0.000000
0.076471 0.023775 0.000000
0.138971 0.023775 0.000000
0.201471 0.023775 0.000000
0.263971 0.023775 0.000000
0.326471 0.023775 0.000000
0.388971 0.023775 0.000000
0.451471 0.023775 0.000000
0.513971 0.023775 0.000000
0.576471 0.023775 0.000000
0.638971 0.023775 0.000000
0.701471 0.023775 0.000000
0.763971 0.023775 0.000000
0.826471 0.023775 0.000000
0.888971 0.023775 0.000000
0.951471 0.023775 0.000000
0.000000 0.086275 0.000000
0.013971 0.086275 0.000000
0.076471 0.086275 0.000000
0.138971 0.086275 0.000000
0.201471 0.086275 0.000000
0.263971 0.086275 0.000000
0.326471 0.086275 0.000000
0.388971 0.086275 0.000000
0.451471 0.086275 0.000000
0.513971 0.086275 0.000000
0.576471 0.086275 0.000000
0.638971 0.086275 0.000000
0.701471 0.086275 0.000000
0.763971 0.086275 0.000000
0.826471 0.086275 0.000000
0.888971 0.086275 0.000000
0.951471 0.086275 0.000000
0.000000 0.148775 0.000000
0.013971 0.148775 0.000000
0.076471 0.148775 0.000000
0.138971 0.148775 0.000000
0.201471 0.148775 0.000000
0.263971 0.148775 0.000000
0.326471 0.148775 0.000000
0.388971 0.148775 0.000000
0.451471 0.148775 0.000000
0.513971 0.148775 0.000000
0.576471 0.148775 0.000000
0.638971 0.148775 0.000000
0.701471 0.148775 0.000000
0.763971 0.148775 0.000000
0.826471 0.148775 0.000000
0.888971 0.148775 0.000000
0.951471 0.148775 0.000000
0.000000 0.211275 0.000000
0.013971 0.211275 0.000000
0.076471 0.211275 0.000000
0.138971 0.211275 0.000000
0.201471 0.211275 0.000000
0.263971 0.211275 0.000000
0.326471 0.211275 0.000000
0.388971 0.211275 0.000000
0.451471 0.211275 0.000000
0.513971 0.211275 0.000000
0.576471 0.211275 0.000000
0.638971 0.211275 0.000000
0.701471 0.211275 0.000000
0.763971 0.211275 0.000000
0.826471 0.211275 0.000000
0.888971 0.211275 0.000000
0.951471 0.211275 0.000000
0.000000 0.273775 0.000000
0.013971 0.273775 0.000000
0.076471 0.273775 0.000000
0.138971 0.273775 0.000000
0.201471 0.273775 0.000000
0.263971 0.273775 0.000000
0.326471 0.273775 0.000000
0.388971 0.273775 0.000000
0.451471 0.273775 0.000000
0.513971 0.273775 0.000000
0.576471 0.273775 0.000000
0.638971 0.273775 0.000000
0.701471 0.273775 0.000000
0.763971 0.273775 0.000000
0.826471 0.273775 0.000000
0.888971 0.273775 0.000000
0.951471 0.273775 0.000000
0.000000 0.336275 0.000000
0.013971 0.336275 0.000000
0.076471 0.336275 0.000000
0.138971 0.336275 0.000000
0.201471 0.336275 0.000000
0.263971 0.336275 0.000000
0.326471 0.336275 0.000000
0.388971 0.336275 0.000000
0.451471 0.336275 0.000000
0.513971 0.336275 0.000000
0.576471 0.336275 0.000000
0.638971 0.336275 0.000000
0.701471 0.336275 0.000000
0.763971 0.336275 0.000000
0.826471 0.336275 0.000000
0.888971 0.336275 0.000000
0.951471 0.336275 0.000000
0.000000 0.398775 0.000000
0.013971 0.398775 0.000000
0.076471 0.398775 0.000000
0.138971 0.398775 0.000000
0.201471 0.398775 0.000000
0.263971 0.398775 0.000000
0.326471 0.398775 0.000000
0.388971 0.398775 0.000000
0.451471 0.398775 0.000000
0.513971 0.398775 0.000000
0.576471 0.398775 0.000000
0.638971 0.398775 0.000000
0.701471 0.398775 0.000000
0.763971 0.398775 0.000000
0.826471 0.398775 0.000000
0.888971 0.398775 0.000000
0.951471 0.398775 0.000000
0.000000 0.461275 0.000000
0.013971 0.461275 0.000000
0.076471 0.461275 0.000000
0.138971 0.461275 0.000000
0.201471 0.461275 0.000000
0.263971 0.461275 0.000000
0.326471 0.461275 0.000000
0.388971 0.461275 0.000000
0.451471 0.461275 0.000000
0.513971 0.461275 0.000000
0.576471 0.461275 0.000000
0.638971 0.461275 0.000000
0.701471 0.461275 0.000000
0.763971 0.461275 0.000000
0.826471 0.461275 0.000000
0.888971 0.461275 0.000000
0.951471 0.461275 0.000000
0.000000 0.523775 0.000000
0.013971 0.523775 0.000000
0.076471 0.523775 0.000000
0.138971 0.523775 0.000000
0.201471 0.523775 0.000000
0.263971 0.523775 0.000000
0.326471 0.523775 0.000000
0.388971 0.523775 0.000000
0.451471 0.523775 0.000000
0.513971 0.523775 0.000000
0.576471 0.523775 0.000000
0.638971 0.523775 0.000000
0.701471 0.523775 0.000000
0.763971 0.523775 0.000000
0.826471 0.523775 0.000000
0.888971 0.523775 0.000000
0.951471 0.523775 0.000000
0.000000 0.586275 0.000000
0.013971 0.586275 0.000000
0.076471 0.586275 0.000000
0.138971 0.586275 0.000000
0.201471 0.586275 0.000000
0.263971 0.586275 0.000000
0.326471 0.586275 0.000000
0.388971 0.586275 0.000000
0.451471 0.586275 0.000000
0.513971 0.586275 0.000000
0.576471 0.586275 0.000000
0.638971 0.586275 0.000000
0.701471 0.586275 0.000000
0.763971 0.586275 0.000000
0.826471 0.586275 0.000000
0.888971 0.586275 0.000000
0.951471 0.586275 0.000000
0.000000 0.648775 0.000000
0.013971 0.648775 0.000000
0.076471 0.648775 0.000000
0.138971 0.648775 0.000000
0.201471 0.648775 0.000000
0.263971 0.648775 0.000000
0.326471 0.648775 0.000000
0.388971 0.648775 0.000000
0.451471 0.648775 0.000000
0.513971 0.648775 0.000000
0.576471 0.648775 0.000000
0.638971 0.648775 0.000000
0.701471 0.648775 0.000000
0.763971 0.648775 0.000000
0.826471 0.648775 0.000000
0.888971 0.648775 0.000000
0.951471 0.648775 0.000000
0.000000 0.711275 0.000000
0.013971 0.711275 0.000000
0.076471 0.711275 0.000000
0.138971 0.711275 0.000000
0.201471 0.711275 0.000000
0.263971 0.711275 0.000000
0.326471 0.711275 0.000000
0.388971 0.711275 0.000000
0.451471 0.711275 0.000000
0.513971 0.711275 0.000000
0.576471 0.711275 0.000000
0.638971 0.711275 0.000000
0.701471 0.711275 0.000000
0.763971 0.711275 0.000000
0.826471 0.711275 0.000000
0.888971 0.711275 0.000000
0.951471 0.711275 0.000000
0.000000 0.773775 0.000000
0.013971 0.773775 0.000000
0.076471 0.773775 0.000000
0.138971 0.773775 0.000000
0.201471 0.773775 0.000000
0.263971 0.773775 0.000000
0.326471 0.773775 0.000000
0.388971 0.773775 0.000000
0.451471 0.773775 0.000000
0.513971 0.773775 0.000000
0.576471 0.773775 0.000000
0.638971 0.773775 0.000000
0.701471 0.773775 0.000000
0.763971 0.773775 0.000000
0.826471 0.773775 0.000000
0.888971 0.773775 0.000000
0.951471 0.773775 0.000000
0.000000 0.836275 0.000000
0.013971 0.836275 0.000000
0.076471 0.836275 0.000000
0.138971 0.836275 0.000000
0.201471 0.836275 0.000000
0.263971 0.836275 0.000000
0.326471 0.836275 0.000000
0.388971 0.836275 0.000000
0.451471 0.836275 0.000000
0.513971 0.836275 0.000000
0.576471 0.836275 0.000000
0.638971 0.836275 0.000000
0.701471 0.836275 0.000000
0.763971 0.836275 0.000000
0.826471 0.836275 0.000000
0.888971 0.836275 0.000000
0.951471 0.836275 0.000000
0.000000 0.898775 0.000000
0.013971 0.898775 0.000000
0.076471 0.898775 0.000000
0.138971 0.898775 0.000000
0.201471 0.898775 0.000000
0.263971 0.898775 0.000000
0.326471 0.898775 0.000000
0.388971 0.898775 0.000000
0.451471 0.898775 0.000000
0.513971 0.898775 0.000000
0.576471 0.898775 0.000000
0.638971 0.898775 0.000000
0.701471 0.898775 0.000000
0.763971 0.898775 0.000000
0.826471 0.898775 0.000000
0.888971 0.898775 0.000000
0.951471 0.898775 0.000000
0.000000 0.961275 0.000000
0.013971 0.961275 0.000000
0.076471 0.961275 0.000000
0.138971 0.961275 0.000000
0.201471 0.961275 0.000000
0.263971 0.961275 0.000000
0.326471 0.961275 0.000000
0.388971 0.961275 0.000000
0.451471 0.961275 0.000000
0.513971 0.961275 0.000000
0.576471 0.961275 0.000000
0.638971 0.961275 0.000000
0.701471 0.961275 0.000000
0.763971 0.961275 0.000000
0.826471 0.961275 0.000000
0.888971 0.961275 0.000000
0.951471 0.961275 0.000000
0.000000 0.000000 0.033578
0.013971 0.000000 0.033578
0.076471 0.000000 0.033578
0.138971 0.000000 0.033578
0.201471 0.000000 0.033578
0.263971 0.000000 0.033578
0.326471 0.000000 0.033578
0.388971 0.000000 0.033578
0.451471 0.000000 0.033578
0.513971 0.000000 0.033578
0.576471 0.000000 0.033578
0.638971 0.000000 0.033578
0.701471 0.000000 0.033578
0.763971 0.000000 0.033578
0.826471 0.000000 0.033578
0.888971 0.000000 0.033578
0.951471 0.000000 0.033578
0.000000 0.023775 0.033578
0.013971 0.023775 0.033578
0.076471 0.023775 0.033578
0.138971 0.023775 0.033578
0.201471 0.023775 0.033578
0.263971 0.023775 0.033578
0.326471 0.023775 0.033578
0.388971 0.023775 0.033578
0.451471 0.023775 0.033578
0.513971 0.023775 0.033578
0.576471 0.023775 0.033578
0.638971 0.023775 0.033578
0.701471 0.023775 0.033578
0.763971 0.023775 0.033578
0.826471 0.023775 0.033578
0.888971 0.023775 0.033578
0.951471 0.023775 0.033578
0.000000 0.086275 0.033578
0.013971 0.086275 0.033578
0.076471 0.086275 0.033578
0.138971 0.086275 0.033578
0.201471 0.086275 0.033578
0.263971 0.086275 0.033578
0.326471 0.086275 0.033578
0.388971 0.086275 0.033578
0.451471 0.086275 0.033578
0.513971 0.086275 0.033578
0.576471 0.086275 0.033578
0.638971 0.086275 0.033578
0.701471 0.086275 0.033578
0.763971 0.086275 0.033578
0.826471 0.086275 0.033578
0.888971 0.086275 0.033578
0.951471 0.086275 0.033578
0.000000 0.148775 0.033578
0.013971 0.148775 0.033578
0.076471 0.148775 0.033578
0.138971 0.148775 0.033578
0.201471 0.148775 0.033578
0.263971 0.148775 0.033578
0.326471 0.148775 0.033578
0.388971 0.148775 0.033578
0.451471 0.148775 0.033578
0.513971 0.148775 0.033578
0.576471 0.148775 0.033578
0.638971 0.148775 0.033578
0.701471 0.148775 0.033578
0.763971 0.148775 0.033578
0.826471 0.148775 0.033578
0.888971 0.148775 0.033578
0.951471 0.148775 0.033578
0.000000 0.211275 0.033578
0.013971 0.211275 0.033578
0.076471 0.211275 0.033578
0.138971 0.211275 0.033578
0.201471 0.211275 0.033578
0.263971 0.211275 0.033578
0.326471 0.211275 0.033578
0.388971 0.211275 0.033578
0.451471 0.211275 0.033578
0.513971 0.211275 0.033578
0.576471 0.211275 0.033578
0.638971 0.211275 0.033578
0.701471 0.211275 0.033578
0.763971 0.211275 0.033578
0.826471 0.211275 0.033578
0.888971 0.211275 0.033578
0.951471 0.211275 0.033578
0.000000 0.273775 0.033578
0.013971 0.273775 0.033578
0.076471 0.273775 0.033578
0.138971 0.273775 0.033578
0.201471 0.273775 0.033578
0.263971 0.273775 0.033578
0.326471 0.273775 0.033578
0.388971 0.273775 0.033578
0.451471 0.273775 0.033578
0.513971 0.273775 0.033578
0.576471 0.273775 0.033578
0.638971 0.273775 0.033578
0.701471 0.273775 0.033578
0.763971 0.273775 0.033578
0.826471 0.273775 0.033578
0.888971 0.273775 0.033578
0.951471 0.273775 0.033578
0.000000 0.336275 0.033578
0.013971 0.336275 0.033578
0.076471 0.336275 0.033578
0.138971 0.336275 0.033578
0.201471 0.336275 0.033578
0.263971 0.336275 0.033578
0.326471 0.336275 0.033578
0.388971 0.336275 0.033578
0.451471 0.336275 0.033578
0.513971 0.336275 0.033578
0.576471 0.336275 0.033578
0.638971 0.336275 0.033578
0.701471 0.336275 0.033578
0.763971 0.336275 0.033578
0.826471 0.336275 0.033578
0.888971 0.336275 0.033578
0.951471 0.336275 0.033578
0.000000 0.398775 0.033578
0.013971 0.398775 0.033578
0.076471 0.398775 0.033578
0.138971 0.398775 0.033578
0.201471 0.398775 0.033578
0.263971 0.398775 0.033578
0.326471 0.398775 0.033578
0.388971 0.398775 0.033578
0.451471 0.398775 0.033578
0.513971 0.398775 0.033578
0.576471 0.398775 0.033578
0.638971 0.398775 0.033578
0.701471 0.398775 0.033578
0.763971 0.398775 0.033578
0.826471 0.398775 0.033578
0.888971 0.398775 0.033578
0.951471 0.398775 0.033578
0.000000 0.461275 0.033578
0.013971 0.461275 0.033578
0.076471 0.461275 0.033578
0.138971 0.461275 0.033578
0.201471 0.461275 0.033578
0.263971 0.461275 0.033578
0.326471 0.461275 0.033578
0.388971 0.461275 0.033578
0.451471 0.461275 0.033578
0.513971 0.461275 0.033578
0.576471 0.461275 0.033578
0.638971 0.461275 0.033578
0.701471 0.461275 0.033578
0.763971 0.461275 0.033578
0.826471 0.461275 0.033578
0.888971 0.461275 0.033578
0.951471 0.461275 0.033578
0.000000 0.523775 0.033578
0.013971 0.523775 0.033578
0.076471 0.523775 0.033578
0.138971 0.523775 0.033578
0.201471 0.523775 0.033578
0.263971 0.523775 0.033578
0.326471 0.523775 0.033578
0.388971 0.523775 0.033578
0.451471 0.523775 0.033578
0.513971 0.523775 0.033578
0.576471 0.523775 0.033578
0.638971 0.523775 0.033578
0.701471 0.523775 0.033578
0.763971 0.523775 0.033578
0.826471 0.523775 0.033578
0.888971 0.523775 0.033578
0.951471 0.523775 0.033578
0.000000 0.586275 0.033578
0.013971 0.586275 0.033578
0.076471 0.586275 0.033578
0.138971 0.586275 0.033578
0.201471 0.586275 0.033578
0.263971 0.586275 0.033578
0.326471 0.586275 0.033578
0.388971 0.586275 0.033578
0.451471 0.586275 0.033578
0.513971 0.586275 0.033578
0.576471 0.586275 0.033578
0.638971 0.586275 0.033578
0.701471 0.586275 0.033578
0.763971 0.586275 0.033578
0.826471 0.586275 0.033578
0.888971 0.586275 0.033578
0.951471 0.586275 0.033578
0.000000 0.648775 0.033578
0.013971 0.648775 0.033578
0.076471 0.648775 0.033578
0.138971 0.648775 0.033578
0.201471 0.648775 0.033578
0.263971 0.648775 0.033578
0.326471 0.648775 0.033578
0.388971 0.648775 0.033578
0.451471 0.648775 0.033578
0.513971 0.648775 0.033578
0.576471 0.648775 0.033578
0.638971 0.648775 0.033578
0.701471 0.648775 0.033578
0.763971 0.648775 0.033578
0.826471 0.648775 0.033578
0.888971 0.648775 0.033578
0.951471 0.648775 0.033578
0.000000 0.711275 0.033578
0.013971 0.711275 0.033578
0.076471 0.711275 0.033578
0.138971 0.711275 0.033578
0.201471 0.711275 0.033578
0.263971 0.711275 0.033578
0.326471 0.711275 0.033578
0.388971 0.711275 0.033578
0.451471 0.711275 0.033578
0.513971 0.711275 0.033578
0.576471 0.711275 0.033578
0.638971 0.711275 0.033578
0.701471 0.711275 0.033578
0.763971 0.711275 0.033578
0.826471 0.711275 0.033578
0.888971 0.711275 0.033578
0.951471 0.711275 0.033578
0.000000 0.773775 0.033578
0.013971 0.773775 0.033578
0.076471 0.773775 0.033578
0.138971 0.773775 0.033578
0.201471 0.773775 0.033578
0.263971 0.773775 0.033578
0.326471 0.773775 0.033578
0.388971 0.773775 0.033578
0.451471 0.773775 0.033578
0.513971 0.773775 0.033578
0.576471 0.773775 0.033578
0.638971 0.773775 0.033578
0.701471 0.773775 0.033578
0.763971 0.773775 0.033578
0.826471 0.773775 0.033578
0.888971 0.773775 0.033578
0.951471 0.773775 0.033578
0.000000 0.836275 0.033578
0.013971 0.836275 0.033578
0.076471 0.836275 0.033578
0.138971 0.836275 0.033578
0.201471 0.836275 0.033578
0.263971 0.836275 0.033578
0.326471 0.836275 0.033578
0.388971 0.836275 0.033578
0.451471 0.836275 0.033578
0.513971 0.836275 0.033578
0.576471 0.836275 0.033578
0.638971 0.836275 0.033578
0.701471 0.836275 0.033578
0.763971 0.836275 0.033578
0.826471 0.836275 0.033578
0.888971 0.836275 0.033578
0.951471 0.836275 0.033578
0.000000 0.898775 0.033578
0.013971 0.898775 0.033578
0.076471 0.898775 0.033578
0.138971 0.898775 0.033578
0.201471 0.898775 0.033578
0.263971 0.898775 0.033578
0.326471 0.898775 0.033578
0.388971 0.898775 0.033578
0.451471 0.898775 0.033578
0.513971 0.898775 0.033578
0.576471 0.898775 0.033578
0.638971 0.898775 0.033578
0.701471 0.898775 0.033578
0.763971 0.898775 0.033578
0.826471 0.898775 0.033578
0.888971 0.898775 0.033578
0.951471 0.898775 0.033578
0.000000 0.961275 0.033578
0.013971 0.961275 0.033578
0.076471 0.961275 0.033578
0.138971 0.961275 0.033578
0.201471 0.961275 0.033578
0.263971 0.961275 0.033578
0.326471 0.961275 0.033578
0.388971 0.961275 0.033578
0.451471 0.961275 0.033578
0.513971 0.961275 0.033578
0.576471 0.961275 0.033578
0.638971 0.961275 0.033578
0.701471 0.961275 0.033578
0.763971 0.961275 0.033578
0.826471 0.961275 0.033578
0.888971 0.961275 0.033578
0.951471 0.961275 0.033578
0.000000 0.000000 0.096078
0.013971 0.000000 0.096078
0.076471 0.000000 0.096078
0.138971 0.000000 0.096078
0.201471 0.000000 0.096078
0.263971 0.000000 0.096078
0.326471 0.000000 0.096078
0.388971 0.000000 0.096078
0.451471 0.000000 0.096078
0.513971 0.000000 0.096078
0.576471 0.000000 0.096078
0.638971 0.000000 0.096078
0.701471 0.000000 0.096078
0.763971 0.000000 0.096078
0.826471 0.000000 0.096078
0.888971 0.000000 0.096078
0.951471 0.000000 0.096078
0.000000 0.023775 0.096078
0.013971 0.023775 0.096078
0.076471 0.023775 0.096078
0.138971 0.023775 0.096078
0.201471 0.023775 0.096078
0.263971 0.023775 0.096078
0.326471 0.023775 0.096078
0.388971 0.023775 0.096078
0.451471 0.023775 0.096078
0.513971 0.023775 0.096078
0.576471 0.023775 0.096078
0.638971 0.023775 0.096078
0.701471 0.023775 0.096078
0.763971 0.023775 0.096078
0.826471 0.023775 0.096078
0.888971 0.023775 0.096078
0.951471 0.023775 0.096078
0.000000 0.086275 0.096078
0.013971 0.086275 0.096078
0.076471 0.086275 0.096078
0.138971 0.086275 0.096078
0.201471 0.086275 0.096078
0.263971 0.086275 0.096078
0.326471 0.086275 0.096078
0.388971 0.086275 0.096078
0.451471 0.086275 0.096078
0.513971 0.086275 0.096078
0.576471 0.086275 0.096078
0.638971 0.086275 0.096078
0.701471 0.086275 0.096078
0.763971 0.086275 0.096078
0.826471 0.086275 0.096078
0.888971 0.086275 0.096078
0.951471 0.086275 0.096078
0.000000 0.148775 0.096078
0.013971 0.148775 0.096078
0.076471 0.148775 0.096078
0.138971 0.148775 0.096078
0.201471 0.148775 0.096078
0.263971 0.148775 0.096078
0.326471 0.148775 0.096078
0.388971 0.148775 0.096078
0.451471 0.148775 0.096078
0.513971 0.148775 0.096078
0.576471 0.148775 0.096078
0.638971 0.148775 0.096078
0.701471 0.148775 0.096078
0.763971 0.148775 0.096078
0.826471 0.148775 0.096078
0.888971 0.148775 0.096078
0.951471 0.148775 0.096078
0.000000 0.211275 0.096078
0.013971 0.211275 0.096078
0.076471 0.211275 0.096078
0.138971 0.211275 0.096078
0.201471 0.211275 0.096078
0.263971 0.211275 0.096078
0.326471 0.211275 0.096078
0.388971 0.211275 0.096078
0.451471 0.211275 0.096078
0.513971 0.211275 0.096078
0.576471 0.211275 0.096078
0.638971 0.211275 0.096078
0.701471 0.211275 0.096078
0.763971 0.211275 0.096078
0.826471 0.211275 0.096078
0.888971 0.211275 0.096078
0.951471 0.211275 0.096078
0.000000 0.273775 0.096078
0.013971 0.273775 0.096078
0.076471 0.273775 0.096078
0.138971 0.273775 0.096078
0.201471 0.273775 0.096078
0.263971 0.273775 0.096078
0.326471 0.273775 0.096078
0.388971 0.273775 0.096078
0.451471 0.273775 0.096078
0.513971 0.273775 0.096078
0.576471 0.273775 0.096078
0.638971 0.273775 0.096078
0.701471 0.273775 0.096078
0.763971 0.273775 0.096078
0.826471 0.273775 0.096078
0.888971 0.273775 0.096078
0.951471 0.273775 0.096078
0.000000 0.336275 0.096078
0.013971 0.336275 0.096078
0.076471 0.336275 0.096078
0.138971 0.336275 0.096078
0.201471 0.336275 0.096078
0.263971 0.336275 0.096078
0.326471 0.336275 0.096078
0.388971 0.336275 0.096078
0.451471 0.336275 0.096078
0.513971 0.336275 0.096078
0.576471 0.336275 0.096078
0.638971 0.336275 0.096078
0.701471 0.336275 0.096078
0.763971 0.336275 0.096078
0.826471 0.336275 0.096078
0.888971 0.336275 0.096078
0.951471 0.336275 0.096078
0.000000 0.398775 0.096078
0.013971 0.398775 0.096078
0.076471 0.398775 0.096078
0.138971 0.398775 0.096078
0.201471 0.398775 0.096078
0.263971 0.398775 0.096078
0.326471 0.398775 0.096078
0.388971 0.398775 0.096078
0.451471 0.398775 0.096078
0.513971 0.398775 0.096078
0.576471 0.398775 0.096078
0.638971 0.398775 0.096078
0.701471 0.398775 0.096078
0.763971 0.398775 0.096078
0.826471 0.398775 0.096078
0.888971 0.398775 0.096078
0.951471 0.398775 0.096078
0.000000 0.461275 0.096078
0.013971 0.461275 0.096078
0.076471 0.461275 0.096078
0.138971 0.461275 0.096078
0.201471 0.461275 0.096078
0.263971 0.461275 0.096078
0.326471 0.461275 0.096078
0.388971 0.461275 0.096078
0.451471 0.461275 0.096078
0.513971 0.461275 0.096078
0.576471 0.461275 0.096078
0.638971 0.461275 0.096078
0.701471 0.461275 0.096078
0.763971 0.461275 0.096078
0.826471 0.461275 0.096078
0.888971 0.461275 0.096078
0.951471 0.461275 0.096078
0.000000 0.523775 0.096078
0.013971 0.523775 0.096078
0.076471 0.523775 0.096078
0.138971 0.523775 0.096078
0.201471 0.523775 0.096078
0.263971 0.523775 0.096078
0.326471 0.523775 0.096078
0.388971 0.523775 0.096078
0.451471 0.523775 0.096078
0.513971 0.523775 0.096078
0.576471 0.523775 0.096078
0.638971 0.523775 0.096078
0.701471 0.523775 0.096078
0.763971 0.523775 0.096078
0.826471 0.523775 0.096078
0.888971 0.523775 0.096078
0.951471 0.523775 0.096078
0.000000 0.586275 0.096078
0.013971 0.586275 0.096078
0.076471 0.586275 0.096078
0.138971 0.586275 0.096078
0.201471 0.586275 0.096078
0.263971 0.586275 0.096078
0.326471 0.586275 0.096078
0.388971 0.586275 0.096078
0.451471 0.586275 0.096078
0.513971 0.586275 0.096078
0.576471 0.586275 0.096078
0.638971 0.586275 0.096078
0.701471 0.586275 0.096078
0.763971 0.586275 0.096078
0.826471 0.586275 0.096078
0.888971 0.586275 0.096078
0.951471 0.586275 0.096078
0.000000 0.648775 0.096078
0.013971 0.648775 0.096078
0.076471 0.648775 0.096078
0.138971 0.648775 0.096078
0.201471 0.648775 0.096078
0.263971 0.648775 0.096078
0.326471 0.648775 0.096078
0.388971 0.648775 0.096078
0.451471 0.648775 0.096078
0.513971 0.648775 0.096078
0.576471 0.648775 0.096078
0.638971 0.648775 0.096078
0.701471 0.648775 0.096078
0.763971 0.648775 0.096078
0.826471 0.648775 0.096078
0.888971 0.648775 0.096078
0.951471 0.648775 0.096078
0.000000 0.711275 0.096078
0.013971 0.711275 0.096078
0.076471 0.711275 0.096078
0.138971 0.711275 0.096078
0.201471 0.711275 0.096078
0.263971 0.711275 0.096078
0.326471 0.711275 0.096078
0.388971 0.711275 0.096078
0.451471 0.711275 0.096078
0.513971 0.711275 0.096078
0.576471 0.711275 0.096078
0.638971 0.711275 0.096078
0.701471 0.711275 0.096078
0.763971 0.711275 0.096078
0.826471 0.711275 0.096078
0.888971 0.711275 0.096078
0.951471 0.711275 0.096078
0.000000 0.773775 0.096078
0.013971 0.773775 0.096078
0.076471 0.773775 0.096078
0.138971 0.773775 0.096078
0.201471 0.773775 0.096078
0.263971 0.773775 0.096078
0.326471 0.773775 0.096078
0.388971 0.773775 0.096078
0.451471 0.773775 0.096078
0.513971 0.773775 0.096078
0.576471 0.773775 0.096078
0.638971 0.773775 0.096078
0.701471 0.773775 0.096078
0.763971 0.773775 0.096078
0.826471 0.773775 0.096078
0.888971 0.773775 0.096078
0.951471 0.773775 0.096078
0.000000 0.836275 0.096078
0.013971 0.836275 0.096078
0.076471 0.836275 0.096078
0.138971 0.836275 0.096078
0.201471 0.836275 0.096078
0.263971 0.836275 0.096078
0.326471 0.836275 0.096078
0.388971 0.836275 0.096078
0.451471 0.836275 0.096078
0.513971 0.836275 0.096078
0.576471 0.836275 0.096078
0.638971 0.836275 0.096078
0.701471 0.836275 0.096078
0.763971 0.836275 0.096078
0.826471 0.836275 0.096078
0.888971 0.836275 0.096078
0.951471 0.836275 0.096078
0.000000 0.898775 0.096078
0.013971 0.898775 0.096078
0.076471 0.898775 0.096078
0.138971 0.898775 0.096078
0.201471 0.898775 0.096078
0.263971 0.898775 0.096078
0.326471 0.898775 0.096078
0.388971 0.898775 0.096078
0.451471 0.898775 0.096078
0.513971 0.898775 0.096078
0.576471 0.898775 0.096078
0.638971 0.898775 0.096078
0.701471 0.898775 0.096078
0.763971 0.898775 0.096078
0.826471 0.898775 0.096078
0.888971 0.898775 0.096078
0.951471 0.898775 0.096078
0.000000 0.961275 0.096078
0.013971 0.961275 0.096078
0.076471 0.961275 0.096078
0.138971 0.961275 0.096078
0.201471 0.961275 0.096078
0.263971 0.961275 0.096078
0.326471 0.961275 0.096078
0.388971 0.961275 0.096078
0.451471 0.961275 0.096078
0.513971 0.961275 0.096078
0.576471 0.961275 0.096078
0.638971 0.961275 0.096078
0.701471 0.961275 0.096078
0.763971 0.961275 0.096078
0.826471 0.961275 0.096078
0.888971 0.961275 0.096078
0.951471 0.961275 0.096078
0.000000 0.000000 0.158578
0.013971 0.000000 0.158578
0.076471 0.000000 0.158578
0.138971 0.000000 0.158578
0.201471 0.000000 0.158578
0.263971 0.000000 0.158578
0.326471 0.000000 0.158578
0.388971 0.000000 0.158578
0.451471 0.000000 0.158578
0.513971 0.000000 0.158578
0.576471 0.000000 0.158578
0.638971 0.000000 0.158578
0.701471 0.000000 0.158578
0.763971 0.000000 0.158578
0.826471 0.000000 0.158578
0.888971 0.000000 0.158578
0.951471 0.000000 0.158578
0.000000 0.023775 0.158578
0.013971 0.023775 0.158578
