output/cinematic_lut.cube
# Generated by Cinematic LUT Generator
LUT_3D_SIZE 5
0.000000 0.000000 0.000000
0.201471 0.000000 0.000000
0.451471 0.000000 0.000000
0.701471 0.000000 0.000000
0.951471 0.000000 0.000000
0.000000 0.211275 0.000000
0.201471 0.211275 0.000000
0.451471 0.211275 0.000000
0.701471 0.211275 0.000000
0.951471 0.211275 0.000000
0.000000 0.461275 0.000000
0.201471 0.461275 0.000000
0.451471 0.461275 0.000000
0.701471 0.461275 0.000000
0.951471 0.461275 0.000000
0.000000 0.711275 0.000000
0.201471 0.711275 0.000000
0.451471 0.711275 0.000000
0.701471 0.711275 0.000000
0.951471 0.711275 0.000000
0.000000 0.961275 0.000000
0.201471 0.961275 0.000000
0.451471 0.961275 0.000000
0.701471 0.961275 0.000000
0.951471 0.961275 0.000000
0.000000 0.000000 0.221078
0.201471 0.000000 0.221078
0.451471 0.000000 0.221078
0.701471 0.000000 0.221078
0.951471 0.000000 0.221078
0.000000 0.211275 0.221078
0.201471 0.211275 0.221078
0.451471 0.211275 0.221078
0.701471 0.211275 0.221078
0.951471 0.211275 0.221078
0.000000 0.461275 0.221078
0.201471 0.461275 0.221078
0.451471 0.461275 0.221078
0.701471 0.461275 0.221078
0.951471 0.461275 0.221078
0.000000 0.711275 0.221078
0.201471 0.711275 0.221078
0.451471 0.711275 0.221078
0.701471 0.711275 0.221078
0.951471 0.711275 0.221078
0.000000 0.961275 0.221078
0.201471 0.961275 0.221078
0.451471 0.961275 0.221078
0.701471 0.961275 0.221078
0.951471 0.961275 0.221078
0.000000 0.000000 0.471078
0.201471 0.000000 0.471078
0.451471 0.000000 0.471078
0.701471 0.000000 0.471078
0.951471 0.000000 0.471078
0.000000 0.211275 0.471078
0.201471 0.211275 0.471078
0.451471 0.211275 0.471078
0.701471 0.211275 0.471078
0.951471 0.211275 0.471078
0.000000 0.461275 0.471078
0.201471 0.461275 0.471078
0.451471 0.461275 0.471078
0.701471 0.461275 0.471078
0.951471 0.461275 0.471078
0.000000 0.711275 0.471078
0.201471 0.711275 0.471078
0.451471 0.711275 0.471078
0.701471 0.711275 0.471078
0.951471 0.711275 0.471078
0.000000 0.961275 0.471078
0.201471 0.961275 0.471078
0.451471 0.961275 0.471078
0.701471 0.961275 0.471078
0.951471 0.961275 0.471078
0.000000 0.000000 0.721078
0.201471 0.000000 0.721078
0.451471 0.000000 0.721078
0.701471 0.000000 0.721078
0.951471 0.000000 0.721078
0.000000 0.211275 0.721078
0.201471 0.211275 0.721078
0.451471 0.211275 0.721078
0.701471 0.211275 0.721078
0.951471 0.211275 0.721078
0.000000 0.461275 0.721078
0.201471 0.461275 0.721078
0.451471 0.461275 0.721078
0.701471 0.461275 0.721078
0.951471 0.461275 0.721078
0.000000 0.711275 0.721078
0.201471 0.711275 0.721078
0.451471 0.711275 0.721078
0.701471 0.711275 0.721078
0.951471 0.711275 0.721078
0.000000 0.961275 0.721078
0.201471 0.961275 0.721078
0.451471 0.961275 0.721078
0.701471 0.961275 0.721078
0.951471 0.961275 0.721078
0.000000 0.000000 0.971078
0.201471 0.000000 0.971078
0.451471 0.000000 0.971078
0.701471 0.000000 0.971078
0.951471 0.000000 0.971078
0.000000 0.211275 0.971078
0.201471 0.211275 0.971078
0.451471 0.211275 0.971078
0.701471 0.211275 0.971078
0.951471 0.211275 0.971078
0.000000 0.461275 0.971078
0.201471 0.461275 0.971078
0.451471 0.461275 0.971078
0.701471 0.461275 0.971078
0.951471 0.461275 0.971078
0.000000 0.711275 0.971078
0.201471 0.711275 0.971078
0.451471 0.711275 0.971078
0.701471 0.711275 0.971078
0.951471 0.711275 0.971078
0.000000 0.961275 0.971078
0.201471 0.961275 0.971078
0.451471 0.961275 0.971078
0.701471 0.961275 0.971078
0.951471 0.961275 0.971078
