output/cinematic_lut.cube
# Generated by Cinematic LUT Generator
LUT_3D_SIZE 9
0.000000 0.000000 0.000000
0.076471 0.000000 0.000000
0.201471 0.000000 0.000000
0.326471 0.000000 0.000000
0.451471 0.000000 0.000000
0.576471 0.000000 0.000000
0.701471 0.000000 0.000000
0.826471 0.000000 0.000000
0.951471 0.000000 0.000000
0.000000 0.086275 0.000000
0.076471 0.086275 0.000000
0.201471 0.086275 0.000000
0.326471 0.086275 0.000000
0.451471 0.086275 0.000000
0.576471 0.086275 0.000000
0.701471 0.086275 0.000000
0.826471 0.086275 0.000000
0.951471 0.086275 0.000000
0.000000 0.211275 0.000000
0.076471 0.211275 0.000000
0.201471 0.211275 0.000000
0.326471 0.211275 0.000000
0.451471 0.211275 0.000000
0.576471 0.211275 0.000000
0.701471 0.211275 0.000000
0.826471 0.211275 0.000000
0.951471 0.211275 0.000000
0.000000 0.336275 0.000000
0.076471 0.336275 0.000000
0.201471 0.336275 0.000000
0.326471 0.336275 0.000000
0.451471 0.336275 0.000000
0.576471 0.336275 0.000000
0.701471 0.336275 0.000000
0.826471 0.336275 0.000000
0.951471 0.336275 0.000000
0.000000 0.461275 0.000000
0.076471 0.461275 0.000000
0.201471 0.461275 0.000000
0.326471 0.461275 0.000000
0.451471 0.461275 0.000000
0.576471 0.461275 0.000000
0.701471 0.461275 0.000000
0.826471 0.461275 0.000000
0.951471 0.461275 0.000000
0.000000 0.586275 0.000000
0.076471 0.586275 0.000000
0.201471 0.586275 0.000000
0.326471 0.586275 0.000000
0.451471 0.586275 0.000000
0.576471 0.586275 0.000000
0.701471 0.586275 0.000000
0.826471 0.586275 0.000000
0.951471 0.586275 0.000000
0.000000 0.711275 0.000000
0.076471 0.711275 0.000000
0.201471 0.711275 0.000000
0.326471 0.711275 0.000000
0.451471 0.711275 0.000000
0.576471 0.711275 0.000000
0.701471 0.711275 0.000000
0.826471 0.711275 0.000000
0.951471 0.711275 0.000000
0.000000 0.836275 0.000000
0.076471 0.836275 0.000000
0.201471 0.836275 0.000000
0.326471 0.836275 0.000000
0.451471 0.836275 0.000000
0.576471 0.836275 0.000000
0.701471 0.836275 0.000000
0.826471 0.836275 0.000000
0.951471 0.836275 0.000000
0.000000 0.961275 0.000000
0.076471 0.961275 0.000000
0.201471 0.961275 0.000000
0.326471 0.961275 0.000000
0.451471 0.961275 0.000000
0.576471 0.961275 0.000000
0.701471 0.961275 0.000000
0.826471 0.961275 0.000000
0.951471 0.961275 0.000000
0.000000 0.000000 0.096078
0.076471 0.000000 0.096078
0.201471 0.000000 0.096078
0.326471 0.000000 0.096078
0.451471 0.000000 0.096078
0.576471 0.000000 0.096078
0.701471 0.000000 0.096078
0.826471 0.000000 0.096078
0.951471 0.000000 0.096078
0.000000 0.086275 0.096078
0.076471 0.086275 0.096078
0.201471 0.086275 0.096078
0.326471 0.086275 0.096078
0.451471 0.086275 0.096078
0.576471 0.086275 0.096078
0.701471 0.086275 0.096078
0.826471 0.086275 0.096078
0.951471 0.086275 0.096078
0.000000 0.211275 0.096078
0.076471 0.211275 0.096078
0.201471 0.211275 0.096078
0.326471 0.211275 0.096078
0.451471 0.211275 0.096078
0.576471 0.211275 0.096078
0.701471 0.211275 0.096078
0.826471 0.211275 0.096078
0.951471 0.211275 0.096078
0.000000 0.336275 0.096078
0.076471 0.336275 0.096078
0.201471 0.336275 0.096078
0.326471 0.336275 0.096078
0.451471 0.336275 0.096078
0.576471 0.336275 0.096078
0.701471 0.336275 0.096078
0.826471 0.336275 0.096078
0.951471 0.336275 0.096078
0.000000 0.461275 0.096078
0.076471 0.461275 0.096078
0.201471 0.461275 0.096078
0.326471 0.461275 0.096078
0.451471 0.461275 0.096078
0.576471 0.461275 0.096078
0.701471 0.461275 0.096078
0.826471 0.461275 0.096078
0.951471 0.461275 0.096078
0.000000 0.586275 0.096078
0.076471 0.586275 0.096078
0.201471 0.586275 0.096078
0.326471 0.586275 0.096078
0.451471 0.586275 0.096078
0.576471 0.586275 0.096078
0.701471 0.586275 0.096078
0.826471 0.586275 0.096078
0.951471 0.586275 0.096078
0.000000 0.711275 0.096078
0.076471 0.711275 0.096078
0.201471 0.711275 0.096078
0.326471 0.711275 0.096078
0.451471 0.711275 0.096078
0.576471 0.711275 0.096078
0.701471 0.711275 0.096078
0.826471 0.711275 0.096078
0.951471 0.711275 0.096078
0.000000 0.836275 0.096078
0.076471 0.836275 0.096078
0.201471 0.836275 0.096078
0.326471 0.836275 0.096078
0.451471 0.836275 0.096078
0.576471 0.836275 0.096078
0.701471 0.836275 0.096078
0.826471 0.836275 0.096078
0.951471 0.836275 0.096078
0.000000 0.961275 0.096078
0.076471 0.961275 0.096078
0.201471 0.961275 0.096078
0.326471 0.961275 0.096078
0.451471 0.961275 0.096078
0.576471 0.961275 0.096078
0.701471 0.961275 0.096078
0.826471 0.961275 0.096078
0.951471 0.961275 0.096078
0.000000 0.000000 0.221078
0.076471 0.000000 0.221078
0.201471 0.000000 0.221078
0.326471 0.000000 0.221078
0.451471 0.000000 0.221078
0.576471 0.000000 0.221078
0.701471 0.000000 0.221078
0.826471 0.000000 0.221078
0.951471 0.000000 0.221078
0.000000 0.086275 0.221078
0.076471 0.086275 0.221078
0.201471 0.086275 0.221078
0.326471 0.086275 0.221078
0.451471 0.086275 0.221078
0.576471 0.086275 0.221078
0.701471 0.086275 0.221078
0.826471 0.086275 0.221078
0.951471 0.086275 0.221078
0.000000 0.211275 0.221078
0.076471 0.211275 0.221078
0.201471 0.211275 0.221078
0.326471 0.211275 0.221078
0.451471 0.211275 0.221078
0.576471 0.211275 0.221078
0.701471 0.211275 0.221078
0.826471 0.211275 0.221078
0.951471 0.211275 0.221078
0.000000 0.336275 0.221078
0.076471 0.336275 0.221078
0.201471 0.336275 0.221078
0.326471 0.336275 0.221078
0.451471 0.336275 0.221078
0.576471 0.336275 0.221078
0.701471 0.336275 0.221078
0.826471 0.336275 0.221078
0.951471 0.336275 0.221078
0.000000 0.461275 0.221078
0.076471 0.461275 0.221078
0.201471 0.461275 0.221078
0.326471 0.461275 0.221078
0.451471 0.461275 0.221078
0.576471 0.461275 0.221078
0.701471 0.461275 0.221078
0.826471 0.461275 0.221078
0.951471 0.461275 0.221078
0.000000 0.586275 0.221078
0.076471 0.586275 0.221078
0.201471 0.586275 0.221078
0.326471 0.586275 0.221078
0.451471 0.586275 0.221078
0.576471 0.586275 0.221078
0.701471 0.586275 0.221078
0.826471 0.586275 0.221078
0.951471 0.586275 0.221078
0.000000 0.711275 0.221078
0.076471 0.711275 0.221078
0.201471 0.711275 0.221078
0.326471 0.711275 0.221078
0.451471 0.711275 0.221078
0.576471 0.711275 0.221078
0.701471 0.711275 0.221078
0.826471 0.711275 0.221078
0.951471 0.711275 0.221078
0.000000 0.836275 0.221078
0.076471 0.836275 0.221078
0.201471 0.836275 0.221078
0.326471 0.836275 0.221078
0.451471 0.836275 0.221078
0.576471 0.836275 0.221078
0.701471 0.836275 0.221078
0.826471 0.836275 0.221078
0.951471 0.836275 0.221078
0.000000 0.961275 0.221078
0.076471 0.961275 0.221078
0.201471 0.961275 0.221078
0.326471 0.961275 0.221078
0.451471 0.961275 0.221078
0.576471 0.961275 0.221078
0.701471 0.961275 0.221078
0.826471 0.961275 0.221078
0.951471 0.961275 0.221078
0.000000 0.000000 0.346078
0.076471 0.000000 0.346078
0.201471 0.000000 0.346078
0.326471 0.000000 0.346078
0.451471 0.000000 0.346078
0.576471 0.000000 0.346078
0.701471 0.000000 0.346078
0.826471 0.000000 0.346078
0.951471 0.000000 0.346078
0.000000 0.086275 0.346078
0.076471 0.086275 0.346078
0.201471 0.086275 0.346078
0.326471 0.086275 0.346078
0.451471 0.086275 0.346078
0.576471 0.086275 0.346078
0.701471 0.086275 0.346078
0.826471 0.086275 0.346078
0.951471 0.086275 0.346078
0.000000 0.211275 0.346078
0.076471 0.211275 0.346078
0.201471 0.211275 0.346078
0.326471 0.211275 0.346078
0.451471 0.211275 0.346078
0.576471 0.211275 0.346078
0.701471 0.211275 0.346078
0.826471 0.211275 0.346078
0.951471 0.211275 0.346078
0.000000 0.336275 0.346078
0.076471 0.336275 0.346078
0.201471 0.336275 0.346078
0.326471 0.336275 0.346078
0.451471 0.336275 0.346078
0.576471 0.336275 0.346078
0.701471 0.336275 0.346078
0.826471 0.336275 0.346078
0.951471 0.336275 0.346078
0.000000 0.461275 0.346078
0.076471 0.461275 0.346078
0.201471 0.461275 0.346078
0.326471 0.461275 0.346078
0.451471 0.461275 0.346078
0.576471 0.461275 0.346078
0.701471 0.461275 0.346078
0.826471 0.461275 0.346078
0.951471 0.461275 0.346078
0.000000 0.586275 0.346078
0.076471 0.586275 0.346078
0.201471 0.586275 0.346078
0.326471 0.586275 0.346078
0.451471 0.586275 0.346078
0.576471 0.586275 0.346078
0.701471 0.586275 0.346078
0.826471 0.586275 0.346078
0.951471 0.586275 0.346078
0.000000 0.711275 0.346078
0.076471 0.711275 0.346078
0.201471 0.711275 0.346078
0.326471 0.711275 0.346078
0.451471 0.711275 0.346078
0.576471 0.711275 0.346078
0.701471 0.711275 0.346078
0.826471 0.711275 0.346078
0.951471 0.711275 0.346078
0.000000 0.836275 0.346078
0.076471 0.836275 0.346078
0.201471 0.836275 0.346078
0.326471 0.836275 0.346078
0.451471 0.836275 0.346078
0.576471 0.836275 0.346078
0.701471 0.836275 0.346078
0.826471 0.836275 0.346078
0.951471 0.836275 0.346078
0.000000 0.961275 0.346078
0.076471 0.961275 0.346078
0.201471 0.961275 0.346078
0.326471 0.961275 0.346078
0.451471 0.961275 0.346078
0.576471 0.961275 0.346078
0.701471 0.961275 0.346078
0.826471 0.961275 0.346078
0.951471 0.961275 0.346078
0.000000 0.000000 0.471078
0.076471 0.000000 0.471078
0.201471 0.000000 0.471078
0.326471 0.000000 0.471078
0.451471 0.000000 0.471078
0.576471 0.000000 0.471078
0.701471 0.000000 0.471078
0.826471 0.000000 0.471078
0.951471 0.000000 0.471078
0.000000 0.086275 0.471078
0.076471 0.086275 0.471078
0.201471 0.086275 0.471078
0.326471 0.086275 0.471078
0.451471 0.086275 0.471078
0.576471 0.086275 0.471078
0.701471 0.086275 0.471078
0.826471 0.086275 0.471078
0.951471 0.086275 0.471078
0.000000 0.211275 0.471078
0.076471 0.211275 0.471078
0.201471 0.211275 0.471078
0.326471 0.211275 0.471078
0.451471 0.211275 0.471078
0.576471 0.211275 0.471078
0.701471 0.211275 0.471078
0.826471 0.211275 0.471078
0.951471 0.211275 0.471078
0.000000 0.336275 0.471078
0.076471 0.336275 0.471078
0.201471 0.336275 0.471078
0.326471 0.336275 0.471078
0.451471 0.336275 0.471078
0.576471 0.336275 0.471078
0.701471 0.336275 0.471078
0.826471 0.336275 0.471078
0.951471 0.336275 0.471078
0.000000 0.461275 0.471078
0.076471 0.461275 0.471078
0.201471 0.461275 0.471078
0.326471 0.461275 0.471078
0.451471 0.461275 0.471078
0.576471 0.461275 0.471078
0.701471 0.461275 0.471078
0.826471 0.461275 0.471078
0.951471 0.461275 0.471078
0.000000 0.586275 0.471078
0.076471 0.586275 0.471078
0.201471 0.586275 0.471078
0.326471 0.586275 0.471078
0.451471 0.586275 0.471078
0.576471 0.586275 0.471078
0.701471 0.586275 0.471078
0.826471 0.586275 0.471078
0.951471 0.586275 0.471078
0.000000 0.711275 0.471078
0.076471 0.711275 0.471078
0.201471 0.711275 0.471078
0.326471 0.711275 0.471078
0.451471 0.711275 0.471078
0.576471 0.711275 0.471078
0.701471 0.711275 0.471078
0.826471 0.711275 0.471078
0.951471 0.711275 0.471078
0.000000 0.836275 0.471078
0.076471 0.836275 0.471078
0.201471 0.836275 0.471078
0.326471 0.836275 0.471078
0.451471 0.836275 0.471078
0.576471 0.836275 0.471078
0.701471 0.836275 0.471078
0.826471 0.836275 0.471078
0.951471 0.836275 0.471078
0.000000 0.961275 0.471078
0.076471 0.961275 0.471078
0.201471 0.961275 0.471078
0.326471 0.961275 0.471078
0.451471 0.961275 0.471078
0.576471 0.961275 0.471078
0.701471 0.961275 0.471078
0.826471 0.961275 0.471078
0.951471 0.961275 0.471078
0.000000 0.000000 0.596078
0.076471 0.000000 0.596078
0.201471 0.000000 0.596078
0.326471 0.000000 0.596078
0.451471 0.000000 0.596078
0.576471 0.000000 0.596078
0.701471 0.000000 0.596078
0.826471 0.000000 0.596078
0.951471 0.000000 0.596078
0.000000 0.086275 0.596078
0.076471 0.086275 0.596078
0.201471 0.086275 0.596078
0.326471 0.086275 0.596078
0.451471 0.086275 0.596078
0.576471 0.086275 0.596078
0.701471 0.086275 0.596078
0.826471 0.086275 0.596078
0.951471 0.086275 0.596078
0.000000 0.211275 0.596078
0.076471 0.211275 0.596078
0.201471 0.211275 0.596078
0.326471 0.211275 0.596078
0.451471 0.211275 0.596078
0.576471 0.211275 0.596078
0.701471 0.211275 0.596078
0.826471 0.211275 0.596078
0.951471 0.211275 0.596078
0.000000 0.336275 0.596078
0.076471 0.336275 0.596078
0.201471 0.336275 0.596078
0.326471 0.336275 0.596078
0.451471 0.336275 0.596078
0.576471 0.336275 0.596078
0.701471 0.336275 0.596078
0.826471 0.336275 0.596078
0.951471 0.336275 0.596078
0.000000 0.461275 0.596078
0.076471 0.461275 0.596078
0.201471 0.461275 0.596078
0.326471 0.461275 0.596078
0.451471 0.461275 0.596078
0.576471 0.461275 0.596078
0.701471 0.461275 0.596078
0.826471 0.461275 0.596078
0.951471 0.461275 0.596078
0.000000 0.586275 0.596078
0.076471 0.586275 0.596078
0.201471 0.586275 0.596078
0.326471 0.586275 0.596078
0.451471 0.586275 0.596078
0.576471 0.586275 0.596078
0.701471 0.586275 0.596078
0.826471 0.586275 0.596078
0.951471 0.586275 0.596078
0.000000 0.711275 0.596078
0.076471 0.711275 0.596078
0.201471 0.711275 0.596078
0.326471 0.711275 0.596078
0.451471 0.711275 0.596078
0.576471 0.711275 0.596078
0.701471 0.711275 0.596078
0.826471 0.711275 0.596078
0.951471 0.711275 0.596078
0.000000 0.836275 0.596078
0.076471 0.836275 0.596078
0.201471 0.836275 0.596078
0.326471 0.836275 0.596078
0.451471 0.836275 0.596078
0.576471 0.836275 0.596078
0.701471 0.836275 0.596078
0.826471 0.836275 0.596078
0.951471 0.836275 0.596078
0.000000 0.961275 0.596078
0.076471 0.961275 0.596078
0.201471 0.961275 0.596078
0.326471 0.961275 0.596078
0.451471 0.961275 0.596078
0.576471 0.961275 0.596078
0.701471 0.961275 0.596078
0.826471 0.961275 0.596078
0.951471 0.961275 0.596078
0.000000 0.000000 0.721078
0.076471 0.000000 0.721078
0.201471 0.000000 0.721078
0.326471 0.000000 0.721078
0.451471 0.000000 0.721078
0.576471 0.000000 0.721078
0.701471 0.000000 0.721078
0.826471 0.000000 0.721078
0.951471 0.000000 0.721078
0.000000 0.086275 0.721078
0.076471 0.086275 0.721078
0.201471 0.086275 0.721078
0.326471 0.086275 0.721078
0.451471 0.086275 0.721078
0.576471 0.086275 0.721078
0.701471 0.086275 0.721078
0.826471 0.086275 0.721078
0.951471 0.086275 0.721078
0.000000 0.211275 0.721078
0.076471 0.211275 0.721078
0.201471 0.211275 0.721078
0.326471 0.211275 0.721078
0.451471 0.211275 0.721078
0.576471 0.211275 0.721078
0.701471 0.211275 0.721078
0.826471 0.211275 0.721078
0.951471 0.211275 0.721078
0.000000 0.336275 0.721078
0.076471 0.336275 0.721078
0.201471 0.336275 0.721078
0.326471 0.336275 0.721078
0.451471 0.336275 0.721078
0.576471 0.336275 0.721078
0.701471 0.336275 0.721078
0.826471 0.336275 0.721078
0.951471 0.336275 0.721078
0.000000 0.461275 0.721078
0.076471 0.461275 0.721078
0.201471 0.461275 0.721078
0.326471 0.461275 0.721078
0.451471 0.461275 0.721078
0.576471 0.461275 0.721078
0.701471 0.461275 0.721078
0.826471 0.461275 0.721078
0.951471 0.461275 0.721078
0.000000 0.586275 0.721078
0.076471 0.586275 0.721078
0.201471 0.586275 0.721078
0.326471 0.586275 0.721078
0.451471 0.586275 0.721078
0.576471 0.586275 0.721078
0.701471 0.586275 0.721078
0.826471 0.586275 0.721078
0.951471 0.586275 0.721078
0.000000 0.711275 0.721078
0.076471 0.711275 0.721078
0.201471 0.711275 0.721078
0.326471 0.711275 0.721078
0.451471 0.711275 0.721078
0.576471 0.711275 0.721078
0.701471 0.711275 0.721078
0.826471 0.711275 0.721078
0.951471 0.711275 0.721078
0.000000 0.836275 0.721078
0.076471 0.836275 0.721078
0.201471 0.836275 0.721078
0.326471 0.836275 0.721078
0.451471 0.836275 0.721078
0.576471 0.836275 0.721078
0.701471 0.836275 0.721078
0.826471 0.836275 0.721078
0.951471 0.836275 0.721078
0.000000 0.961275 0.721078
0.076471 0.961275 0.721078
0.201471 0.961275 0.721078
0.326471 0.961275 0.721078
0.451471 0.961275 0.721078
0.576471 0.961275 0.721078
0.701471 0.961275 0.721078
0.826471 0.961275 0.721078
0.951471 0.961275 0.721078
0.000000 0.000000 0.846078
0.076471 0.000000 0.846078
0.201471 0.000000 0.846078
0.326471 0.000000 0.846078
0.451471 0.000000 0.846078
0.576471 0.000000 0.846078
0.701471 0.000000 0.846078
0.826471 0.000000 0.846078
0.951471 0.000000 0.846078
0.000000 0.086275 0.846078
0.076471 0.086275 0.846078
0.201471 0.086275 0.846078
0.326471 0.086275 0.846078
0.451471 0.086275 0.846078
0.576471 0.086275 0.846078
0.701471 0.086275 0.846078
0.826471 0.086275 0.846078
0.951471 0.086275 0.846078
0.000000 0.211275 0.846078
0.076471 0.211275 0.846078
0.201471 0.211275 0.846078
0.326471 0.211275 0.846078
0.451471 0.211275 0.846078
0.576471 0.211275 0.846078
0.701471 0.211275 0.846078
0.826471 0.211275 0.846078
0.951471 0.211275 0.846078
0.000000 0.336275 0.846078
0.076471 0.336275 0.846078
0.201471 0.336275 0.846078
0.326471 0.336275 0.846078
0.451471 0.336275 0.846078
0.576471 0.336275 0.846078
0.701471 0.336275 0.846078
0.826471 0.336275 0.846078
0.951471 0.336275 0.846078
0.000000 0.461275 0.846078
0.076471 0.461275 0.846078
0.201471 0.461275 0.846078
0.326471 0.461275 0.846078
0.451471 0.461275 0.846078
0.576471 0.461275 0.846078
0.701471 0.461275 0.846078
0.826471 0.461275 0.846078
0.951471 0.461275 0.846078
0.000000 0.586275 0.846078
0.076471 0.586275 0.846078
0.201471 0.586275 0.846078
0.326471 0.586275 0.846078
0.451471 0.586275 0.846078
0.576471 0.586275 0.846078
0.701471 0.586275 0.846078
0.826471 0.586275 0.846078
0.951471 0.586275 0.846078
0.000000 0.711275 0.846078
0.076471 0.711275 0.846078
0.201471 0.711275 0.846078
0.326471 0.711275 0.846078
0.451471 0.711275 0.846078
0.576471 0.711275 0.846078
0.701471 0.711275 0.846078
0.826471 0.711275 0.846078
0.951471 0.711275 0.846078
0.000000 0.836275 0.846078
0.076471 0.836275 0.846078
0.201471 0.836275 0.846078
0.326471 0.836275 0.846078
0.451471 0.836275 0.846078
0.576471 0.836275 0.846078
0.701471 0.836275 0.846078
0.826471 0.836275 0.846078
0.951471 0.836275 0.846078
0.000000 0.961275 0.846078
0.076471 0.961275 0.846078
0.201471 0.961275 0.846078
0.326471 0.961275 0.846078
0.451471 0.961275 0.846078
0.576471 0.961275 0.846078
0.701471 0.961275 0.846078
0.826471 0.961275 0.846078
0.951471 0.961275 0.846078
0.000000 0.000000 0.971078
0.076471 0.000000 0.971078
0.201471 0.000000 0.971078
0.326471 0.000000 0.971078
0.451471 0.000000 0.971078
0.576471 0.000000 0.971078
0.701471 0.000000 0.971078
0.826471 0.000000 0.971078
0.951471 0.000000 0.971078
0.000000 0.086275 0.971078
0.076471 0.086275 0.971078
0.201471 0.086275 0.971078
0.326471 0.086275 0.971078
0.451471 0.086275 0.971078
0.576471 0.086275 0.971078
0.701471 0.086275 0.971078
0.826471 0.086275 0.971078
0.951471 0.086275 0.971078
0.000000 0.211275 0.971078
0.076471 0.211275 0.971078
0.201471 0.211275 0.971078
0.326471 0.211275 0.971078
0.451471 0.211275 0.971078
0.576471 0.211275 0.971078
0.701471 0.211275 0.971078
0.826471 0.211275 0.971078
0.951471 0.211275 0.971078
0.000000 0.336275 0.971078
0.076471 0.336275 0.971078
0.201471 0.336275 0.971078
0.326471 0.336275 0.971078
0.451471 0.336275 0.971078
0.576471 0.336275 0.971078
0.701471 0.336275 0.971078
0.826471 0.336275 0.971078
0.951471 0.336275 0.971078
0.000000 0.461275 0.971078
0.076471 0.461275 0.971078
0.201471 0.461275 0.971078
0.326471 0.461275 0.971078
0.451471 0.461275 0.971078
0.576471 0.461275 0.971078
0.701471 0.461275 0.971078
0.826471 0.461275 0.971078
0.951471 0.461275 0.971078
0.000000 0.586275 0.971078
0.076471 0.586275 0.971078
0.201471 0.586275 0.971078
0.326471 0.586275 0.971078
0.451471 0.586275 0.971078
0.576471 0.586275 0.971078
0.701471 0.586275 0.971078
0.826471 0.586275 0.971078
0.951471 0.586275 0.971078
0.000000 0.711275 0.971078
0.076471 0.711275 0.971078
0.201471 0.711275 0.971078
0.326471 0.711275 0.971078
0.451471 0.711275 0.971078
0.576471 0.711275 0.971078
0.701471 0.711275 0.971078
0.826471 0.711275 0.971078
0.951471 0.711275 0.971078
0.000000 0.836275 0.971078
0.076471 0.836275 0.971078
0.201471 0.836275 0.971078
0.326471 0.836275 0.971078
0.451471 0.836275 0.971078
0.576471 0.836275 0.971078
0.701471 0.836275 0.971078
0.826471 0.836275 0.971078
0.951471 0.836275 0.971078
0.000000 0.961275 0.971078
0.076471 0.961275 0.971078
0.201471 0.961275 0.971078
0.326471 0.961275 0.971078
0.451471 0.961275 0.971078
0.576471 0.961275 0.971078
0.701471 0.961275 0.971078
0.826471 0.961275 0.971078
0.951471 0.961275 0.971078
