output/Justice League ZS_4k_hd_cinematic.cube
# Cinematic LUT Generator with Live Preview
# Tint Strength: 0.75, Gamma Curve: 0.9
LUT_3D_SIZE 17
0.213235 0.157353 0.069118
0.295705 0.157353 0.069118
0.367128 0.157353 0.069118
0.434902 0.157353 0.069118
0.500410 0.157353 0.069118
0.564282 0.157353 0.069118
0.626881 0.157353 0.069118
0.688439 0.157353 0.069118
0.749122 0.157353 0.069118
0.809049 0.157353 0.069118
0.868312 0.157353 0.069118
0.926984 0.157353 0.069118
0.985125 0.157353 0.069118
1.000000 0.157353 0.069118
1.000000 0.157353 0.069118
1.000000 0.157353 0.069118
1.000000 0.157353 0.069118
0.213235 0.239822 0.069118
0.295705 0.239822 0.069118
0.367128 0.239822 0.069118
0.434902 0.239822 0.069118
0.500410 0.239822 0.069118
0.564282 0.239822 0.069118
0.626881 0.239822 0.069118
0.688439 0.239822 0.069118
0.749122 0.239822 0.069118
0.809049 0.239822 0.069118
0.868312 0.239822 0.069118
0.926984 0.239822 0.069118
0.985125 0.239822 0.069118
1.000000 0.239822 0.069118
1.000000 0.239822 0.069118
1.000000 0.239822 0.069118
1.000000 0.239822 0.069118
0.213235 0.311246 0.069118
0.295705 0.311246 0.069118
0.367128 0.311246 0.069118
0.434902 0.311246 0.069118
0.500410 0.311246 0.069118
0.564282 0.311246 0.069118
0.626881 0.311246 0.069118
0.688439 0.311246 0.069118
0.749122 0.311246 0.069118
0.809049 0.311246 0.069118
0.868312 0.311246 0.069118
0.926984 0.311246 0.069118
0.985125 0.311246 0.069118
1.000000 0.311246 0.069118
1.000000 0.311246 0.069118
1.000000 0.311246 0.069118
1.000000 0.311246 0.069118
0.213235 0.379020 0.069118
0.295705 0.379020 0.069118
0.367128 0.379020 0.069118
0.434902 0.379020 0.069118
0.500410 0.379020 0.069118
0.564282 0.379020 0.069118
0.626881 0.379020 0.069118
0.688439 0.379020 0.069118
0.749122 0.379020 0.069118
0.809049 0.379020 0.069118
0.868312 0.379020 0.069118
0.926984 0.379020 0.069118
0.985125 0.379020 0.069118
1.000000 0.379020 0.069118
1.000000 0.379020 0.069118
1.000000 0.379020 0.069118
1.000000 0.379020 0.069118
0.213235 0.444528 0.069118
0.295705 0.444528 0.069118
0.367128 0.444528 0.069118
0.434902 0.444528 0.069118
0.500410 0.444528 0.069118
0.564282 0.444528 0.069118
0.626881 0.444528 0.069118
0.688439 0.444528 0.069118
0.749122 0.444528 0.069118
0.809049 0.444528 0.069118
0.868312 0.444528 0.069118
0.926984 0.444528 0.069118
0.985125 0.444528 0.069118
1.000000 0.444528 0.069118
1.000000 0.444528 0.069118
1.000000 0.444528 0.069118
1.000000 0.444528 0.069118
0.213235 0.508400 0.069118
0.295705 0.508400 0.069118
0.367128 0.508400 0.069118
0.434902 0.508400 0.069118
0.500410 0.508400 0.069118
0.564282 0.508400 0.069118
0.626881 0.508400 0.069118
0.688439 0.508400 0.069118
0.749122 0.508400 0.069118
0.809049 0.508400 0.069118
0.868312 0.508400 0.069118
0.926984 0.508400 0.069118
0.985125 0.508400 0.069118
1.000000 0.508400 0.069118
1.000000 0.508400 0.069118
1.000000 0.508400 0.069118
1.000000 0.508400 0.069118
0.213235 0.570998 0.069118
0.295705 0.570998 0.069118
0.367128 0.570998 0.069118
0.434902 0.570998 0.069118
0.500410 0.570998 0.069118
0.564282 0.570998 0.069118
0.626881 0.570998 0.069118
0.688439 0.570998 0.069118
0.749122 0.570998 0.069118
0.809049 0.570998 0.069118
0.868312 0.570998 0.069118
0.926984 0.570998 0.069118
0.985125 0.570998 0.069118
1.000000 0.570998 0.069118
1.000000 0.570998 0.069118
1.000000 0.570998 0.069118
1.000000 0.570998 0.069118
0.213235 0.632557 0.069118
0.295705 0.632557 0.069118
0.367128 0.632557 0.069118
0.434902 0.632557 0.069118
0.500410 0.632557 0.069118
0.564282 0.632557 0.069118
0.626881 0.632557 0.069118
0.688439 0.632557 0.069118
0.749122 0.632557 0.069118
0.809049 0.632557 0.069118
0.868312 0.632557 0.069118
0.926984 0.632557 0.069118
0.985125 0.632557 0.069118
1.000000 0.632557 0.069118
1.000000 0.632557 0.069118
1.000000 0.632557 0.069118
1.000000 0.632557 0.069118
0.213235 0.693240 0.069118
0.295705 0.693240 0.069118
0.367128 0.693240 0.069118
0.434902 0.693240 0.069118
0.500410 0.693240 0.069118
0.564282 0.693240 0.069118
0.626881 0.693240 0.069118
0.688439 0.693240 0.069118
0.749122 0.693240 0.069118
0.809049 0.693240 0.069118
0.868312 0.693240 0.069118
0.926984 0.693240 0.069118
0.985125 0.693240 0.069118
1.000000 0.693240 0.069118
1.000000 0.693240 0.069118
1.000000 0.693240 0.069118
1.000000 0.693240 0.069118
0.213235 0.753166 0.069118
0.295705 0.753166 0.069118
0.367128 0.753166 0.069118
0.434902 0.753166 0.069118
0.500410 0.753166 0.069118
0.564282 0.753166 0.069118
0.626881 0.753166 0.069118
0.688439 0.753166 0.069118
0.749122 0.753166 0.069118
0.809049 0.753166 0.069118
0.868312 0.753166 0.069118
0.926984 0.753166 0.069118
0.985125 0.753166 0.069118
1.000000 0.753166 0.069118
1.000000 0.753166 0.069118
1.000000 0.753166 0.069118
1.000000 0.753166 0.069118
0.213235 0.812429 0.069118
0.295705 0.812429 0.069118
0.367128 0.812429 0.069118
0.434902 0.812429 0.069118
0.500410 0.812429 0.069118
0.564282 0.812429 0.069118
0.626881 0.812429 0.069118
0.688439 0.812429 0.069118
0.749122 0.812429 0.069118
0.809049 0.812429 0.069118
0.868312 0.812429 0.069118
0.926984 0.812429 0.069118
0.985125 0.812429 0.069118
1.000000 0.812429 0.069118
1.000000 0.812429 0.069118
1.000000 0.812429 0.069118
1.000000 0.812429 0.069118
0.213235 0.871102 0.069118
0.295705 0.871102 0.069118
0.367128 0.871102 0.069118
0.434902 0.871102 0.069118
0.500410 0.871102 0.069118
0.564282 0.871102 0.069118
0.626881 0.871102 0.069118
0.688439 0.871102 0.069118
0.749122 0.871102 0.069118
0.809049 0.871102 0.069118
0.868312 0.871102 0.069118
0.926984 0.871102 0.069118
0.985125 0.871102 0.069118
1.000000 0.871102 0.069118
1.000000 0.871102 0.069118
1.000000 0.871102 0.069118
1.000000 0.871102 0.069118
0.213235 0.929242 0.069118
0.295705 0.929242 0.069118
0.367128 0.929242 0.069118
0.434902 0.929242 0.069118
0.500410 0.929242 0.069118
0.564282 0.929242 0.069118
0.626881 0.929242 0.069118
0.688439 0.929242 0.069118
0.749122 0.929242 0.069118
0.809049 0.929242 0.069118
0.868312 0.929242 0.069118
0.926984 0.929242 0.069118
0.985125 0.929242 0.069118
1.000000 0.929242 0.069118
1.000000 0.929242 0.069118
1.000000 0.929242 0.069118
1.000000 0.929242 0.069118
0.213235 0.986900 0.069118
0.295705 0.986900 0.069118
0.367128 0.986900 0.069118
0.434902 0.986900 0.069118
0.500410 0.986900 0.069118
0.564282 0.986900 0.069118
0.626881 0.986900 0.069118
0.688439 0.986900 0.069118
0.749122 0.986900 0.069118
0.809049 0.986900 0.069118
0.868312 0.986900 0.069118
0.926984 0.986900 0.069118
0.985125 0.986900 0.069118
1.000000 0.986900 0.069118
1.000000 0.986900 0.069118
1.000000 0.986900 0.069118
1.000000 0.986900 0.069118
0.213235 1.000000 0.069118
0.295705 1.000000 0.069118
0.367128 1.000000 0.069118
0.434902 1.000000 0.069118
0.500410 1.000000 0.069118
0.564282 1.000000 0.069118
0.626881 1.000000 0.069118
0.688439 1.000000 0.069118
0.749122 1.000000 0.069118
0.809049 1.000000 0.069118
0.868312 1.000000 0.069118
0.926984 1.000000 0.069118
0.985125 1.000000 0.069118
1.000000 1.000000 0.069118
1.000000 1.000000 0.069118
1.000000 1.000000 0.069118
1.000000 1.000000 0.069118
0.213235 1.000000 0.069118
0.295705 1.000000 0.069118
0.367128 1.000000 0.069118
0.434902 1.000000 0.069118
0.500410 1.000000 0.069118
0.564282 1.000000 0.069118
0.626881 1.000000 0.069118
0.688439 1.000000 0.069118
0.749122 1.000000 0.069118
0.809049 1.000000 0.069118
0.868312 1.000000 0.069118
0.926984 1.000000 0.069118
0.985125 1.000000 0.069118
1.000000 1.000000 0.069118
1.000000 1.000000 0.069118
1.000000 1.000000 0.069118
1.000000 1.000000 0.069118
0.213235 1.000000 0.069118
0.295705 1.000000 0.069118
0.367128 1.000000 0.069118
0.434902 1.000000 0.069118
0.500410 1.000000 0.069118
0.564282 1.000000 0.069118
0.626881 1.000000 0.069118
0.688439 1.000000 0.069118
0.749122 1.000000 0.069118
0.809049 1.000000 0.069118
0.868312 1.000000 0.069118
0.926984 1.000000 0.069118
0.985125 1.000000 0.069118
1.000000 1.000000 0.069118
1.000000 1.000000 0.069118
1.000000 1.000000 0.069118
1.000000 1.000000 0.069118
0.213235 0.157353 0.151587
0.295705 0.157353 0.151587
0.367128 0.157353 0.151587
0.434902 0.157353 0.151587
0.500410 0.157353 0.151587
0.564282 0.157353 0.151587
0.626881 0.157353 0.151587
0.688439 0.157353 0.151587
0.749122 0.157353 0.151587
0.809049 0.157353 0.151587
0.868312 0.157353 0.151587
0.926984 0.157353 0.151587
0.985125 0.157353 0.151587
1.000000 0.157353 0.151587
1.000000 0.157353 0.151587
1.000000 0.157353 0.151587
1.000000 0.157353 0.151587
0.213235 0.239822 0.151587
0.295705 0.239822 0.151587
0.367128 0.239822 0.151587
0.434902 0.239822 0.151587
0.500410 0.239822 0.151587
0.564282 0.239822 0.151587
0.626881 0.239822 0.151587
0.688439 0.239822 0.151587
0.749122 0.239822 0.151587
0.809049 0.239822 0.151587
0.868312 0.239822 0.151587
0.926984 0.239822 0.151587
0.985125 0.239822 0.151587
1.000000 0.239822 0.151587
1.000000 0.239822 0.151587
1.000000 0.239822 0.151587
1.000000 0.239822 0.151587
0.213235 0.311246 0.151587
0.295705 0.311246 0.151587
0.367128 0.311246 0.151587
0.434902 0.311246 0.151587
0.500410 0.311246 0.151587
0.564282 0.311246 0.151587
0.626881 0.311246 0.151587
0.688439 0.311246 0.151587
0.749122 0.311246 0.151587
0.809049 0.311246 0.151587
0.868312 0.311246 0.151587
0.926984 0.311246 0.151587
0.985125 0.311246 0.151587
1.000000 0.311246 0.151587
1.000000 0.311246 0.151587
1.000000 0.311246 0.151587
1.000000 0.311246 0.151587
0.213235 0.379020 0.151587
0.295705 0.379020 0.151587
0.367128 0.379020 0.151587
0.434902 0.379020 0.151587
0.500410 0.379020 0.151587
0.564282 0.379020 0.151587
0.626881 0.379020 0.151587
0.688439 0.379020 0.151587
0.749122 0.379020 0.151587
0.809049 0.379020 0.151587
0.868312 0.379020 0.151587
0.926984 0.379020 0.151587
0.985125 0.379020 0.151587
1.000000 0.379020 0.151587
1.000000 0.379020 0.151587
1.000000 0.379020 0.151587
1.000000 0.379020 0.151587
0.213235 0.444528 0.151587
0.295705 0.444528 0.151587
0.367128 0.444528 0.151587
0.434902 0.444528 0.151587
0.500410 0.444528 0.151587
0.564282 0.444528 0.151587
0.626881 0.444528 0.151587
0.688439 0.444528 0.151587
0.749122 0.444528 0.151587
0.809049 0.444528 0.151587
0.868312 0.444528 0.151587
0.926984 0.444528 0.151587
0.985125 0.444528 0.151587
1.000000 0.444528 0.151587
1.000000 0.444528 0.151587
1.000000 0.444528 0.151587
1.000000 0.444528 0.151587
0.213235 0.508400 0.151587
0.295705 0.508400 0.151587
0.367128 0.508400 0.151587
0.434902 0.508400 0.151587
0.500410 0.508400 0.151587
0.564282 0.508400 0.151587
0.626881 0.508400 0.151587
0.688439 0.508400 0.151587
0.749122 0.508400 0.151587
0.809049 0.508400 0.151587
0.868312 0.508400 0.151587
0.926984 0.508400 0.151587
0.985125 0.508400 0.151587
1.000000 0.508400 0.151587
1.000000 0.508400 0.151587
1.000000 0.508400 0.151587
1.000000 0.508400 0.151587
0.213235 0.570998 0.151587
0.295705 0.570998 0.151587
0.367128 0.570998 0.151587
0.434902 0.570998 0.151587
0.500410 0.570998 0.151587
0.564282 0.570998 0.151587
0.626881 0.570998 0.151587
0.688439 0.570998 0.151587
0.749122 0.570998 0.151587
0.809049 0.570998 0.151587
0.868312 0.570998 0.151587
0.926984 0.570998 0.151587
0.985125 0.570998 0.151587
1.000000 0.570998 0.151587
1.000000 0.570998 0.151587
1.000000 0.570998 0.151587
1.000000 0.570998 0.151587
0.213235 0.632557 0.151587
0.295705 0.632557 0.151587
0.367128 0.632557 0.151587
0.434902 0.632557 0.151587
0.500410 0.632557 0.151587
0.564282 0.632557 0.151587
0.626881 0.632557 0.151587
0.688439 0.632557 0.151587
0.749122 0.632557 0.151587
0.809049 0.632557 0.151587
0.868312 0.632557 0.151587
0.926984 0.632557 0.151587
0.985125 0.632557 0.151587
1.000000 0.632557 0.151587
1.000000 0.632557 0.151587
1.000000 0.632557 0.151587
1.000000 0.632557 0.151587
0.213235 0.693240 0.151587
0.295705 0.693240 0.151587
0.367128 0.693240 0.151587
0.434902 0.693240 0.151587
0.500410 0.693240 0.151587
0.564282 0.693240 0.151587
0.626881 0.693240 0.151587
0.688439 0.693240 0.151587
0.749122 0.693240 0.151587
0.809049 0.693240 0.151587
0.868312 0.693240 0.151587
0.926984 0.693240 0.151587
0.985125 0.693240 0.151587
1.000000 0.693240 0.151587
1.000000 0.693240 0.151587
1.000000 0.693240 0.151587
1.000000 0.693240 0.151587
0.213235 0.753166 0.151587
0.295705 0.753166 0.151587
0.367128 0.753166 0.151587
0.434902 0.753166 0.151587
0.500410 0.753166 0.151587
0.564282 0.753166 0.151587
0.626881 0.753166 0.151587
0.688439 0.753166 0.151587
0.749122 0.753166 0.151587
0.809049 0.753166 0.151587
0.868312 0.753166 0.151587
0.926984 0.753166 0.151587
0.985125 0.753166 0.151587
1.000000 0.753166 0.151587
1.000000 0.753166 0.151587
1.000000 0.753166 0.151587
1.000000 0.753166 0.151587
0.213235 0.812429 0.151587
0.295705 0.812429 0.151587
0.367128 0.812429 0.151587
0.434902 0.812429 0.151587
0.500410 0.812429 0.151587
0.564282 0.812429 0.151587
0.626881 0.812429 0.151587
0.688439 0.812429 0.151587
0.749122 0.812429 0.151587
0.809049 0.812429 0.151587
0.868312 0.812429 0.151587
0.926984 0.812429 0.151587
0.985125 0.812429 0.151587
1.000000 0.812429 0.151587
1.000000 0.812429 0.151587
1.000000 0.812429 0.151587
1.000000 0.812429 0.151587
0.213235 0.871102 0.151587
0.295705 0.871102 0.151587
0.367128 0.871102 0.151587
0.434902 0.871102 0.151587
0.500410 0.871102 0.151587
0.564282 0.871102 0.151587
0.626881 0.871102 0.151587
0.688439 0.871102 0.151587
0.749122 0.871102 0.151587
0.809049 0.871102 0.151587
0.868312 0.871102 0.151587
0.926984 0.871102 0.151587
0.985125 0.871102 0.151587
1.000000 0.871102 0.151587
1.000000 0.871102 0.151587
1.000000 0.871102 0.151587
1.000000 0.871102 0.151587
0.213235 0.929242 0.151587
0.295705 0.929242 0.151587
0.367128 0.929242 0.151587
0.434902 0.929242 0.151587
0.500410 0.929242 0.151587
0.564282 0.929242 0.151587
0.626881 0.929242 0.151587
0.688439 0.929242 0.151587
0.749122 0.929242 0.151587
0.809049 0.929242 0.151587
0.868312 0.929242 0.151587
0.926984 0.929242 0.151587
0.985125 0.929242 0.151587
1.000000 0.929242 0.151587
1.000000 0.929242 0.151587
1.000000 0.929242 0.151587
1.000000 0.929242 0.151587
0.213235 0.986900 0.151587
0.295705 0.986900 0.151587
0.367128 0.986900 0.151587
0.434902 0.986900 0.151587
0.500410 0.986900 0.151587
0.564282 0.986900 0.151587
0.626881 0.986900 0.151587
0.688439 0.986900 0.151587
0.749122 0.986900 0.151587
0.809049 0.986900 0.151587
0.868312 0.986900 0.151587
0.926984 0.986900 0.151587
0.985125 0.986900 0.151587
1.000000 0.986900 0.151587
1.000000 0.986900 0.151587
1.000000 0.986900 0.151587
1.000000 0.986900 0.151587
0.213235 1.000000 0.151587
0.295705 1.000000 0.151587
0.367128 1.000000 0.151587
0.434902 1.000000 0.151587
0.500410 1.000000 0.151587
0.564282 1.000000 0.151587
0.626881 1.000000 0.151587
0.688439 1.000000 0.151587
0.749122 1.000000 0.151587
0.809049 1.000000 0.151587
0.868312 1.000000 0.151587
0.926984 1.000000 0.151587
0.985125 1.000000 0.151587
1.000000 1.000000 0.151587
1.000000 1.000000 0.151587
1.000000 1.000000 0.151587
1.000000 1.000000 0.151587
0.213235 1.000000 0.151587
0.295705 1.000000 0.151587
0.367128 1.000000 0.151587
0.434902 1.000000 0.151587
0.500410 1.000000 0.151587
0.564282 1.000000 0.151587
0.626881 1.000000 0.151587
0.688439 1.000000 0.151587
0.749122 1.000000 0.151587
0.809049 1.000000 0.151587
0.868312 1.000000 0.151587
0.926984 1.000000 0.151587
0.985125 1.000000 0.151587
1.000000 1.000000 0.151587
1.000000 1.000000 0.151587
1.000000 1.000000 0.151587
1.000000 1.000000 0.151587
0.213235 1.000000 0.151587
0.295705 1.000000 0.151587
0.367128 1.000000 0.151587
0.434902 1.000000 0.151587
0.500410 1.000000 0.151587
0.564282 1.000000 0.151587
0.626881 1.000000 0.151587
0.688439 1.000000 0.151587
0.749122 1.000000 0.151587
0.809049 1.000000 0.151587
0.868312 1.000000 0.151587
0.926984 1.000000 0.151587
0.985125 1.000000 0.151587
1.000000 1.000000 0.151587
1.000000 1.000000 0.151587
1.000000 1.000000 0.151587
1.000000 1.000000 0.151587
0.213235 0.157353 0.223011
0.295705 0.157353 0.223011
0.367128 0.157353 0.223011
0.434902 0.157353 0.223011
0.500410 0.157353 0.223011
0.564282 0.157353 0.223011
0.626881 0.157353 0.223011
0.688439 0.157353 0.223011
0.749122 0.157353 0.223011
0.809049 0.157353 0.223011
0.868312 0.157353 0.223011
0.926984 0.157353 0.223011
0.985125 0.157353 0.223011
1.000000 0.157353 0.223011
1.000000 0.157353 0.223011
1.000000 0.157353 0.223011
1.000000 0.157353 0.223011
0.213235 0.239822 0.223011
0.295705 0.239822 0.223011
0.367128 0.239822 0.223011
0.434902 0.239822 0.223011
0.500410 0.239822 0.223011
0.564282 0.239822 0.223011
0.626881 0.239822 0.223011
0.688439 0.239822 0.223011
0.749122 0.239822 0.223011
0.809049 0.239822 0.223011
0.868312 0.239822 0.223011
0.926984 0.239822 0.223011
0.985125 0.239822 0.223011
1.000000 0.239822 0.223011
1.000000 0.239822 0.223011
1.000000 0.239822 0.223011
1.000000 0.239822 0.223011
0.213235 0.311246 0.223011
0.295705 0.311246 0.223011
0.367128 0.311246 0.223011
0.434902 0.311246 0.223011
0.500410 0.311246 0.223011
0.564282 0.311246 0.223011
0.626881 0.311246 0.223011
0.688439 0.311246 0.223011
0.749122 0.311246 0.223011
0.809049 0.311246 0.223011
0.868312 0.311246 0.223011
0.926984 0.311246 0.223011
0.985125 0.311246 0.223011
1.000000 0.311246 0.223011
1.000000 0.311246 0.223011
1.000000 0.311246 0.223011
1.000000 0.311246 0.223011
0.213235 0.379020 0.223011
0.295705 0.379020 0.223011
0.367128 0.379020 0.223011
0.434902 0.379020 0.223011
0.500410 0.379020 0.223011
0.564282 0.379020 0.223011
0.626881 0.379020 0.223011
0.688439 0.379020 0.223011
0.749122 0.379020 0.223011
0.809049 0.379020 0.223011
0.868312 0.379020 0.223011
0.926984 0.379020 0.223011
0.985125 0.379020 0.223011
1.000000 0.379020 0.223011
1.000000 0.379020 0.223011
1.000000 0.379020 0.223011
1.000000 0.379020 0.223011
0.213235 0.444528 0.223011
0.295705 0.444528 0.223011
0.367128 0.444528 0.223011
0.434902 0.444528 0.223011
0.500410 0.444528 0.223011
0.564282 0.444528 0.223011
0.626881 0.444528 0.223011
0.688439 0.444528 0.223011
0.749122 0.444528 0.223011
0.809049 0.444528 0.223011
0.868312 0.444528 0.223011
0.926984 0.444528 0.223011
0.985125 0.444528 0.223011
1.000000 0.444528 0.223011
1.000000 0.444528 0.223011
1.000000 0.444528 0.223011
1.000000 0.444528 0.223011
0.213235 0.508400 0.223011
0.295705 0.508400 0.223011
0.367128 0.508400 0.223011
0.434902 0.508400 0.223011
0.500410 0.508400 0.223011
0.564282 0.508400 0.223011
0.626881 0.508400 0.223011
0.688439 0.508400 0.223011
0.749122 0.508400 0.223011
0.809049 0.508400 0.223011
0.868312 0.508400 0.223011
0.926984 0.508400 0.223011
0.985125 0.508400 0.223011
1.000000 0.508400 0.223011
1.000000 0.508400 0.223011
1.000000 0.508400 0.223011
1.000000 0.508400 0.223011
0.213235 0.570998 0.223011
0.295705 0.570998 0.223011
0.367128 0.570998 0.223011
0.434902 0.570998 0.223011
0.500410 0.570998 0.223011
0.564282 0.570998 0.223011
0.626881 0.570998 0.223011
0.688439 0.570998 0.223011
0.749122 0.570998 0.223011
0.809049 0.570998 0.223011
0.868312 0.570998 0.223011
0.926984 0.570998 0.223011
0.985125 0.570998 0.223011
1.000000 0.570998 0.223011
1.000000 0.570998 0.223011
1.000000 0.570998 0.223011
1.000000 0.570998 0.223011
0.213235 0.632557 0.223011
0.295705 0.632557 0.223011
0.367128 0.632557 0.223011
0.434902 0.632557 0.223011
0.500410 0.632557 0.223011
0.564282 0.632557 0.223011
0.626881 0.632557 0.223011
0.688439 0.632557 0.223011
0.749122 0.632557 0.223011
0.809049 0.632557 0.223011
0.868312 0.632557 0.223011
0.926984 0.632557 0.223011
0.985125 0.632557 0.223011
1.000000 0.632557 0.223011
1.000000 0.632557 0.223011
1.000000 0.632557 0.223011
1.000000 0.632557 0.223011
0.213235 0.693240 0.223011
0.295705 0.693240 0.223011
0.367128 0.693240 0.223011
0.434902 0.693240 0.223011
0.500410 0.693240 0.223011
0.564282 0.693240 0.223011
0.626881 0.693240 0.223011
0.688439 0.693240 0.223011
0.749122 0.693240 0.223011
0.809049 0.693240 0.223011
0.868312 0.693240 0.223011
0.926984 0.693240 0.223011
0.985125 0.693240 0.223011
1.000000 0.693240 0.223011
1.000000 0.693240 0.223011
1.000000 0.693240 0.223011
1.000000 0.693240 0.223011
0.213235 0.753166 0.223011
0.295705 0.753166 0.223011
0.367128 0.753166 0.223011
0.434902 0.753166 0.223011
0.500410 0.753166 0.223011
0.564282 0.753166 0.223011
0.626881 0.753166 0.223011
0.688439 0.753166 0.223011
0.749122 0.753166 0.223011
0.809049 0.753166 0.223011
0.868312 0.753166 0.223011
0.926984 0.753166 0.223011
0.985125 0.753166 0.223011
1.000000 0.753166 0.223011
1.000000 0.753166 0.223011
1.000000 0.753166 0.223011
1.000000 0.753166 0.223011
0.213235 0.812429 0.223011
0.295705 0.812429 0.223011
0.367128 0.812429 0.223011
0.434902 0.812429 0.223011
0.500410 0.812429 0.223011
0.564282 0.812429 0.223011
0.626881 0.812429 0.223011
0.688439 0.812429 0.223011
0.749122 0.812429 0.223011
0.809049 0.812429 0.223011
0.868312 0.812429 0.223011
0.926984 0.812429 0.223011
0.985125 0.812429 0.223011
1.000000 0.812429 0.223011
1.000000 0.812429 0.223011
1.000000 0.812429 0.223011
1.000000 0.812429 0.223011
0.213235 0.871102 0.223011
0.295705 0.871102 0.223011
0.367128 0.871102 0.223011
0.434902 0.871102 0.223011
0.500410 0.871102 0.223011
0.564282 0.871102 0.223011
0.626881 0.871102 0.223011
0.688439 0.871102 0.223011
0.749122 0.871102 0.223011
0.809049 0.871102 0.223011
0.868312 0.871102 0.223011
0.926984 0.871102 0.223011
0.985125 0.871102 0.223011
1.000000 0.871102 0.223011
1.000000 0.871102 0.223011
1.000000 0.871102 0.223011
1.000000 0.871102 0.223011
0.213235 0.929242 0.223011
0.295705 0.929242 0.223011
0.367128 0.929242 0.223011
0.434902 0.929242 0.223011
0.500410 0.929242 0.223011
0.564282 0.929242 0.223011
0.626881 0.929242 0.223011
0.688439 0.929242 0.223011
0.749122 0.929242 0.223011
0.809049 0.929242 0.223011
0.868312 0.929242 0.223011
0.926984 0.929242 0.223011
0.985125 0.929242 0.223011
1.000000 0.929242 0.223011
1.000000 0.929242 0.223011
1.000000 0.929242 0.223011
1.000000 0.929242 0.223011
0.213235 0.986900 0.223011
0.295705 0.986900 0.223011
0.367128 0.986900 0.223011
0.434902 0.986900 0.223011
0.500410 0.986900 0.223011
0.564282 0.986900 0.223011
0.626881 0.986900 0.223011
0.688439 0.986900 0.223011
0.749122 0.986900 0.223011
0.809049 0.986900 0.223011
0.868312 0.986900 0.223011
0.926984 0.986900 0.223011
0.985125 0.986900 0.223011
1.000000 0.986900 0.223011
1.000000 0.986900 0.223011
1.000000 0.986900 0.223011
1.000000 0.986900 0.223011
0.213235 1.000000 0.223011
0.295705 1.000000 0.223011
0.367128 1.000000 0.223011
0.434902 1.000000 0.223011
0.500410 1.000000 0.223011
0.564282 1.000000 0.223011
0.626881 1.000000 0.223011
0.688439 1.000000 0.223011
0.749122 1.000000 0.223011
0.809049 1.000000 0.223011
0.868312 1.000000 0.223011
0.926984 1.000000 0.223011
0.985125 1.000000 0.223011
1.000000 1.000000 0.223011
1.000000 1.000000 0.223011
1.000000 1.000000 0.223011
1.000000 1.000000 0.223011
0.213235 1.000000 0.223011
0.295705 1.000000 0.223011
0.367128 1.000000 0.223011
0.434902 1.000000 0.223011
0.500410 1.000000 0.223011
0.564282 1.000000 0.223011
0.626881 1.000000 0.223011
0.688439 1.000000 0.223011
0.749122 1.000000 0.223011
0.809049 1.000000 0.223011
0.868312 1.000000 0.223011
0.926984 1.000000 0.223011
0.985125 1.000000 0.223011
1.000000 1.000000 0.223011
1.000000 1.000000 0.223011
1.000000 1.000000 0.223011
1.000000 1.000000 0.223011
0.213235 1.000000 0.223011
0.295705 1.000000 0.223011
0.367128 1.000000 0.223011
0.434902 1.000000 0.223011
0.500410 1.000000 0.223011
0.564282 1.000000 0.223011
0.626881 1.000000 0.223011
0.688439 1.000000 0.223011
0.749122 1.000000 0.223011
0.809049 1.000000 0.223011
0.868312 1.000000 0.223011
0.926984 1.000000 0.223011
0.985125 1.000000 0.223011
1.000000 1.000000 0.223011
1.000000 1.000000 0.223011
1.000000 1.000000 0.223011
1.000000 1.000000 0.223011
0.213235 0.157353 0.290785
0.295705 0.157353 0.290785
0.367128 0.157353 0.290785
0.434902 0.157353 0.290785
0.500410 0.157353 0.290785
0.564282 0.157353 0.290785
0.626881 0.157353 0.290785
0.688439 0.157353 0.290785
0.749122 0.157353 0.290785
0.809049 0.157353 0.290785
0.868312 0.157353 0.290785
0.926984 0.157353 0.290785
0.985125 0.157353 0.290785
1.000000 0.157353 0.290785
1.000000 0.157353 0.290785
1.000000 0.157353 0.290785
1.000000 0.157353 0.290785
0.213235 0.239822 0.290785
