output/Justice League ZS_4k_hd_cinematic.cube
# Cinematic LUT Generator with Live Preview
# Tint Strength: 0.75, Gamma Curve: 0.9
LUT_3D_SIZE 9
0.213235 0.157353 0.069118
0.367128 0.157353 0.069118
0.500410 0.157353 0.069118
0.626881 0.157353 0.069118
0.749122 0.157353 0.069118
0.868312 0.157353 0.069118
0.985125 0.157353 0.069118
1.000000 0.157353 0.069118
1.000000 0.157353 0.069118
0.213235 0.311246 0.069118
0.367128 0.311246 0.069118
0.500410 0.311246 0.069118
0.626881 0.311246 0.069118
0.749122 0.311246 0.069118
0.868312 0.311246 0.069118
0.985125 0.311246 0.069118
1.000000 0.311246 0.069118
1.000000 0.311246 0.069118
0.213235 0.444528 0.069118
0.367128 0.444528 0.069118
0.500410 0.444528 0.069118
0.626881 0.444528 0.069118
0.749122 0.444528 0.069118
0.868312 0.444528 0.069118
0.985125 0.444528 0.069118
1.000000 0.444528 0.069118
1.000000 0.444528 0.069118
0.213235 0.570998 0.069118
0.367128 0.570998 0.069118
0.500410 0.570998 0.069118
0.626881 0.570998 0.069118
0.749122 0.570998 0.069118
0.868312 0.570998 0.069118
0.985125 0.570998 0.069118
1.000000 0.570998 0.069118
1.000000 0.570998 0.069118
0.213235 0.693240 0.069118
0.367128 0.693240 0.069118
0.500410 0.693240 0.069118
0.626881 0.693240 0.069118
0.749122 0.693240 0.069118
0.868312 0.693240 0.069118
0.985125 0.693240 0.069118
1.000000 0.693240 0.069118
1.000000 0.693240 0.069118
0.213235 0.812429 0.069118
0.367128 0.812429 0.069118
0.500410 0.812429 0.069118
0.626881 0.812429 0.069118
0.749122 0.812429 0.069118
0.868312 0.812429 0.069118
0.985125 0.812429 0.069118
1.000000 0.812429 0.069118
1.000000 0.812429 0.069118
0.213235 0.929242 0.069118
0.367128 0.929242 0.069118
0.500410 0.929242 0.069118
0.626881 0.929242 0.069118
0.749122 0.929242 0.069118
0.868312 0.929242 0.069118
0.985125 0.929242 0.069118
1.000000 0.929242 0.069118
1.000000 0.929242 0.069118
0.213235 1.000000 0.069118
0.367128 1.000000 0.069118
0.500410 1.000000 0.069118
0.626881 1.000000 0.069118
0.749122 1.000000 0.069118
0.868312 1.000000 0.069118
0.985125 1.000000 0.069118
1.000000 1.000000 0.069118
1.000000 1.000000 0.069118
0.213235 1.000000 0.069118
0.367128 1.000000 0.069118
0.500410 1.000000 0.069118
0.626881 1.000000 0.069118
0.749122 1.000000 0.069118
0.868312 1.000000 0.069118
0.985125 1.000000 0.069118
1.000000 1.000000 0.069118
1.000000 1.000000 0.069118
0.213235 0.157353 0.223011
0.367128 0.157353 0.223011
0.500410 0.157353 0.223011
0.626881 0.157353 0.223011
0.749122 0.157353 0.223011
0.868312 0.157353 0.223011
0.985125 0.157353 0.223011
1.000000 0.157353 0.223011
1.000000 0.157353 0.223011
0.213235 0.311246 0.223011
0.367128 0.311246 0.223011
0.500410 0.311246 0.223011
0.626881 0.311246 0.223011
0.749122 0.311246 0.223011
0.868312 0.311246 0.223011
0.985125 0.311246 0.223011
1.000000 0.311246 0.223011
1.000000 0.311246 0.223011
0.213235 0.444528 0.223011
0.367128 0.444528 0.223011
0.500410 0.444528 0.223011
0.626881 0.444528 0.223011
0.749122 0.444528 0.223011
0.868312 0.444528 0.223011
0.985125 0.444528 0.223011
1.000000 0.444528 0.223011
1.000000 0.444528 0.223011
0.213235 0.570998 0.223011
0.367128 0.570998 0.223011
0.500410 0.570998 0.223011
0.626881 0.570998 0.223011
0.749122 0.570998 0.223011
0.868312 0.570998 0.223011
0.985125 0.570998 0.223011
1.000000 0.570998 0.223011
1.000000 0.570998 0.223011
0.213235 0.693240 0.223011
0.367128 0.693240 0.223011
0.500410 0.693240 0.223011
0.626881 0.693240 0.223011
0.749122 0.693240 0.223011
0.868312 0.693240 0.223011
0.985125 0.693240 0.223011
1.000000 0.693240 0.223011
1.000000 0.693240 0.223011
0.213235 0.812429 0.223011
0.367128 0.812429 0.223011
0.500410 0.812429 0.223011
0.626881 0.812429 0.223011
0.749122 0.812429 0.223011
0.868312 0.812429 0.223011
0.985125 0.812429 0.223011
1.000000 0.812429 0.223011
1.000000 0.812429 0.223011
0.213235 0.929242 0.223011
0.367128 0.929242 0.223011
0.500410 0.929242 0.223011
0.626881 0.929242 0.223011
0.749122 0.929242 0.223011
0.868312 0.929242 0.223011
0.985125 0.929242 0.223011
1.000000 0.929242 0.223011
1.000000 0.929242 0.223011
0.213235 1.000000 0.223011
0.367128 1.000000 0.223011
0.500410 1.000000 0.223011
0.626881 1.000000 0.223011
0.749122 1.000000 0.223011
0.868312 1.000000 0.223011
0.985125 1.000000 0.223011
1.000000 1.000000 0.223011
1.000000 1.000000 0.223011
0.213235 1.000000 0.223011
0.367128 1.000000 0.223011
0.500410 1.000000 0.223011
0.626881 1.000000 0.223011
0.749122 1.000000 0.223011
0.868312 1.000000 0.223011
0.985125 1.000000 0.223011
1.000000 1.000000 0.223011
1.000000 1.000000 0.223011
0.213235 0.157353 0.356292
0.367128 0.157353 0.356292
0.500410 0.157353 0.356292
0.626881 0.157353 0.356292
0.749122 0.157353 0.356292
0.868312 0.157353 0.356292
0.985125 0.157353 0.356292
1.000000 0.157353 0.356292
1.000000 0.157353 0.356292
0.213235 0.311246 0.356292
0.367128 0.311246 0.356292
0.500410 0.311246 0.356292
0.626881 0.311246 0.356292
0.749122 0.311246 0.356292
0.868312 0.311246 0.356292
0.985125 0.311246 0.356292
1.000000 0.311246 0.356292
1.000000 0.311246 0.356292
0.213235 0.444528 0.356292
0.367128 0.444528 0.356292
0.500410 0.444528 0.356292
0.626881 0.444528 0.356292
0.749122 0.444528 0.356292
0.868312 0.444528 0.356292
0.985125 0.444528 0.356292
1.000000 0.444528 0.356292
1.000000 0.444528 0.356292
0.213235 0.570998 0.356292
0.367128 0.570998 0.356292
0.500410 0.570998 0.356292
0.626881 0.570998 0.356292
0.749122 0.570998 0.356292
0.868312 0.570998 0.356292
0.985125 0.570998 0.356292
1.000000 0.570998 0.356292
1.000000 0.570998 0.356292
0.213235 0.693240 0.356292
0.367128 0.693240 0.356292
0.500410 0.693240 0.356292
0.626881 0.693240 0.356292
0.749122 0.693240 0.356292
0.868312 0.693240 0.356292
0.985125 0.693240 0.356292
1.000000 0.693240 0.356292
1.000000 0.693240 0.356292
0.213235 0.812429 0.356292
0.367128 0.812429 0.356292
0.500410 0.812429 0.356292
0.626881 0.812429 0.356292
0.749122 0.812429 0.356292
0.868312 0.812429 0.356292
0.985125 0.812429 0.356292
1.000000 0.812429 0.356292
1.000000 0.812429 0.356292
0.213235 0.929242 0.356292
0.367128 0.929242 0.356292
0.500410 0.929242 0.356292
0.626881 0.929242 0.356292
0.749122 0.929242 0.356292
0.868312 0.929242 0.356292
0.985125 0.929242 0.356292
1.000000 0.929242 0.356292
1.000000 0.929242 0.356292
0.213235 1.000000 0.356292
0.367128 1.000000 0.356292
0.500410 1.000000 0.356292
0.626881 1.000000 0.356292
0.749122 1.000000 0.356292
0.868312 1.000000 0.356292
0.985125 1.000000 0.356292
1.000000 1.000000 0.356292
1.000000 1.000000 0.356292
0.213235 1.000000 0.356292
0.367128 1.000000 0.356292
0.500410 1.000000 0.356292
0.626881 1.000000 0.356292
0.749122 1.000000 0.356292
0.868312 1.000000 0.356292
0.985125 1.000000 0.356292
1.000000 1.000000 0.356292
1.000000 1.000000 0.356292
0.213235 0.157353 0.482763
0.367128 0.157353 0.482763
0.500410 0.157353 0.482763
0.626881 0.157353 0.482763
0.749122 0.157353 0.482763
0.868312 0.157353 0.482763
0.985125 0.157353 0.482763
1.000000 0.157353 0.482763
1.000000 0.157353 0.482763
0.213235 0.311246 0.482763
0.367128 0.311246 0.482763
0.500410 0.311246 0.482763
0.626881 0.311246 0.482763
0.749122 0.311246 0.482763
0.868312 0.311246 0.482763
0.985125 0.311246 0.482763
1.000000 0.311246 0.482763
1.000000 0.311246 0.482763
0.213235 0.444528 0.482763
0.367128 0.444528 0.482763
0.500410 0.444528 0.482763
0.626881 0.444528 0.482763
0.749122 0.444528 0.482763
0.868312 0.444528 0.482763
0.985125 0.444528 0.482763
1.000000 0.444528 0.482763
1.000000 0.444528 0.482763
0.213235 0.570998 0.482763
0.367128 0.570998 0.482763
0.500410 0.570998 0.482763
0.626881 0.570998 0.482763
0.749122 0.570998 0.482763
0.868312 0.570998 0.482763
0.985125 0.570998 0.482763
1.000000 0.570998 0.482763
1.000000 0.570998 0.482763
0.213235 0.693240 0.482763
0.367128 0.693240 0.482763
0.500410 0.693240 0.482763
0.626881 0.693240 0.482763
0.749122 0.693240 0.482763
0.868312 0.693240 0.482763
0.985125 0.693240 0.482763
1.000000 0.693240 0.482763
1.000000 0.693240 0.482763
0.213235 0.812429 0.482763
0.367128 0.812429 0.482763
0.500410 0.812429 0.482763
0.626881 0.812429 0.482763
0.749122 0.812429 0.482763
0.868312 0.812429 0.482763
0.985125 0.812429 0.482763
1.000000 0.812429 0.482763
1.000000 0.812429 0.482763
0.213235 0.929242 0.482763
0.367128 0.929242 0.482763
0.500410 0.929242 0.482763
0.626881 0.929242 0.482763
0.749122 0.929242 0.482763
0.868312 0.929242 0.482763
0.985125 0.929242 0.482763
1.000000 0.929242 0.482763
1.000000 0.929242 0.482763
0.213235 1.000000 0.482763
0.367128 1.000000 0.482763
0.500410 1.000000 0.482763
0.626881 1.000000 0.482763
0.749122 1.000000 0.482763
0.868312 1.000000 0.482763
0.985125 1.000000 0.482763
1.000000 1.000000 0.482763
1.000000 1.000000 0.482763
0.213235 1.000000 0.482763
0.367128 1.000000 0.482763
0.500410 1.000000 0.482763
0.626881 1.000000 0.482763
0.749122 1.000000 0.482763
0.868312 1.000000 0.482763
0.985125 1.000000 0.482763
1.000000 1.000000 0.482763
1.000000 1.000000 0.482763
0.213235 0.157353 0.605004
0.367128 0.157353 0.605004
0.500410 0.157353 0.605004
0.626881 0.157353 0.605004
0.749122 0.157353 0.605004
0.868312 0.157353 0.605004
0.985125 0.157353 0.605004
1.000000 0.157353 0.605004
1.000000 0.157353 0.605004
0.213235 0.311246 0.605004
0.367128 0.311246 0.605004
0.500410 0.311246 0.605004
0.626881 0.311246 0.605004
0.749122 0.311246 0.605004
0.868312 0.311246 0.605004
0.985125 0.311246 0.605004
1.000000 0.311246 0.605004
1.000000 0.311246 0.605004
0.213235 0.444528 0.605004
0.367128 0.444528 0.605004
0.500410 0.444528 0.605004
0.626881 0.444528 0.605004
0.749122 0.444528 0.605004
0.868312 0.444528 0.605004
0.985125 0.444528 0.605004
1.000000 0.444528 0.605004
1.000000 0.444528 0.605004
0.213235 0.570998 0.605004
0.367128 0.570998 0.605004
0.500410 0.570998 0.605004
0.626881 0.570998 0.605004
0.749122 0.570998 0.605004
0.868312 0.570998 0.605004
0.985125 0.570998 0.605004
1.000000 0.570998 0.605004
1.000000 0.570998 0.605004
0.213235 0.693240 0.605004
0.367128 0.693240 0.605004
0.500410 0.693240 0.605004
0.626881 0.693240 0.605004
0.749122 0.693240 0.605004
0.868312 0.693240 0.605004
0.985125 0.693240 0.605004
1.000000 0.693240 0.605004
1.000000 0.693240 0.605004
0.213235 0.812429 0.605004
0.367128 0.812429 0.605004
0.500410 0.812429 0.605004
0.626881 0.812429 0.605004
0.749122 0.812429 0.605004
0.868312 0.812429 0.605004
0.985125 0.812429 0.605004
1.000000 0.812429 0.605004
1.000000 0.812429 0.605004
0.213235 0.929242 0.605004
0.367128 0.929242 0.605004
0.500410 0.929242 0.605004
0.626881 0.929242 0.605004
0.749122 0.929242 0.605004
0.868312 0.929242 0.605004
0.985125 0.929242 0.605004
1.000000 0.929242 0.605004
1.000000 0.929242 0.605004
0.213235 1.000000 0.605004
0.367128 1.000000 0.605004
0.500410 1.000000 0.605004
0.626881 1.000000 0.605004
0.749122 1.000000 0.605004
0.868312 1.000000 0.605004
0.985125 1.000000 0.605004
1.000000 1.000000 0.605004
1.000000 1.000000 0.605004
0.213235 1.000000 0.605004
0.367128 1.000000 0.605004
0.500410 1.000000 0.605004
0.626881 1.000000 0.605004
0.749122 1.000000 0.605004
0.868312 1.000000 0.605004
0.985125 1.000000 0.605004
1.000000 1.000000 0.605004
1.000000 1.000000 0.605004
0.213235 0.157353 0.724194
0.367128 0.157353 0.724194
0.500410 0.157353 0.724194
0.626881 0.157353 0.724194
0.749122 0.157353 0.724194
0.868312 0.157353 0.724194
0.985125 0.157353 0.724194
1.000000 0.157353 0.724194
1.000000 0.157353 0.724194
0.213235 0.311246 0.724194
0.367128 0.311246 0.724194
0.500410 0.311246 0.724194
0.626881 0.311246 0.724194
0.749122 0.311246 0.724194
0.868312 0.311246 0.724194
0.985125 0.311246 0.724194
1.000000 0.311246 0.724194
1.000000 0.311246 0.724194
0.213235 0.444528 0.724194
0.367128 0.444528 0.724194
0.500410 0.444528 0.724194
0.626881 0.444528 0.724194
0.749122 0.444528 0.724194
0.868312 0.444528 0.724194
0.985125 0.444528 0.724194
1.000000 0.444528 0.724194
1.000000 0.444528 0.724194
0.213235 0.570998 0.724194
0.367128 0.570998 0.724194
0.500410 0.570998 0.724194
0.626881 0.570998 0.724194
0.749122 0.570998 0.724194
0.868312 0.570998 0.724194
0.985125 0.570998 0.724194
1.000000 0.570998 0.724194
1.000000 0.570998 0.724194
0.213235 0.693240 0.724194
0.367128 0.693240 0.724194
0.500410 0.693240 0.724194
0.626881 0.693240 0.724194
0.749122 0.693240 0.724194
0.868312 0.693240 0.724194
0.985125 0.693240 0.724194
1.000000 0.693240 0.724194
1.000000 0.693240 0.724194
0.213235 0.812429 0.724194
0.367128 0.812429 0.724194
0.500410 0.812429 0.724194
0.626881 0.812429 0.724194
0.749122 0.812429 0.724194
0.868312 0.812429 0.724194
0.985125 0.812429 0.724194
1.000000 0.812429 0.724194
1.000000 0.812429 0.724194
0.213235 0.929242 0.724194
0.367128 0.929242 0.724194
0.500410 0.929242 0.724194
0.626881 0.929242 0.724194
0.749122 0.929242 0.724194
0.868312 0.929242 0.724194
0.985125 0.929242 0.724194
1.000000 0.929242 0.724194
1.000000 0.929242 0.724194
0.213235 1.000000 0.724194
0.367128 1.000000 0.724194
0.500410 1.000000 0.724194
0.626881 1.000000 0.724194
0.749122 1.000000 0.724194
0.868312 1.000000 0.724194
0.985125 1.000000 0.724194
1.000000 1.000000 0.724194
1.000000 1.000000 0.724194
0.213235 1.000000 0.724194
0.367128 1.000000 0.724194
0.500410 1.000000 0.724194
0.626881 1.000000 0.724194
0.749122 1.000000 0.724194
0.868312 1.000000 0.724194
0.985125 1.000000 0.724194
1.000000 1.000000 0.724194
1.000000 1.000000 0.724194
0.213235 0.157353 0.841007
0.367128 0.157353 0.841007
0.500410 0.157353 0.841007
0.626881 0.157353 0.841007
0.749122 0.157353 0.841007
0.868312 0.157353 0.841007
0.985125 0.157353 0.841007
1.000000 0.157353 0.841007
1.000000 0.157353 0.841007
0.213235 0.311246 0.841007
0.367128 0.311246 0.841007
0.500410 0.311246 0.841007
0.626881 0.311246 0.841007
0.749122 0.311246 0.841007
0.868312 0.311246 0.841007
0.985125 0.311246 0.841007
1.000000 0.311246 0.841007
1.000000 0.311246 0.841007
0.213235 0.444528 0.841007
0.367128 0.444528 0.841007
0.500410 0.444528 0.841007
0.626881 0.444528 0.841007
0.749122 0.444528 0.841007
0.868312 0.444528 0.841007
0.985125 0.444528 0.841007
1.000000 0.444528 0.841007
1.000000 0.444528 0.841007
0.213235 0.570998 0.841007
0.367128 0.570998 0.841007
0.500410 0.570998 0.841007
0.626881 0.570998 0.841007
0.749122 0.570998 0.841007
0.868312 0.570998 0.841007
0.985125 0.570998 0.841007
1.000000 0.570998 0.841007
1.000000 0.570998 0.841007
0.213235 0.693240 0.841007
0.367128 0.693240 0.841007
0.500410 0.693240 0.841007
0.626881 0.693240 0.841007
0.749122 0.693240 0.841007
0.868312 0.693240 0.841007
0.985125 0.693240 0.841007
1.000000 0.693240 0.841007
1.000000 0.693240 0.841007
0.213235 0.812429 0.841007
0.367128 0.812429 0.841007
0.500410 0.812429 0.841007
0.626881 0.812429 0.841007
0.749122 0.812429 0.841007
0.868312 0.812429 0.841007
0.985125 0.812429 0.841007
1.000000 0.812429 0.841007
1.000000 0.812429 0.841007
0.213235 0.929242 0.841007
0.367128 0.929242 0.841007
0.500410 0.929242 0.841007
0.626881 0.929242 0.841007
0.749122 0.929242 0.841007
0.868312 0.929242 0.841007
0.985125 0.929242 0.841007
1.000000 0.929242 0.841007
1.000000 0.929242 0.841007
0.213235 1.000000 0.841007
0.367128 1.000000 0.841007
0.500410 1.000000 0.841007
0.626881 1.000000 0.841007
0.749122 1.000000 0.841007
0.868312 1.000000 0.841007
0.985125 1.000000 0.841007
1.000000 1.000000 0.841007
1.000000 1.000000 0.841007
0.213235 1.000000 0.841007
0.367128 1.000000 0.841007
0.500410 1.000000 0.841007
0.626881 1.000000 0.841007
0.749122 1.000000 0.841007
0.868312 1.000000 0.841007
0.985125 1.000000 0.841007
1.000000 1.000000 0.841007
1.000000 1.000000 0.841007
0.213235 0.157353 0.955880
0.367128 0.157353 0.955880
0.500410 0.157353 0.955880
0.626881 0.157353 0.955880
0.749122 0.157353 0.955880
0.868312 0.157353 0.955880
0.985125 0.157353 0.955880
1.000000 0.157353 0.955880
1.000000 0.157353 0.955880
0.213235 0.311246 0.955880
0.367128 0.311246 0.955880
0.500410 0.311246 0.955880
0.626881 0.311246 0.955880
0.749122 0.311246 0.955880
0.868312 0.311246 0.955880
0.985125 0.311246 0.955880
1.000000 0.311246 0.955880
1.000000 0.311246 0.955880
0.213235 0.444528 0.955880
0.367128 0.444528 0.955880
0.500410 0.444528 0.955880
0.626881 0.444528 0.955880
0.749122 0.444528 0.955880
0.868312 0.444528 0.955880
0.985125 0.444528 0.955880
1.000000 0.444528 0.955880
1.000000 0.444528 0.955880
0.213235 0.570998 0.955880
0.367128 0.570998 0.955880
0.500410 0.570998 0.955880
0.626881 0.570998 0.955880
0.749122 0.570998 0.955880
0.868312 0.570998 0.955880
0.985125 0.570998 0.955880
1.000000 0.570998 0.955880
1.000000 0.570998 0.955880
0.213235 0.693240 0.955880
0.367128 0.693240 0.955880
0.500410 0.693240 0.955880
0.626881 0.693240 0.955880
0.749122 0.693240 0.955880
0.868312 0.693240 0.955880
0.985125 0.693240 0.955880
1.000000 0.693240 0.955880
1.000000 0.693240 0.955880
0.213235 0.812429 0.955880
0.367128 0.812429 0.955880
0.500410 0.812429 0.955880
0.626881 0.812429 0.955880
0.749122 0.812429 0.955880
0.868312 0.812429 0.955880
0.985125 0.812429 0.955880
1.000000 0.812429 0.955880
1.000000 0.812429 0.955880
0.213235 0.929242 0.955880
0.367128 0.929242 0.955880
0.500410 0.929242 0.955880
0.626881 0.929242 0.955880
0.749122 0.929242 0.955880
0.868312 0.929242 0.955880
0.985125 0.929242 0.955880
1.000000 0.929242 0.955880
1.000000 0.929242 0.955880
0.213235 1.000000 0.955880
0.367128 1.000000 0.955880
0.500410 1.000000 0.955880
0.626881 1.000000 0.955880
0.749122 1.000000 0.955880
0.868312 1.000000 0.955880
0.985125 1.000000 0.955880
1.000000 1.000000 0.955880
1.000000 1.000000 0.955880
0.213235 1.000000 0.955880
0.367128 1.000000 0.955880
0.500410 1.000000 0.955880
0.626881 1.000000 0.955880
0.749122 1.000000 0.955880
0.868312 1.000000 0.955880
0.985125 1.000000 0.955880
1.000000 1.000000 0.955880
1.000000 1.000000 0.955880
0.213235 0.157353 1.000000
0.367128 0.157353 1.000000
0.500410 0.157353 1.000000
0.626881 0.157353 1.000000
0.749122 0.157353 1.000000
0.868312 0.157353 1.000000
0.985125 0.157353 1.000000
1.000000 0.157353 1.000000
1.000000 0.157353 1.000000
0.213235 0.311246 1.000000
0.367128 0.311246 1.000000
0.500410 0.311246 1.000000
0.626881 0.311246 1.000000
0.749122 0.311246 1.000000
0.868312 0.311246 1.000000
0.985125 0.311246 1.000000
1.000000 0.311246 1.000000
1.000000 0.311246 1.000000
0.213235 0.444528 1.000000
0.367128 0.444528 1.000000
0.500410 0.444528 1.000000
0.626881 0.444528 1.000000
0.749122 0.444528 1.000000
0.868312 0.444528 1.000000
0.985125 0.444528 1.000000
1.000000 0.444528 1.000000
1.000000 0.444528 1.000000
0.213235 0.570998 1.000000
0.367128 0.570998 1.000000
0.500410 0.570998 1.000000
0.626881 0.570998 1.000000
0.749122 0.570998 1.000000
0.868312 0.570998 1.000000
0.985125 0.570998 1.000000
1.000000 0.570998 1.000000
1.000000 0.570998 1.000000
0.213235 0.693240 1.000000
0.367128 0.693240 1.000000
0.500410 0.693240 1.000000
0.626881 0.693240 1.000000
0.749122 0.693240 1.000000
0.868312 0.693240 1.000000
0.985125 0.693240 1.000000
1.000000 0.693240 1.000000
1.000000 0.693240 1.000000
0.213235 0.812429 1.000000
0.367128 0.812429 1.000000
0.500410 0.812429 1.000000
0.626881 0.812429 1.000000
0.749122 0.812429 1.000000
0.868312 0.812429 1.000000
0.985125 0.812429 1.000000
1.000000 0.812429 1.000000
1.000000 0.812429 1.000000
0.213235 0.929242 1.000000
0.367128 0.929242 1.000000
0.500410 0.929242 1.000000
0.626881 0.929242 1.000000
0.749122 0.929242 1.000000
0.868312 0.929242 1.000000
0.985125 0.929242 1.000000
1.000000 0.929242 1.000000
1.000000 0.929242 1.000000
0.213235 1.000000 1.000000
0.367128 1.000000 1.000000
0.500410 1.000000 1.000000
0.626881 1.000000 1.000000
0.749122 1.000000 1.000000
0.868312 1.000000 1.000000
0.985125 1.000000 1.000000
1.000000 1.000000 1.000000
1.000000 1.000000 1.000000
0.213235 1.000000 1.000000
0.367128 1.000000 1.000000
0.500410 1.000000 1.000000
0.626881 1.000000 1.000000
0.749122 1.000000 1.000000
0.868312 1.000000 1.000000
0.985125 1.000000 1.000000
1.000000 1.000000 1.000000
1.000000 1.000000 1.000000
