output/Justice League ZS_4k_hd_cinematic.cube
# Cinematic LUT Generator with Live Preview
# Tint Strength: 0.75, Gamma Curve: 0.9
LUT_3D_SIZE 5
0.213235 0.157353 0.069118
0.500410 0.157353 0.069118
0.749122 0.157353 0.069118
0.985125 0.157353 0.069118
1.000000 0.157353 0.069118
0.213235 0.444528 0.069118
0.500410 0.444528 0.069118
0.749122 0.444528 0.069118
0.985125 0.444528 0.069118
1.000000 0.444528 0.069118
0.213235 0.693240 0.069118
0.500410 0.693240 0.069118
0.749122 0.693240 0.069118
0.985125 0.693240 0.069118
1.000000 0.693240 0.069118
0.213235 0.929242 0.069118
0.500410 0.929242 0.069118
0.749122 0.929242 0.069118
0.985125 0.929242 0.069118
1.000000 0.929242 0.069118
0.213235 1.000000 0.069118
0.500410 1.000000 0.069118
0.749122 1.000000 0.069118
0.985125 1.000000 0.069118
1.000000 1.000000 0.069118
0.213235 0.157353 0.356292
0.500410 0.157353 0.356292
0.749122 0.157353 0.356292
0.985125 0.157353 0.356292
1.000000 0.157353 0.356292
0.213235 0.444528 0.356292
0.500410 0.444528 0.356292
0.749122 0.444528 0.356292
0.985125 0.444528 0.356292
1.000000 0.444528 0.356292
0.213235 0.693240 0.356292
0.500410 0.693240 0.356292
0.749122 0.693240 0.356292
0.985125 0.693240 0.356292
1.000000 0.693240 0.356292
0.213235 0.929242 0.356292
0.500410 0.929242 0.356292
0.749122 0.929242 0.356292
0.985125 0.929242 0.356292
1.000000 0.929242 0.356292
0.213235 1.000000 0.356292
0.500410 1.000000 0.356292
0.749122 1.000000 0.356292
0.985125 1.000000 0.356292
1.000000 1.000000 0.356292
0.213235 0.157353 0.605004
0.500410 0.157353 0.605004
0.749122 0.157353 0.605004
0.985125 0.157353 0.605004
1.000000 0.157353 0.605004
0.213235 0.444528 0.605004
0.500410 0.444528 0.605004
0.749122 0.444528 0.605004
0.985125 0.444528 0.605004
1.000000 0.444528 0.605004
0.213235 0.693240 0.605004
0.500410 0.693240 0.605004
0.749122 0.693240 0.605004
0.985125 0.693240 0.605004
1.000000 0.693240 0.605004
0.213235 0.929242 0.605004
0.500410 0.929242 0.605004
0.749122 0.929242 0.605004
0.985125 0.929242 0.605004
1.000000 0.929242 0.605004
0.213235 1.000000 0.605004
0.500410 1.000000 0.605004
0.749122 1.000000 0.605004
0.985125 1.000000 0.605004
1.000000 1.000000 0.605004
0.213235 0.157353 0.841007
0.500410 0.157353 0.841007
0.749122 0.157353 0.841007
0.985125 0.157353 0.841007
1.000000 0.157353 0.841007
0.213235 0.444528 0.841007
0.500410 0.444528 0.841007
0.749122 0.444528 0.841007
0.985125 0.444528 0.841007
1.000000 0.444528 0.841007
0.213235 0.693240 0.841007
0.500410 0.693240 0.841007
0.749122 0.693240 0.841007
0.985125 0.693240 0.841007
1.000000 0.693240 0.841007
0.213235 0.929242 0.841007
0.500410 0.929242 0.841007
0.749122 0.929242 0.841007
0.985125 0.929242 0.841007
1.000000 0.929242 0.841007
0.213235 1.000000 0.841007
0.500410 1.000000 0.841007
0.749122 1.000000 0.841007
0.985125 1.000000 0.841007
1.000000 1.000000 0.841007
0.213235 0.157353 1.000000
0.500410 0.157353 1.000000
0.749122 0.157353 1.000000
0.985125 0.157353 1.000000
1.000000 0.157353 1.000000
0.213235 0.444528 1.000000
0.500410 0.444528 1.000000
0.749122 0.444528 1.000000
0.985125 0.444528 1.000000
1.000000 0.444528 1.000000
0.213235 0.693240 1.000000
0.500410 0.693240 1.000000
0.749122 0.693240 1.000000
0.985125 0.693240 1.000000
1.000000 0.693240 1.000000
0.213235 0.929242 1.000000
0.500410 0.929242 1.000000
0.749122 0.929242 1.000000
0.985125 0.929242 1.000000
1.000000 0.929242 1.000000
0.213235 1.000000 1.000000
0.500410 1.000000 1.000000
0.749122 1.000000 1.000000
0.985125 1.000000 1.000000
1.000000 1.000000 1.000000
