output/mylook_20251110_014309.cube
# Generated by Cinematic LUT Generator
LUT_3D_SIZE 5
0.000000 0.000000 0.000000
0.007353 0.000000 0.000000
0.257353 0.000000 0.000000
0.507353 0.000000 0.000000
0.757353 0.000000 0.000000
0.000000 0.056373 0.000000
0.007353 0.056373 0.000000
0.257353 0.056373 0.000000
0.507353 0.056373 0.000000
0.757353 0.056373 0.000000
0.000000 0.306373 0.000000
0.007353 0.306373 0.000000
0.257353 0.306373 0.000000
0.507353 0.306373 0.000000
0.757353 0.306373 0.000000
0.000000 0.556373 0.000000
0.007353 0.556373 0.000000
0.257353 0.556373 0.000000
0.507353 0.556373 0.000000
0.757353 0.556373 0.000000
0.000000 0.806373 0.000000
0.007353 0.806373 0.000000
0.257353 0.806373 0.000000
0.507353 0.806373 0.000000
0.757353 0.806373 0.000000
0.000000 0.000000 0.105392
0.007353 0.000000 0.105392
0.257353 0.000000 0.105392
0.507353 0.000000 0.105392
0.757353 0.000000 0.105392
0.000000 0.056373 0.105392
0.007353 0.056373 0.105392
0.257353 0.056373 0.105392
0.507353 0.056373 0.105392
0.757353 0.056373 0.105392
0.000000 0.306373 0.105392
0.007353 0.306373 0.105392
0.257353 0.306373 0.105392
0.507353 0.306373 0.105392
0.757353 0.306373 0.105392
0.000000 0.556373 0.105392
0.007353 0.556373 0.105392
0.257353 0.556373 0.105392
0.507353 0.556373 0.105392
0.757353 0.556373 0.105392
0.000000 0.806373 0.105392
0.007353 0.806373 0.105392
0.257353 0.806373 0.105392
0.507353 0.806373 0.105392
0.757353 0.806373 0.105392
0.000000 0.000000 0.355392
0.007353 0.000000 0.355392
0.257353 0.000000 0.355392
0.507353 0.000000 0.355392
0.757353 0.000000 0.355392
0.000000 0.056373 0.355392
0.007353 0.056373 0.355392
0.257353 0.056373 0.355392
0.507353 0.056373 0.355392
0.757353 0.056373 0.355392
0.000000 0.306373 0.355392
0.007353 0.306373 0.355392
0.257353 0.306373 0.355392
0.507353 0.306373 0.355392
0.757353 0.306373 0.355392
0.000000 0.556373 0.355392
0.007353 0.556373 0.355392
0.257353 0.556373 0.355392
0.507353 0.556373 0.355392
0.757353 0.556373 0.355392
0.000000 0.806373 0.355392
0.007353 0.806373 0.355392
0.257353 0.806373 0.355392
0.507353 0.806373 0.355392
0.757353 0.806373 0.355392
0.000000 0.000000 0.605392
0.007353 0.000000 0.605392
0.257353 0.000000 0.605392
0.507353 0.000000 0.605392
0.757353 0.000000 0.605392
0.000000 0.056373 0.605392
0.007353 0.056373 0.605392
0.257353 0.056373 0.605392
0.507353 0.056373 0.605392
0.757353 0.056373 0.605392
0.000000 0.306373 0.605392
0.007353 0.306373 0.605392
0.257353 0.306373 0.605392
0.507353 0.306373 0.605392
0.757353 0.306373 0.605392
0.000000 0.556373 0.605392
0.007353 0.556373 0.605392
0.257353 0.556373 0.605392
0.507353 0.556373 0.605392
0.757353 0.556373 0.605392
0.000000 0.806373 0.605392
0.007353 0.806373 0.605392
0.257353 0.806373 0.605392
0.507353 0.806373 0.605392
0.757353 0.806373 0.605392
0.000000 0.000000 0.855392
0.007353 0.000000 0.855392
0.257353 0.000000 0.855392
0.507353 0.000000 0.855392
0.757353 0.000000 0.855392
0.000000 0.056373 0.855392
0.007353 0.056373 0.855392
0.257353 0.056373 0.855392
0.507353 0.056373 0.855392
0.757353 0.056373 0.855392
0.000000 0.306373 0.855392
0.007353 0.306373 0.855392
0.257353 0.306373 0.855392
0.507353 0.306373 0.855392
0.757353 0.306373 0.855392
0.000000 0.556373 0.855392
0.007353 0.556373 0.855392
0.257353 0.556373 0.855392
0.507353 0.556373 0.855392
0.757353 0.556373 0.855392
0.000000 0.806373 0.855392
0.007353 0.806373 0.855392
0.257353 0.806373 0.855392
0.507353 0.806373 0.855392
0.757353 0.806373 0.855392
