output/mylook_20251110_014629.cube
# Generated by Cinematic LUT Generator
LUT_3D_SIZE 17
0.000000 0.000000 0.000000
0.000000 0.000000 0.000000
0.000000 0.000000 0.000000
0.000000 0.000000 0.000000
0.000000 0.000000 0.000000
0.000000 0.000000 0.000000
0.000000 0.000000 0.000000
0.000000 0.000000 0.000000
0.000000 0.000000 0.000000
0.040441 0.000000 0.000000
0.102941 0.000000 0.000000
0.165441 0.000000 0.000000
0.227941 0.000000 0.000000
0.290441 0.000000 0.000000
0.352941 0.000000 0.000000
0.415441 0.000000 0.000000
0.477941 0.000000 0.000000
0.000000 0.000000 0.000000
0.000000 0.000000 0.000000
0.000000 0.000000 0.000000
0.000000 0.000000 0.000000
0.000000 0.000000 0.000000
0.000000 0.000000 0.000000
0.000000 0.000000 0.000000
0.000000 0.000000 0.000000
0.000000 0.000000 0.000000
0.040441 0.000000 0.000000
0.102941 0.000000 0.000000
0.165441 0.000000 0.000000
0.227941 0.000000 0.000000
0.290441 0.000000 0.000000
0.352941 0.000000 0.000000
0.415441 0.000000 0.000000
0.477941 0.000000 0.000000
0.000000 0.000000 0.000000
0.000000 0.000000 0.000000
0.000000 0.000000 0.000000
0.000000 0.000000 0.000000
0.000000 0.000000 0.000000
0.000000 0.000000 0.000000
0.000000 0.000000 0.000000
0.000000 0.000000 0.000000
0.000000 0.000000 0.000000
0.040441 0.000000 0.000000
0.102941 0.000000 0.000000
0.165441 0.000000 0.000000
0.227941 0.000000 0.000000
0.290441 0.000000 0.000000
0.352941 0.000000 0.000000
0.415441 0.000000 0.000000
0.477941 0.000000 0.000000
0.000000 0.000000 0.000000
0.000000 0.000000 0.000000
0.000000 0.000000 0.000000
0.000000 0.000000 0.000000
0.000000 0.000000 0.000000
0.000000 0.000000 0.000000
0.000000 0.000000 0.000000
0.000000 0.000000 0.000000
0.000000 0.000000 0.000000
0.040441 0.000000 0.000000
0.102941 0.000000 0.000000
0.165441 0.000000 0.000000
0.227941 0.000000 0.000000
0.290441 0.000000 0.000000
0.352941 0.000000 0.000000
0.415441 0.000000 0.000000
0.477941 0.000000 0.000000
0.000000 0.000000 0.000000
0.000000 0.000000 0.000000
0.000000 0.000000 0.000000
0.000000 0.000000 0.000000
0.000000 0.000000 0.000000
0.000000 0.000000 0.000000
0.000000 0.000000 0.000000
0.000000 0.000000 0.000000
0.000000 0.000000 0.000000
0.040441 0.000000 0.000000
0.102941 0.000000 0.000000
0.165441 0.000000 0.000000
0.227941 0.000000 0.000000
0.290441 0.000000 0.000000
0.352941 0.000000 0.000000
0.415441 0.000000 0.000000
0.477941 0.000000 0.000000
0.000000 0.000000 0.000000
0.000000 0.000000 0.000000
0.000000 0.000000 0.000000
0.000000 0.000000 0.000000
0.000000 0.000000 0.000000
0.000000 0.000000 0.000000
0.000000 0.000000 0.000000
0.000000 0.000000 0.000000
0.000000 0.000000 0.000000
0.040441 0.000000 0.000000
0.102941 0.000000 0.000000
0.165441 0.000000 0.000000
0.227941 0.000000 0.000000
0.290441 0.000000 0.000000
0.352941 0.000000 0.000000
0.415441 0.000000 0.000000
0.477941 0.000000 0.000000
0.000000 0.000000 0.000000
0.000000 0.000000 0.000000
0.000000 0.000000 0.000000
0.000000 0.000000 0.000000
0.000000 0.000000 0.000000
0.000000 0.000000 0.000000
0.000000 0.000000 0.000000
0.000000 0.000000 0.000000
0.000000 0.000000 0.000000
0.040441 0.000000 0.000000
0.102941 0.000000 0.000000
0.165441 0.000000 0.000000
0.227941 0.000000 0.000000
0.290441 0.000000 0.000000
0.352941 0.000000 0.000000
0.415441 0.000000 0.000000
0.477941 0.000000 0.000000
0.000000 0.000000 0.000000
0.000000 0.000000 0.000000
0.000000 0.000000 0.000000
0.000000 0.000000 0.000000
0.000000 0.000000 0.000000
0.000000 0.000000 0.000000
0.000000 0.000000 0.000000
0.000000 0.000000 0.000000
0.000000 0.000000 0.000000
0.040441 0.000000 0.000000
0.102941 0.000000 0.000000
0.165441 0.000000 0.000000
0.227941 0.000000 0.000000
0.290441 0.000000 0.000000
0.352941 0.000000 0.000000
0.415441 0.000000 0.000000
0.477941 0.000000 0.000000
0.000000 0.000000 0.000000
0.000000 0.000000 0.000000
0.000000 0.000000 0.000000
0.000000 0.000000 0.000000
0.000000 0.000000 0.000000
0.000000 0.000000 0.000000
0.000000 0.000000 0.000000
0.000000 0.000000 0.000000
0.000000 0.000000 0.000000
0.040441 0.000000 0.000000
0.102941 0.000000 0.000000
0.165441 0.000000 0.000000
0.227941 0.000000 0.000000
0.290441 0.000000 0.000000
0.352941 0.000000 0.000000
0.415441 0.000000 0.000000
0.477941 0.000000 0.000000
0.000000 0.000000 0.000000
0.000000 0.000000 0.000000
0.000000 0.000000 0.000000
0.000000 0.000000 0.000000
0.000000 0.000000 0.000000
0.000000 0.000000 0.000000
0.000000 0.000000 0.000000
0.000000 0.000000 0.000000
0.000000 0.000000 0.000000
0.040441 0.000000 0.000000
0.102941 0.000000 0.000000
0.165441 0.000000 0.000000
0.227941 0.000000 0.000000
0.290441 0.000000 0.000000
0.352941 0.000000 0.000000
0.415441 0.000000 0.000000
0.477941 0.000000 0.000000
0.000000 0.049020 0.000000
0.000000 0.049020 0.000000
0.000000 0.049020 0.000000
0.000000 0.049020 0.000000
0.000000 0.049020 0.000000
0.000000 0.049020 0.000000
0.000000 0.049020 0.000000
0.000000 0.049020 0.000000
0.000000 0.049020 0.000000
0.040441 0.049020 0.000000
0.102941 0.049020 0.000000
0.165441 0.049020 0.000000
0.227941 0.049020 0.000000
0.290441 0.049020 0.000000
0.352941 0.049020 0.000000
0.415441 0.049020 0.000000
0.477941 0.049020 0.000000
0.000000 0.111520 0.000000
0.000000 0.111520 0.000000
0.000000 0.111520 0.000000
0.000000 0.111520 0.000000
0.000000 0.111520 0.000000
0.000000 0.111520 0.000000
0.000000 0.111520 0.000000
0.000000 0.111520 0.000000
0.000000 0.111520 0.000000
0.040441 0.111520 0.000000
0.102941 0.111520 0.000000
0.165441 0.111520 0.000000
0.227941 0.111520 0.000000
0.290441 0.111520 0.000000
0.352941 0.111520 0.000000
0.415441 0.111520 0.000000
0.477941 0.111520 0.000000
0.000000 0.174020 0.000000
0.000000 0.174020 0.000000
0.000000 0.174020 0.000000
0.000000 0.174020 0.000000
0.000000 0.174020 0.000000
0.000000 0.174020 0.000000
0.000000 0.174020 0.000000
0.000000 0.174020 0.000000
0.000000 0.174020 0.000000
0.040441 0.174020 0.000000
0.102941 0.174020 0.000000
0.165441 0.174020 0.000000
0.227941 0.174020 0.000000
0.290441 0.174020 0.000000
0.352941 0.174020 0.000000
0.415441 0.174020 0.000000
0.477941 0.174020 0.000000
0.000000 0.236520 0.000000
0.000000 0.236520 0.000000
0.000000 0.236520 0.000000
0.000000 0.236520 0.000000
0.000000 0.236520 0.000000
0.000000 0.236520 0.000000
0.000000 0.236520 0.000000
0.000000 0.236520 0.000000
0.000000 0.236520 0.000000
0.040441 0.236520 0.000000
0.102941 0.236520 0.000000
0.165441 0.236520 0.000000
0.227941 0.236520 0.000000
0.290441 0.236520 0.000000
0.352941 0.236520 0.000000
0.415441 0.236520 0.000000
0.477941 0.236520 0.000000
0.000000 0.299020 0.000000
0.000000 0.299020 0.000000
0.000000 0.299020 0.000000
0.000000 0.299020 0.000000
0.000000 0.299020 0.000000
0.000000 0.299020 0.000000
0.000000 0.299020 0.000000
0.000000 0.299020 0.000000
0.000000 0.299020 0.000000
0.040441 0.299020 0.000000
0.102941 0.299020 0.000000
0.165441 0.299020 0.000000
0.227941 0.299020 0.000000
0.290441 0.299020 0.000000
0.352941 0.299020 0.000000
0.415441 0.299020 0.000000
0.477941 0.299020 0.000000
0.000000 0.361520 0.000000
0.000000 0.361520 0.000000
0.000000 0.361520 0.000000
0.000000 0.361520 0.000000
0.000000 0.361520 0.000000
0.000000 0.361520 0.000000
0.000000 0.361520 0.000000
0.000000 0.361520 0.000000
0.000000 0.361520 0.000000
0.040441 0.361520 0.000000
0.102941 0.361520 0.000000
0.165441 0.361520 0.000000
0.227941 0.361520 0.000000
0.290441 0.361520 0.000000
0.352941 0.361520 0.000000
0.415441 0.361520 0.000000
0.477941 0.361520 0.000000
0.000000 0.424020 0.000000
0.000000 0.424020 0.000000
0.000000 0.424020 0.000000
0.000000 0.424020 0.000000
0.000000 0.424020 0.000000
0.000000 0.424020 0.000000
0.000000 0.424020 0.000000
0.000000 0.424020 0.000000
0.000000 0.424020 0.000000
0.040441 0.424020 0.000000
0.102941 0.424020 0.000000
0.165441 0.424020 0.000000
0.227941 0.424020 0.000000
0.290441 0.424020 0.000000
0.352941 0.424020 0.000000
0.415441 0.424020 0.000000
0.477941 0.424020 0.000000
0.000000 0.000000 0.000000
0.000000 0.000000 0.000000
0.000000 0.000000 0.000000
0.000000 0.000000 0.000000
0.000000 0.000000 0.000000
0.000000 0.000000 0.000000
0.000000 0.000000 0.000000
0.000000 0.000000 0.000000
0.000000 0.000000 0.000000
0.040441 0.000000 0.000000
0.102941 0.000000 0.000000
0.165441 0.000000 0.000000
0.227941 0.000000 0.000000
0.290441 0.000000 0.000000
0.352941 0.000000 0.000000
0.415441 0.000000 0.000000
0.477941 0.000000 0.000000
0.000000 0.000000 0.000000
0.000000 0.000000 0.000000
0.000000 0.000000 0.000000
0.000000 0.000000 0.000000
0.000000 0.000000 0.000000
0.000000 0.000000 0.000000
0.000000 0.000000 0.000000
0.000000 0.000000 0.000000
0.000000 0.000000 0.000000
0.040441 0.000000 0.000000
0.102941 0.000000 0.000000
0.165441 0.000000 0.000000
0.227941 0.000000 0.000000
0.290441 0.000000 0.000000
0.352941 0.000000 0.000000
0.415441 0.000000 0.000000
0.477941 0.000000 0.000000
0.000000 0.000000 0.000000
0.000000 0.000000 0.000000
0.000000 0.000000 0.000000
0.000000 0.000000 0.000000
0.000000 0.000000 0.000000
0.000000 0.000000 0.000000
0.000000 0.000000 0.000000
0.000000 0.000000 0.000000
0.000000 0.000000 0.000000
0.040441 0.000000 0.000000
0.102941 0.000000 0.000000
0.165441 0.000000 0.000000
0.227941 0.000000 0.000000
0.290441 0.000000 0.000000
0.352941 0.000000 0.000000
0.415441 0.000000 0.000000
0.477941 0.000000 0.000000
0.000000 0.000000 0.000000
0.000000 0.000000 0.000000
0.000000 0.000000 0.000000
0.000000 0.000000 0.000000
0.000000 0.000000 0.000000
0.000000 0.000000 0.000000
0.000000 0.000000 0.000000
0.000000 0.000000 0.000000
0.000000 0.000000 0.000000
0.040441 0.000000 0.000000
0.102941 0.000000 0.000000
0.165441 0.000000 0.000000
0.227941 0.000000 0.000000
0.290441 0.000000 0.000000
0.352941 0.000000 0.000000
0.415441 0.000000 0.000000
0.477941 0.000000 0.000000
0.000000 0.000000 0.000000
0.000000 0.000000 0.000000
0.000000 0.000000 0.000000
0.000000 0.000000 0.000000
0.000000 0.000000 0.000000
0.000000 0.000000 0.000000
0.000000 0.000000 0.000000
0.000000 0.000000 0.000000
0.000000 0.000000 0.000000
0.040441 0.000000 0.000000
0.102941 0.000000 0.000000
0.165441 0.000000 0.000000
0.227941 0.000000 0.000000
0.290441 0.000000 0.000000
0.352941 0.000000 0.000000
0.415441 0.000000 0.000000
0.477941 0.000000 0.000000
0.000000 0.000000 0.000000
0.000000 0.000000 0.000000
0.000000 0.000000 0.000000
0.000000 0.000000 0.000000
0.000000 0.000000 0.000000
0.000000 0.000000 0.000000
0.000000 0.000000 0.000000
0.000000 0.000000 0.000000
0.000000 0.000000 0.000000
0.040441 0.000000 0.000000
0.102941 0.000000 0.000000
0.165441 0.000000 0.000000
0.227941 0.000000 0.000000
0.290441 0.000000 0.000000
0.352941 0.000000 0.000000
0.415441 0.000000 0.000000
0.477941 0.000000 0.000000
0.000000 0.000000 0.000000
0.000000 0.000000 0.000000
0.000000 0.000000 0.000000
0.000000 0.000000 0.000000
0.000000 0.000000 0.000000
0.000000 0.000000 0.000000
0.000000 0.000000 0.000000
0.000000 0.000000 0.000000
0.000000 0.000000 0.000000
0.040441 0.000000 0.000000
0.102941 0.000000 0.000000
0.165441 0.000000 0.000000
0.227941 0.000000 0.000000
0.290441 0.000000 0.000000
0.352941 0.000000 0.000000
0.415441 0.000000 0.000000
0.477941 0.000000 0.000000
0.000000 0.000000 0.000000
0.000000 0.000000 0.000000
0.000000 0.000000 0.000000
0.000000 0.000000 0.000000
0.000000 0.000000 0.000000
0.000000 0.000000 0.000000
0.000000 0.000000 0.000000
0.000000 0.000000 0.000000
0.000000 0.000000 0.000000
0.040441 0.000000 0.000000
0.102941 0.000000 0.000000
0.165441 0.000000 0.000000
0.227941 0.000000 0.000000
0.290441 0.000000 0.000000
0.352941 0.000000 0.000000
0.415441 0.000000 0.000000
0.477941 0.000000 0.000000
0.000000 0.000000 0.000000
0.000000 0.000000 0.000000
0.000000 0.000000 0.000000
0.000000 0.000000 0.000000
0.000000 0.000000 0.000000
0.000000 0.000000 0.000000
0.000000 0.000000 0.000000
0.000000 0.000000 0.000000
0.000000 0.000000 0.000000
0.040441 0.000000 0.000000
0.102941 0.000000 0.000000
0.165441 0.000000 0.000000
0.227941 0.000000 0.000000
0.290441 0.000000 0.000000
0.352941 0.000000 0.000000
0.415441 0.000000 0.000000
0.477941 0.000000 0.000000
0.000000 0.000000 0.000000
0.000000 0.000000 0.000000
0.000000 0.000000 0.000000
0.000000 0.000000 0.000000
0.000000 0.000000 0.000000
0.000000 0.000000 0.000000
0.000000 0.000000 0.000000
0.000000 0.000000 0.000000
0.000000 0.000000 0.000000
0.040441 0.000000 0.000000
0.102941 0.000000 0.000000
0.165441 0.000000 0.000000
0.227941 0.000000 0.000000
0.290441 0.000000 0.000000
0.352941 0.000000 0.000000
0.415441 0.000000 0.000000
0.477941 0.000000 0.000000
0.000000 0.049020 0.000000
0.000000 0.049020 0.000000
0.000000 0.049020 0.000000
0.000000 0.049020 0.000000
0.000000 0.049020 0.000000
0.000000 0.049020 0.000000
0.000000 0.049020 0.000000
0.000000 0.049020 0.000000
0.000000 0.049020 0.000000
0.040441 0.049020 0.000000
0.102941 0.049020 0.000000
0.165441 0.049020 0.000000
0.227941 0.049020 0.000000
0.290441 0.049020 0.000000
0.352941 0.049020 0.000000
0.415441 0.049020 0.000000
0.477941 0.049020 0.000000
0.000000 0.111520 0.000000
0.000000 0.111520 0.000000
0.000000 0.111520 0.000000
0.000000 0.111520 0.000000
0.000000 0.111520 0.000000
0.000000 0.111520 0.000000
0.000000 0.111520 0.000000
0.000000 0.111520 0.000000
0.000000 0.111520 0.000000
0.040441 0.111520 0.000000
0.102941 0.111520 0.000000
0.165441 0.111520 0.000000
0.227941 0.111520 0.000000
0.290441 0.111520 0.000000
0.352941 0.111520 0.000000
0.415441 0.111520 0.000000
0.477941 0.111520 0.000000
0.000000 0.174020 0.000000
0.000000 0.174020 0.000000
0.000000 0.174020 0.000000
0.000000 0.174020 0.000000
0.000000 0.174020 0.000000
0.000000 0.174020 0.000000
0.000000 0.174020 0.000000
0.000000 0.174020 0.000000
0.000000 0.174020 0.000000
0.040441 0.174020 0.000000
0.102941 0.174020 0.000000
0.165441 0.174020 0.000000
0.227941 0.174020 0.000000
0.290441 0.174020 0.000000
0.352941 0.174020 0.000000
0.415441 0.174020 0.000000
0.477941 0.174020 0.000000
0.000000 0.236520 0.000000
0.000000 0.236520 0.000000
0.000000 0.236520 0.000000
0.000000 0.236520 0.000000
0.000000 0.236520 0.000000
0.000000 0.236520 0.000000
0.000000 0.236520 0.000000
0.000000 0.236520 0.000000
0.000000 0.236520 0.000000
0.040441 0.236520 0.000000
0.102941 0.236520 0.000000
0.165441 0.236520 0.000000
0.227941 0.236520 0.000000
0.290441 0.236520 0.000000
0.352941 0.236520 0.000000
0.415441 0.236520 0.000000
0.477941 0.236520 0.000000
0.000000 0.299020 0.000000
0.000000 0.299020 0.000000
0.000000 0.299020 0.000000
0.000000 0.299020 0.000000
0.000000 0.299020 0.000000
0.000000 0.299020 0.000000
0.000000 0.299020 0.000000
0.000000 0.299020 0.000000
0.000000 0.299020 0.000000
0.040441 0.299020 0.000000
0.102941 0.299020 0.000000
0.165441 0.299020 0.000000
0.227941 0.299020 0.000000
0.290441 0.299020 0.000000
0.352941 0.299020 0.000000
0.415441 0.299020 0.000000
0.477941 0.299020 0.000000
0.000000 0.361520 0.000000
0.000000 0.361520 0.000000
0.000000 0.361520 0.000000
0.000000 0.361520 0.000000
0.000000 0.361520 0.000000
0.000000 0.361520 0.000000
0.000000 0.361520 0.000000
0.000000 0.361520 0.000000
0.000000 0.361520 0.000000
0.040441 0.361520 0.000000
0.102941 0.361520 0.000000
0.165441 0.361520 0.000000
0.227941 0.361520 0.000000
0.290441 0.361520 0.000000
0.352941 0.361520 0.000000
0.415441 0.361520 0.000000
0.477941 0.361520 0.000000
0.000000 0.424020 0.000000
0.000000 0.424020 0.000000
0.000000 0.424020 0.000000
0.000000 0.424020 0.000000
0.000000 0.424020 0.000000
0.000000 0.424020 0.000000
0.000000 0.424020 0.000000
0.000000 0.424020 0.000000
0.000000 0.424020 0.000000
0.040441 0.424020 0.000000
0.102941 0.424020 0.000000
0.165441 0.424020 0.000000
0.227941 0.424020 0.000000
0.290441 0.424020 0.000000
0.352941 0.424020 0.000000
0.415441 0.424020 0.000000
0.477941 0.424020 0.000000
0.000000 0.000000 0.000000
0.000000 0.000000 0.000000
0.000000 0.000000 0.000000
0.000000 0.000000 0.000000
0.000000 0.000000 0.000000
0.000000 0.000000 0.000000
0.000000 0.000000 0.000000
0.000000 0.000000 0.000000
0.000000 0.000000 0.000000
0.040441 0.000000 0.000000
0.102941 0.000000 0.000000
0.165441 0.000000 0.000000
0.227941 0.000000 0.000000
0.290441 0.000000 0.000000
0.352941 0.000000 0.000000
0.415441 0.000000 0.000000
0.477941 0.000000 0.000000
0.000000 0.000000 0.000000
0.000000 0.000000 0.000000
0.000000 0.000000 0.000000
0.000000 0.000000 0.000000
0.000000 0.000000 0.000000
0.000000 0.000000 0.000000
0.000000 0.000000 0.000000
0.000000 0.000000 0.000000
0.000000 0.000000 0.000000
0.040441 0.000000 0.000000
0.102941 0.000000 0.000000
0.165441 0.000000 0.000000
0.227941 0.000000 0.000000
0.290441 0.000000 0.000000
0.352941 0.000000 0.000000
0.415441 0.000000 0.000000
0.477941 0.000000 0.000000
0.000000 0.000000 0.000000
0.000000 0.000000 0.000000
0.000000 0.000000 0.000000
0.000000 0.000000 0.000000
0.000000 0.000000 0.000000
0.000000 0.000000 0.000000
0.000000 0.000000 0.000000
0.000000 0.000000 0.000000
0.000000 0.000000 0.000000
0.040441 0.000000 0.000000
0.102941 0.000000 0.000000
0.165441 0.000000 0.000000
0.227941 0.000000 0.000000
0.290441 0.000000 0.000000
0.352941 0.000000 0.000000
0.415441 0.000000 0.000000
0.477941 0.000000 0.000000
0.000000 0.000000 0.000000
0.000000 0.000000 0.000000
0.000000 0.000000 0.000000
0.000000 0.000000 0.000000
0.000000 0.000000 0.000000
0.000000 0.000000 0.000000
0.000000 0.000000 0.000000
0.000000 0.000000 0.000000
0.000000 0.000000 0.000000
0.040441 0.000000 0.000000
0.102941 0.000000 0.000000
0.165441 0.000000 0.000000
0.227941 0.000000 0.000000
0.290441 0.000000 0.000000
0.352941 0.000000 0.000000
0.415441 0.000000 0.000000
0.477941 0.000000 0.000000
0.000000 0.000000 0.000000
0.000000 0.000000 0.000000
0.000000 0.000000 0.000000
0.000000 0.000000 0.000000
0.000000 0.000000 0.000000
0.000000 0.000000 0.000000
0.000000 0.000000 0.000000
0.000000 0.000000 0.000000
0.000000 0.000000 0.000000
0.040441 0.000000 0.000000
0.102941 0.000000 0.000000
0.165441 0.000000 0.000000
0.227941 0.000000 0.000000
0.290441 0.000000 0.000000
0.352941 0.000000 0.000000
0.415441 0.000000 0.000000
0.477941 0.000000 0.000000
0.000000 0.000000 0.000000
0.000000 0.000000 0.000000
0.000000 0.000000 0.000000
0.000000 0.000000 0.000000
0.000000 0.000000 0.000000
0.000000 0.000000 0.000000
0.000000 0.000000 0.000000
0.000000 0.000000 0.000000
0.000000 0.000000 0.000000
0.040441 0.000000 0.000000
0.102941 0.000000 0.000000
0.165441 0.000000 0.000000
0.227941 0.000000 0.000000
0.290441 0.000000 0.000000
0.352941 0.000000 0.000000
0.415441 0.000000 0.000000
0.477941 0.000000 0.000000
0.000000 0.000000 0.000000
0.000000 0.000000 0.000000
0.000000 0.000000 0.000000
0.000000 0.000000 0.000000
0.000000 0.000000 0.000000
0.000000 0.000000 0.000000
0.000000 0.000000 0.000000
0.000000 0.000000 0.000000
0.000000 0.000000 0.000000
0.040441 0.000000 0.000000
0.102941 0.000000 0.000000
0.165441 0.000000 0.000000
0.227941 0.000000 0.000000
0.290441 0.000000 0.000000
0.352941 0.000000 0.000000
0.415441 0.000000 0.000000
0.477941 0.000000 0.000000
0.000000 0.000000 0.000000
0.000000 0.000000 0.000000
0.000000 0.000000 0.000000
0.000000 0.000000 0.000000
0.000000 0.000000 0.000000
0.000000 0.000000 0.000000
0.000000 0.000000 0.000000
0.000000 0.000000 0.000000
0.000000 0.000000 0.000000
0.040441 0.000000 0.000000
0.102941 0.000000 0.000000
0.165441 0.000000 0.000000
0.227941 0.000000 0.000000
0.290441 0.000000 0.000000
0.352941 0.000000 0.000000
0.415441 0.000000 0.000000
0.477941 0.000000 0.000000
0.000000 0.000000 0.000000
0.000000 0.000000 0.000000
0.000000 0.000000 0.000000
0.000000 0.000000 0.000000
0.000000 0.000000 0.000000
0.000000 0.000000 0.000000
0.000000 0.000000 0.000000
0.000000 0.000000 0.000000
0.000000 0.000000 0.000000
0.040441 0.000000 0.000000
0.102941 0.000000 0.000000
0.165441 0.000000 0.000000
0.227941 0.000000 0.000000
0.290441 0.000000 0.000000
0.352941 0.000000 0.000000
0.415441 0.000000 0.000000
0.477941 0.000000 0.000000
0.000000 0.000000 0.000000
0.000000 0.000000 0.000000
0.000000 0.000000 0.000000
0.000000 0.000000 0.000000
0.000000 0.000000 0.000000
0.000000 0.000000 0.000000
0.000000 0.000000 0.000000
0.000000 0.000000 0.000000
0.000000 0.000000 0.000000
0.040441 0.000000 0.000000
0.102941 0.000000 0.000000
0.165441 0.000000 0.000000
0.227941 0.000000 0.000000
0.290441 0.000000 0.000000
0.352941 0.000000 0.000000
0.415441 0.000000 0.000000
0.477941 0.000000 0.000000
0.000000 0.049020 0.000000
0.000000 0.049020 0.000000
0.000000 0.049020 0.000000
0.000000 0.049020 0.000000
0.000000 0.049020 0.000000
0.000000 0.049020 0.000000
0.000000 0.049020 0.000000
0.000000 0.049020 0.000000
0.000000 0.049020 0.000000
0.040441 0.049020 0.000000
0.102941 0.049020 0.000000
0.165441 0.049020 0.000000
0.227941 0.049020 0.000000
0.290441 0.049020 0.000000
0.352941 0.049020 0.000000
0.415441 0.049020 0.000000
0.477941 0.049020 0.000000
0.000000 0.111520 0.000000
0.000000 0.111520 0.000000
0.000000 0.111520 0.000000
0.000000 0.111520 0.000000
0.000000 0.111520 0.000000
0.000000 0.111520 0.000000
0.000000 0.111520 0.000000
0.000000 0.111520 0.000000
0.000000 0.111520 0.000000
0.040441 0.111520 0.000000
0.102941 0.111520 0.000000
0.165441 0.111520 0.000000
0.227941 0.111520 0.000000
0.290441 0.111520 0.000000
0.352941 0.111520 0.000000
0.415441 0.111520 0.000000
0.477941 0.111520 0.000000
0.000000 0.174020 0.000000
0.000000 0.174020 0.000000
0.000000 0.174020 0.000000
0.000000 0.174020 0.000000
0.000000 0.174020 0.000000
0.000000 0.174020 0.000000
0.000000 0.174020 0.000000
0.000000 0.174020 0.000000
0.000000 0.174020 0.000000
0.040441 0.174020 0.000000
0.102941 0.174020 0.000000
0.165441 0.174020 0.000000
0.227941 0.174020 0.000000
0.290441 0.174020 0.000000
0.352941 0.174020 0.000000
0.415441 0.174020 0.000000
0.477941 0.174020 0.000000
0.000000 0.236520 0.000000
0.000000 0.236520 0.000000
0.000000 0.236520 0.000000
0.000000 0.236520 0.000000
0.000000 0.236520 0.000000
0.000000 0.236520 0.000000
0.000000 0.236520 0.000000
0.000000 0.236520 0.000000
0.000000 0.236520 0.000000
0.040441 0.236520 0.000000
0.102941 0.236520 0.000000
0.165441 0.236520 0.000000
0.227941 0.236520 0.000000
0.290441 0.236520 0.000000
0.352941 0.236520 0.000000
0.415441 0.236520 0.000000
0.477941 0.236520 0.000000
0.000000 0.299020 0.000000
0.000000 0.299020 0.000000
0.000000 0.299020 0.000000
0.000000 0.299020 0.000000
0.000000 0.299020 0.000000
0.000000 0.299020 0.000000
0.000000 0.299020 0.000000
0.000000 0.299020 0.000000
0.000000 0.299020 0.000000
0.040441 0.299020 0.000000
0.102941 0.299020 0.000000
0.165441 0.299020 0.000000
0.227941 0.299020 0.000000
0.290441 0.299020 0.000000
0.352941 0.299020 0.000000
0.415441 0.299020 0.000000
0.477941 0.299020 0.000000
0.000000 0.361520 0.000000
0.000000 0.361520 0.000000
0.000000 0.361520 0.000000
0.000000 0.361520 0.000000
0.000000 0.361520 0.000000
0.000000 0.361520 0.000000
0.000000 0.361520 0.000000
0.000000 0.361520 0.000000
0.000000 0.361520 0.000000
0.040441 0.361520 0.000000
0.102941 0.361520 0.000000
0.165441 0.361520 0.000000
0.227941 0.361520 0.000000
0.290441 0.361520 0.000000
0.352941 0.361520 0.000000
0.415441 0.361520 0.000000
0.477941 0.361520 0.000000
0.000000 0.424020 0.000000
0.000000 0.424020 0.000000
0.000000 0.424020 0.000000
0.000000 0.424020 0.000000
0.000000 0.424020 0.000000
0.000000 0.424020 0.000000
0.000000 0.424020 0.000000
0.000000 0.424020 0.000000
0.000000 0.424020 0.000000
0.040441 0.424020 0.000000
0.102941 0.424020 0.000000
0.165441 0.424020 0.000000
0.227941 0.424020 0.000000
0.290441 0.424020 0.000000
0.352941 0.424020 0.000000
0.415441 0.424020 0.000000
0.477941 0.424020 0.000000
0.000000 0.000000 0.000000
0.000000 0.000000 0.000000
0.000000 0.000000 0.000000
0.000000 0.000000 0.000000
0.000000 0.000000 0.000000
0.000000 0.000000 0.000000
0.000000 0.000000 0.000000
0.000000 0.000000 0.000000
0.000000 0.000000 0.000000
0.040441 0.000000 0.000000
0.102941 0.000000 0.000000
0.165441 0.000000 0.000000
0.227941 0.000000 0.000000
0.290441 0.000000 0.000000
0.352941 0.000000 0.000000
0.415441 0.000000 0.000000
0.477941 0.000000 0.000000
0.000000 0.000000 0.000000
0.000000 0.000000 0.000000
