output/mylook_20251110_014309.cube
# Generated by Cinematic LUT Generator
LUT_3D_SIZE 9
0.000000 0.000000 0.000000
0.000000 0.000000 0.000000
0.007353 0.000000 0.000000
0.132353 0.000000 0.000000
0.257353 0.000000 0.000000
0.382353 0.000000 0.000000
0.507353 0.000000 0.000000
0.632353 0.000000 0.000000
0.757353 0.000000 0.000000
0.000000 0.000000 0.000000
0.000000 0.000000 0.000000
0.007353 0.000000 0.000000
0.132353 0.000000 0.000000
0.257353 0.000000 0.000000
0.382353 0.000000 0.000000
0.507353 0.000000 0.000000
0.632353 0.000000 0.000000
0.757353 0.000000 0.000000
0.000000 0.056373 0.000000
0.000000 0.056373 0.000000
0.007353 0.056373 0.000000
0.132353 0.056373 0.000000
0.257353 0.056373 0.000000
0.382353 0.056373 0.000000
0.507353 0.056373 0.000000
0.632353 0.056373 0.000000
0.757353 0.056373 0.000000
0.000000 0.181373 0.000000
0.000000 0.181373 0.000000
0.007353 0.181373 0.000000
0.132353 0.181373 0.000000
0.257353 0.181373 0.000000
0.382353 0.181373 0.000000
0.507353 0.181373 0.000000
0.632353 0.181373 0.000000
0.757353 0.181373 0.000000
0.000000 0.306373 0.000000
0.000000 0.306373 0.000000
0.007353 0.306373 0.000000
0.132353 0.306373 0.000000
0.257353 0.306373 0.000000
0.382353 0.306373 0.000000
0.507353 0.306373 0.000000
0.632353 0.306373 0.000000
0.757353 0.306373 0.000000
0.000000 0.431373 0.000000
0.000000 0.431373 0.000000
0.007353 0.431373 0.000000
0.132353 0.431373 0.000000
0.257353 0.431373 0.000000
0.382353 0.431373 0.000000
0.507353 0.431373 0.000000
0.632353 0.431373 0.000000
0.757353 0.431373 0.000000
0.000000 0.556373 0.000000
0.000000 0.556373 0.000000
0.007353 0.556373 0.000000
0.132353 0.556373 0.000000
0.257353 0.556373 0.000000
0.382353 0.556373 0.000000
0.507353 0.556373 0.000000
0.632353 0.556373 0.000000
0.757353 0.556373 0.000000
0.000000 0.681373 0.000000
0.000000 0.681373 0.000000
0.007353 0.681373 0.000000
0.132353 0.681373 0.000000
0.257353 0.681373 0.000000
0.382353 0.681373 0.000000
0.507353 0.681373 0.000000
0.632353 0.681373 0.000000
0.757353 0.681373 0.000000
0.000000 0.806373 0.000000
0.000000 0.806373 0.000000
0.007353 0.806373 0.000000
0.132353 0.806373 0.000000
0.257353 0.806373 0.000000
0.382353 0.806373 0.000000
0.507353 0.806373 0.000000
0.632353 0.806373 0.000000
0.757353 0.806373 0.000000
0.000000 0.000000 0.000000
0.000000 0.000000 0.000000
0.007353 0.000000 0.000000
0.132353 0.000000 0.000000
0.257353 0.000000 0.000000
0.382353 0.000000 0.000000
0.507353 0.000000 0.000000
0.632353 0.000000 0.000000
0.757353 0.000000 0.000000
0.000000 0.000000 0.000000
0.000000 0.000000 0.000000
0.007353 0.000000 0.000000
0.132353 0.000000 0.000000
0.257353 0.000000 0.000000
0.382353 0.000000 0.000000
0.507353 0.000000 0.000000
0.632353 0.000000 0.000000
0.757353 0.000000 0.000000
0.000000 0.056373 0.000000
0.000000 0.056373 0.000000
0.007353 0.056373 0.000000
0.132353 0.056373 0.000000
0.257353 0.056373 0.000000
0.382353 0.056373 0.000000
0.507353 0.056373 0.000000
0.632353 0.056373 0.000000
0.757353 0.056373 0.000000
0.000000 0.181373 0.000000
0.000000 0.181373 0.000000
0.007353 0.181373 0.000000
0.132353 0.181373 0.000000
0.257353 0.181373 0.000000
0.382353 0.181373 0.000000
0.507353 0.181373 0.000000
0.632353 0.181373 0.000000
0.757353 0.181373 0.000000
0.000000 0.306373 0.000000
0.000000 0.306373 0.000000
0.007353 0.306373 0.000000
0.132353 0.306373 0.000000
0.257353 0.306373 0.000000
0.382353 0.306373 0.000000
0.507353 0.306373 0.000000
0.632353 0.306373 0.000000
0.757353 0.306373 0.000000
0.000000 0.431373 0.000000
0.000000 0.431373 0.000000
0.007353 0.431373 0.000000
0.132353 0.431373 0.000000
0.257353 0.431373 0.000000
0.382353 0.431373 0.000000
0.507353 0.431373 0.000000
0.632353 0.431373 0.000000
0.757353 0.431373 0.000000
0.000000 0.556373 0.000000
0.000000 0.556373 0.000000
0.007353 0.556373 0.000000
0.132353 0.556373 0.000000
0.257353 0.556373 0.000000
0.382353 0.556373 0.000000
0.507353 0.556373 0.000000
0.632353 0.556373 0.000000
0.757353 0.556373 0.000000
0.000000 0.681373 0.000000
0.000000 0.681373 0.000000
0.007353 0.681373 0.000000
0.132353 0.681373 0.000000
0.257353 0.681373 0.000000
0.382353 0.681373 0.000000
0.507353 0.681373 0.000000
0.632353 0.681373 0.000000
0.757353 0.681373 0.000000
0.000000 0.806373 0.000000
0.000000 0.806373 0.000000
0.007353 0.806373 0.000000
0.132353 0.806373 0.000000
0.257353 0.806373 0.000000
0.382353 0.806373 0.000000
0.507353 0.806373 0.000000
0.632353 0.806373 0.000000
0.757353 0.806373 0.000000
0.000000 0.000000 0.105392
0.000000 0.000000 0.105392
0.007353 0.000000 0.105392
0.132353 0.000000 0.105392
0.257353 0.000000 0.105392
0.382353 0.000000 0.105392
0.507353 0.000000 0.105392
0.632353 0.000000 0.105392
0.757353 0.000000 0.105392
0.000000 0.000000 0.105392
0.000000 0.000000 0.105392
0.007353 0.000000 0.105392
0.132353 0.000000 0.105392
0.257353 0.000000 0.105392
0.382353 0.000000 0.105392
0.507353 0.000000 0.105392
0.632353 0.000000 0.105392
0.757353 0.000000 0.105392
0.000000 0.056373 0.105392
0.000000 0.056373 0.105392
0.007353 0.056373 0.105392
0.132353 0.056373 0.105392
0.257353 0.056373 0.105392
0.382353 0.056373 0.105392
0.507353 0.056373 0.105392
0.632353 0.056373 0.105392
0.757353 0.056373 0.105392
0.000000 0.181373 0.105392
0.000000 0.181373 0.105392
0.007353 0.181373 0.105392
0.132353 0.181373 0.105392
0.257353 0.181373 0.105392
0.382353 0.181373 0.105392
0.507353 0.181373 0.105392
0.632353 0.181373 0.105392
0.757353 0.181373 0.105392
0.000000 0.306373 0.105392
0.000000 0.306373 0.105392
0.007353 0.306373 0.105392
0.132353 0.306373 0.105392
0.257353 0.306373 0.105392
0.382353 0.306373 0.105392
0.507353 0.306373 0.105392
0.632353 0.306373 0.105392
0.757353 0.306373 0.105392
0.000000 0.431373 0.105392
0.000000 0.431373 0.105392
0.007353 0.431373 0.105392
0.132353 0.431373 0.105392
0.257353 0.431373 0.105392
0.382353 0.431373 0.105392
0.507353 0.431373 0.105392
0.632353 0.431373 0.105392
0.757353 0.431373 0.105392
0.000000 0.556373 0.105392
0.000000 0.556373 0.105392
0.007353 0.556373 0.105392
0.132353 0.556373 0.105392
0.257353 0.556373 0.105392
0.382353 0.556373 0.105392
0.507353 0.556373 0.105392
0.632353 0.556373 0.105392
0.757353 0.556373 0.105392
0.000000 0.681373 0.105392
0.000000 0.681373 0.105392
0.007353 0.681373 0.105392
0.132353 0.681373 0.105392
0.257353 0.681373 0.105392
0.382353 0.681373 0.105392
0.507353 0.681373 0.105392
0.632353 0.681373 0.105392
0.757353 0.681373 0.105392
0.000000 0.806373 0.105392
0.000000 0.806373 0.105392
0.007353 0.806373 0.105392
0.132353 0.806373 0.105392
0.257353 0.806373 0.105392
0.382353 0.806373 0.105392
0.507353 0.806373 0.105392
0.632353 0.806373 0.105392
0.757353 0.806373 0.105392
0.000000 0.000000 0.230392
0.000000 0.000000 0.230392
0.007353 0.000000 0.230392
0.132353 0.000000 0.230392
0.257353 0.000000 0.230392
0.382353 0.000000 0.230392
0.507353 0.000000 0.230392
0.632353 0.000000 0.230392
0.757353 0.000000 0.230392
0.000000 0.000000 0.230392
0.000000 0.000000 0.230392
0.007353 0.000000 0.230392
0.132353 0.000000 0.230392
0.257353 0.000000 0.230392
0.382353 0.000000 0.230392
0.507353 0.000000 0.230392
0.632353 0.000000 0.230392
0.757353 0.000000 0.230392
0.000000 0.056373 0.230392
0.000000 0.056373 0.230392
0.007353 0.056373 0.230392
0.132353 0.056373 0.230392
0.257353 0.056373 0.230392
0.382353 0.056373 0.230392
0.507353 0.056373 0.230392
0.632353 0.056373 0.230392
0.757353 0.056373 0.230392
0.000000 0.181373 0.230392
0.000000 0.181373 0.230392
0.007353 0.181373 0.230392
0.132353 0.181373 0.230392
0.257353 0.181373 0.230392
0.382353 0.181373 0.230392
0.507353 0.181373 0.230392
0.632353 0.181373 0.230392
0.757353 0.181373 0.230392
0.000000 0.306373 0.230392
0.000000 0.306373 0.230392
0.007353 0.306373 0.230392
0.132353 0.306373 0.230392
0.257353 0.306373 0.230392
0.382353 0.306373 0.230392
0.507353 0.306373 0.230392
0.632353 0.306373 0.230392
0.757353 0.306373 0.230392
0.000000 0.431373 0.230392
0.000000 0.431373 0.230392
0.007353 0.431373 0.230392
0.132353 0.431373 0.230392
0.257353 0.431373 0.230392
0.382353 0.431373 0.230392
0.507353 0.431373 0.230392
0.632353 0.431373 0.230392
0.757353 0.431373 0.230392
0.000000 0.556373 0.230392
0.000000 0.556373 0.230392
0.007353 0.556373 0.230392
0.132353 0.556373 0.230392
0.257353 0.556373 0.230392
0.382353 0.556373 0.230392
0.507353 0.556373 0.230392
0.632353 0.556373 0.230392
0.757353 0.556373 0.230392
0.000000 0.681373 0.230392
0.000000 0.681373 0.230392
0.007353 0.681373 0.230392
0.132353 0.681373 0.230392
0.257353 0.681373 0.230392
0.382353 0.681373 0.230392
0.507353 0.681373 0.230392
0.632353 0.681373 0.230392
0.757353 0.681373 0.230392
0.000000 0.806373 0.230392
0.000000 0.806373 0.230392
0.007353 0.806373 0.230392
0.132353 0.806373 0.230392
0.257353 0.806373 0.230392
0.382353 0.806373 0.230392
0.507353 0.806373 0.230392
0.632353 0.806373 0.230392
0.757353 0.806373 0.230392
0.000000 0.000000 0.355392
0.000000 0.000000 0.355392
0.007353 0.000000 0.355392
0.132353 0.000000 0.355392
0.257353 0.000000 0.355392
0.382353 0.000000 0.355392
0.507353 0.000000 0.355392
0.632353 0.000000 0.355392
0.757353 0.000000 0.355392
0.000000 0.000000 0.355392
0.000000 0.000000 0.355392
0.007353 0.000000 0.355392
0.132353 0.000000 0.355392
0.257353 0.000000 0.355392
0.382353 0.000000 0.355392
0.507353 0.000000 0.355392
0.632353 0.000000 0.355392
0.757353 0.000000 0.355392
0.000000 0.056373 0.355392
0.000000 0.056373 0.355392
0.007353 0.056373 0.355392
0.132353 0.056373 0.355392
0.257353 0.056373 0.355392
0.382353 0.056373 0.355392
0.507353 0.056373 0.355392
0.632353 0.056373 0.355392
0.757353 0.056373 0.355392
0.000000 0.181373 0.355392
0.000000 0.181373 0.355392
0.007353 0.181373 0.355392
0.132353 0.181373 0.355392
0.257353 0.181373 0.355392
0.382353 0.181373 0.355392
0.507353 0.181373 0.355392
0.632353 0.181373 0.355392
0.757353 0.181373 0.355392
0.000000 0.306373 0.355392
0.000000 0.306373 0.355392
0.007353 0.306373 0.355392
0.132353 0.306373 0.355392
0.257353 0.306373 0.355392
0.382353 0.306373 0.355392
0.507353 0.306373 0.355392
0.632353 0.306373 0.355392
0.757353 0.306373 0.355392
0.000000 0.431373 0.355392
0.000000 0.431373 0.355392
0.007353 0.431373 0.355392
0.132353 0.431373 0.355392
0.257353 0.431373 0.355392
0.382353 0.431373 0.355392
0.507353 0.431373 0.355392
0.632353 0.431373 0.355392
0.757353 0.431373 0.355392
0.000000 0.556373 0.355392
0.000000 0.556373 0.355392
0.007353 0.556373 0.355392
0.132353 0.556373 0.355392
0.257353 0.556373 0.355392
0.382353 0.556373 0.355392
0.507353 0.556373 0.355392
0.632353 0.556373 0.355392
0.757353 0.556373 0.355392
0.000000 0.681373 0.355392
0.000000 0.681373 0.355392
0.007353 0.681373 0.355392
0.132353 0.681373 0.355392
0.257353 0.681373 0.355392
0.382353 0.681373 0.355392
0.507353 0.681373 0.355392
0.632353 0.681373 0.355392
0.757353 0.681373 0.355392
0.000000 0.806373 0.355392
0.000000 0.806373 0.355392
0.007353 0.806373 0.355392
0.132353 0.806373 0.355392
0.257353 0.806373 0.355392
0.382353 0.806373 0.355392
0.507353 0.806373 0.355392
0.632353 0.806373 0.355392
0.757353 0.806373 0.355392
0.000000 0.000000 0.480392
0.000000 0.000000 0.480392
0.007353 0.000000 0.480392
0.132353 0.000000 0.480392
0.257353 0.000000 0.480392
0.382353 0.000000 0.480392
0.507353 0.000000 0.480392
0.632353 0.000000 0.480392
0.757353 0.000000 0.480392
0.000000 0.000000 0.480392
0.000000 0.000000 0.480392
0.007353 0.000000 0.480392
0.132353 0.000000 0.480392
0.257353 0.000000 0.480392
0.382353 0.000000 0.480392
0.507353 0.000000 0.480392
0.632353 0.000000 0.480392
0.757353 0.000000 0.480392
0.000000 0.056373 0.480392
0.000000 0.056373 0.480392
0.007353 0.056373 0.480392
0.132353 0.056373 0.480392
0.257353 0.056373 0.480392
0.382353 0.056373 0.480392
0.507353 0.056373 0.480392
0.632353 0.056373 0.480392
0.757353 0.056373 0.480392
0.000000 0.181373 0.480392
0.000000 0.181373 0.480392
0.007353 0.181373 0.480392
0.132353 0.181373 0.480392
0.257353 0.181373 0.480392
0.382353 0.181373 0.480392
0.507353 0.181373 0.480392
0.632353 0.181373 0.480392
0.757353 0.181373 0.480392
0.000000 0.306373 0.480392
0.000000 0.306373 0.480392
0.007353 0.306373 0.480392
0.132353 0.306373 0.480392
0.257353 0.306373 0.480392
0.382353 0.306373 0.480392
0.507353 0.306373 0.480392
0.632353 0.306373 0.480392
0.757353 0.306373 0.480392
0.000000 0.431373 0.480392
0.000000 0.431373 0.480392
0.007353 0.431373 0.480392
0.132353 0.431373 0.480392
0.257353 0.431373 0.480392
0.382353 0.431373 0.480392
0.507353 0.431373 0.480392
0.632353 0.431373 0.480392
0.757353 0.431373 0.480392
0.000000 0.556373 0.480392
0.000000 0.556373 0.480392
0.007353 0.556373 0.480392
0.132353 0.556373 0.480392
0.257353 0.556373 0.480392
0.382353 0.556373 0.480392
0.507353 0.556373 0.480392
0.632353 0.556373 0.480392
0.757353 0.556373 0.480392
0.000000 0.681373 0.480392
0.000000 0.681373 0.480392
0.007353 0.681373 0.480392
0.132353 0.681373 0.480392
0.257353 0.681373 0.480392
0.382353 0.681373 0.480392
0.507353 0.681373 0.480392
0.632353 0.681373 0.480392
0.757353 0.681373 0.480392
0.000000 0.806373 0.480392
0.000000 0.806373 0.480392
0.007353 0.806373 0.480392
0.132353 0.806373 0.480392
0.257353 0.806373 0.480392
0.382353 0.806373 0.480392
0.507353 0.806373 0.480392
0.632353 0.806373 0.480392
0.757353 0.806373 0.480392
0.000000 0.000000 0.605392
0.000000 0.000000 0.605392
0.007353 0.000000 0.605392
0.132353 0.000000 0.605392
0.257353 0.000000 0.605392
0.382353 0.000000 0.605392
0.507353 0.000000 0.605392
0.632353 0.000000 0.605392
0.757353 0.000000 0.605392
0.000000 0.000000 0.605392
0.000000 0.000000 0.605392
0.007353 0.000000 0.605392
0.132353 0.000000 0.605392
0.257353 0.000000 0.605392
0.382353 0.000000 0.605392
0.507353 0.000000 0.605392
0.632353 0.000000 0.605392
0.757353 0.000000 0.605392
0.000000 0.056373 0.605392
0.000000 0.056373 0.605392
0.007353 0.056373 0.605392
0.132353 0.056373 0.605392
0.257353 0.056373 0.605392
0.382353 0.056373 0.605392
0.507353 0.056373 0.605392
0.632353 0.056373 0.605392
0.757353 0.056373 0.605392
0.000000 0.181373 0.605392
0.000000 0.181373 0.605392
0.007353 0.181373 0.605392
0.132353 0.181373 0.605392
0.257353 0.181373 0.605392
0.382353 0.181373 0.605392
0.507353 0.181373 0.605392
0.632353 0.181373 0.605392
0.757353 0.181373 0.605392
0.000000 0.306373 0.605392
0.000000 0.306373 0.605392
0.007353 0.306373 0.605392
0.132353 0.306373 0.605392
0.257353 0.306373 0.605392
0.382353 0.306373 0.605392
0.507353 0.306373 0.605392
0.632353 0.306373 0.605392
0.757353 0.306373 0.605392
0.000000 0.431373 0.605392
0.000000 0.431373 0.605392
0.007353 0.431373 0.605392
0.132353 0.431373 0.605392
0.257353 0.431373 0.605392
0.382353 0.431373 0.605392
0.507353 0.431373 0.605392
0.632353 0.431373 0.605392
0.757353 0.431373 0.605392
0.000000 0.556373 0.605392
0.000000 0.556373 0.605392
0.007353 0.556373 0.605392
0.132353 0.556373 0.605392
0.257353 0.556373 0.605392
0.382353 0.556373 0.605392
0.507353 0.556373 0.605392
0.632353 0.556373 0.605392
0.757353 0.556373 0.605392
0.000000 0.681373 0.605392
0.000000 0.681373 0.605392
0.007353 0.681373 0.605392
0.132353 0.681373 0.605392
0.257353 0.681373 0.605392
0.382353 0.681373 0.605392
0.507353 0.681373 0.605392
0.632353 0.681373 0.605392
0.757353 0.681373 0.605392
0.000000 0.806373 0.605392
0.000000 0.806373 0.605392
0.007353 0.806373 0.605392
0.132353 0.806373 0.605392
0.257353 0.806373 0.605392
0.382353 0.806373 0.605392
0.507353 0.806373 0.605392
0.632353 0.806373 0.605392
0.757353 0.806373 0.605392
0.000000 0.000000 0.730392
0.000000 0.000000 0.730392
0.007353 0.000000 0.730392
0.132353 0.000000 0.730392
0.257353 0.000000 0.730392
0.382353 0.000000 0.730392
0.507353 0.000000 0.730392
0.632353 0.000000 0.730392
0.757353 0.000000 0.730392
0.000000 0.000000 0.730392
0.000000 0.000000 0.730392
0.007353 0.000000 0.730392
0.132353 0.000000 0.730392
0.257353 0.000000 0.730392
0.382353 0.000000 0.730392
0.507353 0.000000 0.730392
0.632353 0.000000 0.730392
0.757353 0.000000 0.730392
0.000000 0.056373 0.730392
0.000000 0.056373 0.730392
0.007353 0.056373 0.730392
0.132353 0.056373 0.730392
0.257353 0.056373 0.730392
0.382353 0.056373 0.730392
0.507353 0.056373 0.730392
0.632353 0.056373 0.730392
0.757353 0.056373 0.730392
0.000000 0.181373 0.730392
0.000000 0.181373 0.730392
0.007353 0.181373 0.730392
0.132353 0.181373 0.730392
0.257353 0.181373 0.730392
0.382353 0.181373 0.730392
0.507353 0.181373 0.730392
0.632353 0.181373 0.730392
0.757353 0.181373 0.730392
0.000000 0.306373 0.730392
0.000000 0.306373 0.730392
0.007353 0.306373 0.730392
0.132353 0.306373 0.730392
0.257353 0.306373 0.730392
0.382353 0.306373 0.730392
0.507353 0.306373 0.730392
0.632353 0.306373 0.730392
0.757353 0.306373 0.730392
0.000000 0.431373 0.730392
0.000000 0.431373 0.730392
0.007353 0.431373 0.730392
0.132353 0.431373 0.730392
0.257353 0.431373 0.730392
0.382353 0.431373 0.730392
0.507353 0.431373 0.730392
0.632353 0.431373 0.730392
0.757353 0.431373 0.730392
0.000000 0.556373 0.730392
0.000000 0.556373 0.730392
0.007353 0.556373 0.730392
0.132353 0.556373 0.730392
0.257353 0.556373 0.730392
0.382353 0.556373 0.730392
0.507353 0.556373 0.730392
0.632353 0.556373 0.730392
0.757353 0.556373 0.730392
0.000000 0.681373 0.730392
0.000000 0.681373 0.730392
0.007353 0.681373 0.730392
0.132353 0.681373 0.730392
0.257353 0.681373 0.730392
0.382353 0.681373 0.730392
0.507353 0.681373 0.730392
0.632353 0.681373 0.730392
0.757353 0.681373 0.730392
0.000000 0.806373 0.730392
0.000000 0.806373 0.730392
0.007353 0.806373 0.730392
0.132353 0.806373 0.730392
0.257353 0.806373 0.730392
0.382353 0.806373 0.730392
0.507353 0.806373 0.730392
0.632353 0.806373 0.730392
0.757353 0.806373 0.730392
0.000000 0.000000 0.855392
0.000000 0.000000 0.855392
0.007353 0.000000 0.855392
0.132353 0.000000 0.855392
0.257353 0.000000 0.855392
0.382353 0.000000 0.855392
0.507353 0.000000 0.855392
0.632353 0.000000 0.855392
0.757353 0.000000 0.855392
0.000000 0.000000 0.855392
0.000000 0.000000 0.855392
0.007353 0.000000 0.855392
0.132353 0.000000 0.855392
0.257353 0.000000 0.855392
0.382353 0.000000 0.855392
0.507353 0.000000 0.855392
0.632353 0.000000 0.855392
0.757353 0.000000 0.855392
0.000000 0.056373 0.855392
0.000000 0.056373 0.855392
0.007353 0.056373 0.855392
0.132353 0.056373 0.855392
0.257353 0.056373 0.855392
0.382353 0.056373 0.855392
0.507353 0.056373 0.855392
0.632353 0.056373 0.855392
0.757353 0.056373 0.855392
0.000000 0.181373 0.855392
0.000000 0.181373 0.855392
0.007353 0.181373 0.855392
0.132353 0.181373 0.855392
0.257353 0.181373 0.855392
0.382353 0.181373 0.855392
0.507353 0.181373 0.855392
0.632353 0.181373 0.855392
0.757353 0.181373 0.855392
0.000000 0.306373 0.855392
0.000000 0.306373 0.855392
0.007353 0.306373 0.855392
0.132353 0.306373 0.855392
0.257353 0.306373 0.855392
0.382353 0.306373 0.855392
0.507353 0.306373 0.855392
0.632353 0.306373 0.855392
0.757353 0.306373 0.855392
0.000000 0.431373 0.855392
0.000000 0.431373 0.855392
0.007353 0.431373 0.855392
0.132353 0.431373 0.855392
0.257353 0.431373 0.855392
0.382353 0.431373 0.855392
0.507353 0.431373 0.855392
0.632353 0.431373 0.855392
0.757353 0.431373 0.855392
0.000000 0.556373 0.855392
0.000000 0.556373 0.855392
0.007353 0.556373 0.855392
0.132353 0.556373 0.855392
0.257353 0.556373 0.855392
0.382353 0.556373 0.855392
0.507353 0.556373 0.855392
0.632353 0.556373 0.855392
0.757353 0.556373 0.855392
0.000000 0.681373 0.855392
0.000000 0.681373 0.855392
0.007353 0.681373 0.855392
0.132353 0.681373 0.855392
0.257353 0.681373 0.855392
0.382353 0.681373 0.855392
0.507353 0.681373 0.855392
0.632353 0.681373 0.855392
0.757353 0.681373 0.855392
0.000000 0.806373 0.855392
0.000000 0.806373 0.855392
0.007353 0.806373 0.855392
0.132353 0.806373 0.855392
0.257353 0.806373 0.855392
0.382353 0.806373 0.855392
0.507353 0.806373 0.855392
0.632353 0.806373 0.855392
0.757353 0.806373 0.855392
