output/mylook_20251110_014309.cube
# Generated by Cinematic LUT Generator
LUT_3D_SIZE 17
0.000000 0.000000 0.000000
0.000000 0.000000 0.000000
0.000000 0.000000 0.000000
0.000000 0.000000 0.000000
0.007353 0.000000 0.000000
0.069853 0.000000 0.000000
0.132353 0.000000 0.000000
0.194853 0.000000 0.000000
0.257353 0.000000 0.000000
0.319853 0.000000 0.000000
0.382353 0.000000 0.000000
0.444853 0.000000 0.000000
0.507353 0.000000 0.000000
0.569853 0.000000 0.000000
0.632353 0.000000 0.000000
0.694853 0.000000 0.000000
0.757353 0.000000 0.000000
0.000000 0.000000 0.000000
0.000000 0.000000 0.000000
0.000000 0.000000 0.000000
0.000000 0.000000 0.000000
0.007353 0.000000 0.000000
0.069853 0.000000 0.000000
0.132353 0.000000 0.000000
0.194853 0.000000 0.000000
0.257353 0.000000 0.000000
0.319853 0.000000 0.000000
0.382353 0.000000 0.000000
0.444853 0.000000 0.000000
0.507353 0.000000 0.000000
0.569853 0.000000 0.000000
0.632353 0.000000 0.000000
0.694853 0.000000 0.000000
0.757353 0.000000 0.000000
0.000000 0.000000 0.000000
0.000000 0.000000 0.000000
0.000000 0.000000 0.000000
0.000000 0.000000 0.000000
0.007353 0.000000 0.000000
0.069853 0.000000 0.000000
0.132353 0.000000 0.000000
0.194853 0.000000 0.000000
0.257353 0.000000 0.000000
0.319853 0.000000 0.000000
0.382353 0.000000 0.000000
0.444853 0.000000 0.000000
0.507353 0.000000 0.000000
0.569853 0.000000 0.000000
0.632353 0.000000 0.000000
0.694853 0.000000 0.000000
0.757353 0.000000 0.000000
0.000000 0.000000 0.000000
0.000000 0.000000 0.000000
0.000000 0.000000 0.000000
0.000000 0.000000 0.000000
0.007353 0.000000 0.000000
0.069853 0.000000 0.000000
0.132353 0.000000 0.000000
0.194853 0.000000 0.000000
0.257353 0.000000 0.000000
0.319853 0.000000 0.000000
0.382353 0.000000 0.000000
0.444853 0.000000 0.000000
0.507353 0.000000 0.000000
0.569853 0.000000 0.000000
0.632353 0.000000 0.000000
0.694853 0.000000 0.000000
0.757353 0.000000 0.000000
0.000000 0.056373 0.000000
0.000000 0.056373 0.000000
0.000000 0.056373 0.000000
0.000000 0.056373 0.000000
0.007353 0.056373 0.000000
0.069853 0.056373 0.000000
0.132353 0.056373 0.000000
0.194853 0.056373 0.000000
0.257353 0.056373 0.000000
0.319853 0.056373 0.000000
0.382353 0.056373 0.000000
0.444853 0.056373 0.000000
0.507353 0.056373 0.000000
0.569853 0.056373 0.000000
0.632353 0.056373 0.000000
0.694853 0.056373 0.000000
0.757353 0.056373 0.000000
0.000000 0.118873 0.000000
0.000000 0.118873 0.000000
0.000000 0.118873 0.000000
0.000000 0.118873 0.000000
0.007353 0.118873 0.000000
0.069853 0.118873 0.000000
0.132353 0.118873 0.000000
0.194853 0.118873 0.000000
0.257353 0.118873 0.000000
0.319853 0.118873 0.000000
0.382353 0.118873 0.000000
0.444853 0.118873 0.000000
0.507353 0.118873 0.000000
0.569853 0.118873 0.000000
0.632353 0.118873 0.000000
0.694853 0.118873 0.000000
0.757353 0.118873 0.000000
0.000000 0.181373 0.000000
0.000000 0.181373 0.000000
0.000000 0.181373 0.000000
0.000000 0.181373 0.000000
0.007353 0.181373 0.000000
0.069853 0.181373 0.000000
0.132353 0.181373 0.000000
0.194853 0.181373 0.000000
0.257353 0.181373 0.000000
0.319853 0.181373 0.000000
0.382353 0.181373 0.000000
0.444853 0.181373 0.000000
0.507353 0.181373 0.000000
0.569853 0.181373 0.000000
0.632353 0.181373 0.000000
0.694853 0.181373 0.000000
0.757353 0.181373 0.000000
0.000000 0.243873 0.000000
0.000000 0.243873 0.000000
0.000000 0.243873 0.000000
0.000000 0.243873 0.000000
0.007353 0.243873 0.000000
0.069853 0.243873 0.000000
0.132353 0.243873 0.000000
0.194853 0.243873 0.000000
0.257353 0.243873 0.000000
0.319853 0.243873 0.000000
0.382353 0.243873 0.000000
0.444853 0.243873 0.000000
0.507353 0.243873 0.000000
0.569853 0.243873 0.000000
0.632353 0.243873 0.000000
0.694853 0.243873 0.000000
0.757353 0.243873 0.000000
0.000000 0.306373 0.000000
0.000000 0.306373 0.000000
0.000000 0.306373 0.000000
0.000000 0.306373 0.000000
0.007353 0.306373 0.000000
0.069853 0.306373 0.000000
0.132353 0.306373 0.000000
0.194853 0.306373 0.000000
0.257353 0.306373 0.000000
0.319853 0.306373 0.000000
0.382353 0.306373 0.000000
0.444853 0.306373 0.000000
0.507353 0.306373 0.000000
0.569853 0.306373 0.000000
0.632353 0.306373 0.000000
0.694853 0.306373 0.000000
0.757353 0.306373 0.000000
0.000000 0.368873 0.000000
0.000000 0.368873 0.000000
0.000000 0.368873 0.000000
0.000000 0.368873 0.000000
0.007353 0.368873 0.000000
0.069853 0.368873 0.000000
0.132353 0.368873 0.000000
0.194853 0.368873 0.000000
0.257353 0.368873 0.000000
0.319853 0.368873 0.000000
0.382353 0.368873 0.000000
0.444853 0.368873 0.000000
0.507353 0.368873 0.000000
0.569853 0.368873 0.000000
0.632353 0.368873 0.000000
0.694853 0.368873 0.000000
0.757353 0.368873 0.000000
0.000000 0.431373 0.000000
0.000000 0.431373 0.000000
0.000000 0.431373 0.000000
0.000000 0.431373 0.000000
0.007353 0.431373 0.000000
0.069853 0.431373 0.000000
0.132353 0.431373 0.000000
0.194853 0.431373 0.000000
0.257353 0.431373 0.000000
0.319853 0.431373 0.000000
0.382353 0.431373 0.000000
0.444853 0.431373 0.000000
0.507353 0.431373 0.000000
0.569853 0.431373 0.000000
0.632353 0.431373 0.000000
0.694853 0.431373 0.000000
0.757353 0.431373 0.000000
0.000000 0.493873 0.000000
0.000000 0.493873 0.000000
0.000000 0.493873 0.000000
0.000000 0.493873 0.000000
0.007353 0.493873 0.000000
0.069853 0.493873 0.000000
0.132353 0.493873 0.000000
0.194853 0.493873 0.000000
0.257353 0.493873 0.000000
0.319853 0.493873 0.000000
0.382353 0.493873 0.000000
0.444853 0.493873 0.000000
0.507353 0.493873 0.000000
0.569853 0.493873 0.000000
0.632353 0.493873 0.000000
0.694853 0.493873 0.000000
0.757353 0.493873 0.000000
0.000000 0.556373 0.000000
0.000000 0.556373 0.000000
0.000000 0.556373 0.000000
0.000000 0.556373 0.000000
0.007353 0.556373 0.000000
0.069853 0.556373 0.000000
0.132353 0.556373 0.000000
0.194853 0.556373 0.000000
0.257353 0.556373 0.000000
0.319853 0.556373 0.000000
0.382353 0.556373 0.000000
0.444853 0.556373 0.000000
0.507353 0.556373 0.000000
0.569853 0.556373 0.000000
0.632353 0.556373 0.000000
0.694853 0.556373 0.000000
0.757353 0.556373 0.000000
0.000000 0.618873 0.000000
0.000000 0.618873 0.000000
0.000000 0.618873 0.000000
0.000000 0.618873 0.000000
0.007353 0.618873 0.000000
0.069853 0.618873 0.000000
0.132353 0.618873 0.000000
0.194853 0.618873 0.000000
0.257353 0.618873 0.000000
0.319853 0.618873 0.000000
0.382353 0.618873 0.000000
0.444853 0.618873 0.000000
0.507353 0.618873 0.000000
0.569853 0.618873 0.000000
0.632353 0.618873 0.000000
0.694853 0.618873 0.000000
0.757353 0.618873 0.000000
0.000000 0.681373 0.000000
0.000000 0.681373 0.000000
0.000000 0.681373 0.000000
0.000000 0.681373 0.000000
0.007353 0.681373 0.000000
0.069853 0.681373 0.000000
0.132353 0.681373 0.000000
0.194853 0.681373 0.000000
0.257353 0.681373 0.000000
0.319853 0.681373 0.000000
0.382353 0.681373 0.000000
0.444853 0.681373 0.000000
0.507353 0.681373 0.000000
0.569853 0.681373 0.000000
0.632353 0.681373 0.000000
0.694853 0.681373 0.000000
0.757353 0.681373 0.000000
0.000000 0.743873 0.000000
0.000000 0.743873 0.000000
0.000000 0.743873 0.000000
0.000000 0.743873 0.000000
0.007353 0.743873 0.000000
0.069853 0.743873 0.000000
0.132353 0.743873 0.000000
0.194853 0.743873 0.000000
0.257353 0.743873 0.000000
0.319853 0.743873 0.000000
0.382353 0.743873 0.000000
0.444853 0.743873 0.000000
0.507353 0.743873 0.000000
0.569853 0.743873 0.000000
0.632353 0.743873 0.000000
0.694853 0.743873 0.000000
0.757353 0.743873 0.000000
0.000000 0.806373 0.000000
0.000000 0.806373 0.000000
0.000000 0.806373 0.000000
0.000000 0.806373 0.000000
0.007353 0.806373 0.000000
0.069853 0.806373 0.000000
0.132353 0.806373 0.000000
0.194853 0.806373 0.000000
0.257353 0.806373 0.000000
0.319853 0.806373 0.000000
0.382353 0.806373 0.000000
0.444853 0.806373 0.000000
0.507353 0.806373 0.000000
0.569853 0.806373 0.000000
0.632353 0.806373 0.000000
0.694853 0.806373 0.000000
0.757353 0.806373 0.000000
0.000000 0.000000 0.000000
0.000000 0.000000 0.000000
0.000000 0.000000 0.000000
0.000000 0.000000 0.000000
0.007353 0.000000 0.000000
0.069853 0.000000 0.000000
0.132353 0.000000 0.000000
0.194853 0.000000 0.000000
0.257353 0.000000 0.000000
0.319853 0.000000 0.000000
0.382353 0.000000 0.000000
0.444853 0.000000 0.000000
0.507353 0.000000 0.000000
0.569853 0.000000 0.000000
0.632353 0.000000 0.000000
0.694853 0.000000 0.000000
0.757353 0.000000 0.000000
0.000000 0.000000 0.000000
0.000000 0.000000 0.000000
0.000000 0.000000 0.000000
0.000000 0.000000 0.000000
0.007353 0.000000 0.000000
0.069853 0.000000 0.000000
0.132353 0.000000 0.000000
0.194853 0.000000 0.000000
0.257353 0.000000 0.000000
0.319853 0.000000 0.000000
0.382353 0.000000 0.000000
0.444853 0.000000 0.000000
0.507353 0.000000 0.000000
0.569853 0.000000 0.000000
0.632353 0.000000 0.000000
0.694853 0.000000 0.000000
0.757353 0.000000 0.000000
0.000000 0.000000 0.000000
0.000000 0.000000 0.000000
0.000000 0.000000 0.000000
0.000000 0.000000 0.000000
0.007353 0.000000 0.000000
0.069853 0.000000 0.000000
0.132353 0.000000 0.000000
0.194853 0.000000 0.000000
0.257353 0.000000 0.000000
0.319853 0.000000 0.000000
0.382353 0.000000 0.000000
0.444853 0.000000 0.000000
0.507353 0.000000 0.000000
0.569853 0.000000 0.000000
0.632353 0.000000 0.000000
0.694853 0.000000 0.000000
0.757353 0.000000 0.000000
0.000000 0.000000 0.000000
0.000000 0.000000 0.000000
0.000000 0.000000 0.000000
0.000000 0.000000 0.000000
0.007353 0.000000 0.000000
0.069853 0.000000 0.000000
0.132353 0.000000 0.000000
0.194853 0.000000 0.000000
0.257353 0.000000 0.000000
0.319853 0.000000 0.000000
0.382353 0.000000 0.000000
0.444853 0.000000 0.000000
0.507353 0.000000 0.000000
0.569853 0.000000 0.000000
0.632353 0.000000 0.000000
0.694853 0.000000 0.000000
0.757353 0.000000 0.000000
0.000000 0.056373 0.000000
0.000000 0.056373 0.000000
0.000000 0.056373 0.000000
0.000000 0.056373 0.000000
0.007353 0.056373 0.000000
0.069853 0.056373 0.000000
0.132353 0.056373 0.000000
0.194853 0.056373 0.000000
0.257353 0.056373 0.000000
0.319853 0.056373 0.000000
0.382353 0.056373 0.000000
0.444853 0.056373 0.000000
0.507353 0.056373 0.000000
0.569853 0.056373 0.000000
0.632353 0.056373 0.000000
0.694853 0.056373 0.000000
0.757353 0.056373 0.000000
0.000000 0.118873 0.000000
0.000000 0.118873 0.000000
0.000000 0.118873 0.000000
0.000000 0.118873 0.000000
0.007353 0.118873 0.000000
0.069853 0.118873 0.000000
0.132353 0.118873 0.000000
0.194853 0.118873 0.000000
0.257353 0.118873 0.000000
0.319853 0.118873 0.000000
0.382353 0.118873 0.000000
0.444853 0.118873 0.000000
0.507353 0.118873 0.000000
0.569853 0.118873 0.000000
0.632353 0.118873 0.000000
0.694853 0.118873 0.000000
0.757353 0.118873 0.000000
0.000000 0.181373 0.000000
0.000000 0.181373 0.000000
0.000000 0.181373 0.000000
0.000000 0.181373 0.000000
0.007353 0.181373 0.000000
0.069853 0.181373 0.000000
0.132353 0.181373 0.000000
0.194853 0.181373 0.000000
0.257353 0.181373 0.000000
0.319853 0.181373 0.000000
0.382353 0.181373 0.000000
0.444853 0.181373 0.000000
0.507353 0.181373 0.000000
0.569853 0.181373 0.000000
0.632353 0.181373 0.000000
0.694853 0.181373 0.000000
0.757353 0.181373 0.000000
0.000000 0.243873 0.000000
0.000000 0.243873 0.000000
0.000000 0.243873 0.000000
0.000000 0.243873 0.000000
0.007353 0.243873 0.000000
0.069853 0.243873 0.000000
0.132353 0.243873 0.000000
0.194853 0.243873 0.000000
0.257353 0.243873 0.000000
0.319853 0.243873 0.000000
0.382353 0.243873 0.000000
0.444853 0.243873 0.000000
0.507353 0.243873 0.000000
0.569853 0.243873 0.000000
0.632353 0.243873 0.000000
0.694853 0.243873 0.000000
0.757353 0.243873 0.000000
0.000000 0.306373 0.000000
0.000000 0.306373 0.000000
0.000000 0.306373 0.000000
0.000000 0.306373 0.000000
0.007353 0.306373 0.000000
0.069853 0.306373 0.000000
0.132353 0.306373 0.000000
0.194853 0.306373 0.000000
0.257353 0.306373 0.000000
0.319853 0.306373 0.000000
0.382353 0.306373 0.000000
0.444853 0.306373 0.000000
0.507353 0.306373 0.000000
0.569853 0.306373 0.000000
0.632353 0.306373 0.000000
0.694853 0.306373 0.000000
0.757353 0.306373 0.000000
0.000000 0.368873 0.000000
0.000000 0.368873 0.000000
0.000000 0.368873 0.000000
0.000000 0.368873 0.000000
0.007353 0.368873 0.000000
0.069853 0.368873 0.000000
0.132353 0.368873 0.000000
0.194853 0.368873 0.000000
0.257353 0.368873 0.000000
0.319853 0.368873 0.000000
0.382353 0.368873 0.000000
0.444853 0.368873 0.000000
0.507353 0.368873 0.000000
0.569853 0.368873 0.000000
0.632353 0.368873 0.000000
0.694853 0.368873 0.000000
0.757353 0.368873 0.000000
0.000000 0.431373 0.000000
0.000000 0.431373 0.000000
0.000000 0.431373 0.000000
0.000000 0.431373 0.000000
0.007353 0.431373 0.000000
0.069853 0.431373 0.000000
0.132353 0.431373 0.000000
0.194853 0.431373 0.000000
0.257353 0.431373 0.000000
0.319853 0.431373 0.000000
0.382353 0.431373 0.000000
0.444853 0.431373 0.000000
0.507353 0.431373 0.000000
0.569853 0.431373 0.000000
0.632353 0.431373 0.000000
0.694853 0.431373 0.000000
0.757353 0.431373 0.000000
0.000000 0.493873 0.000000
0.000000 0.493873 0.000000
0.000000 0.493873 0.000000
0.000000 0.493873 0.000000
0.007353 0.493873 0.000000
0.069853 0.493873 0.000000
0.132353 0.493873 0.000000
0.194853 0.493873 0.000000
0.257353 0.493873 0.000000
0.319853 0.493873 0.000000
0.382353 0.493873 0.000000
0.444853 0.493873 0.000000
0.507353 0.493873 0.000000
0.569853 0.493873 0.000000
0.632353 0.493873 0.000000
0.694853 0.493873 0.000000
0.757353 0.493873 0.000000
0.000000 0.556373 0.000000
0.000000 0.556373 0.000000
0.000000 0.556373 0.000000
0.000000 0.556373 0.000000
0.007353 0.556373 0.000000
0.069853 0.556373 0.000000
0.132353 0.556373 0.000000
0.194853 0.556373 0.000000
0.257353 0.556373 0.000000
0.319853 0.556373 0.000000
0.382353 0.556373 0.000000
0.444853 0.556373 0.000000
0.507353 0.556373 0.000000
0.569853 0.556373 0.000000
0.632353 0.556373 0.000000
0.694853 0.556373 0.000000
0.757353 0.556373 0.000000
0.000000 0.618873 0.000000
0.000000 0.618873 0.000000
0.000000 0.618873 0.000000
0.000000 0.618873 0.000000
0.007353 0.618873 0.000000
0.069853 0.618873 0.000000
0.132353 0.618873 0.000000
0.194853 0.618873 0.000000
0.257353 0.618873 0.000000
0.319853 0.618873 0.000000
0.382353 0.618873 0.000000
0.444853 0.618873 0.000000
0.507353 0.618873 0.000000
0.569853 0.618873 0.000000
0.632353 0.618873 0.000000
0.694853 0.618873 0.000000
0.757353 0.618873 0.000000
0.000000 0.681373 0.000000
0.000000 0.681373 0.000000
0.000000 0.681373 0.000000
0.000000 0.681373 0.000000
0.007353 0.681373 0.000000
0.069853 0.681373 0.000000
0.132353 0.681373 0.000000
0.194853 0.681373 0.000000
0.257353 0.681373 0.000000
0.319853 0.681373 0.000000
0.382353 0.681373 0.000000
0.444853 0.681373 0.000000
0.507353 0.681373 0.000000
0.569853 0.681373 0.000000
0.632353 0.681373 0.000000
0.694853 0.681373 0.000000
0.757353 0.681373 0.000000
0.000000 0.743873 0.000000
0.000000 0.743873 0.000000
0.000000 0.743873 0.000000
0.000000 0.743873 0.000000
0.007353 0.743873 0.000000
0.069853 0.743873 0.000000
0.132353 0.743873 0.000000
0.194853 0.743873 0.000000
0.257353 0.743873 0.000000
0.319853 0.743873 0.000000
0.382353 0.743873 0.000000
0.444853 0.743873 0.000000
0.507353 0.743873 0.000000
0.569853 0.743873 0.000000
0.632353 0.743873 0.000000
0.694853 0.743873 0.000000
0.757353 0.743873 0.000000
0.000000 0.806373 0.000000
0.000000 0.806373 0.000000
0.000000 0.806373 0.000000
0.000000 0.806373 0.000000
0.007353 0.806373 0.000000
0.069853 0.806373 0.000000
0.132353 0.806373 0.000000
0.194853 0.806373 0.000000
0.257353 0.806373 0.000000
0.319853 0.806373 0.000000
0.382353 0.806373 0.000000
0.444853 0.806373 0.000000
0.507353 0.806373 0.000000
0.569853 0.806373 0.000000
0.632353 0.806373 0.000000
0.694853 0.806373 0.000000
0.757353 0.806373 0.000000
0.000000 0.000000 0.000000
0.000000 0.000000 0.000000
0.000000 0.000000 0.000000
0.000000 0.000000 0.000000
0.007353 0.000000 0.000000
0.069853 0.000000 0.000000
0.132353 0.000000 0.000000
0.194853 0.000000 0.000000
0.257353 0.000000 0.000000
0.319853 0.000000 0.000000
0.382353 0.000000 0.000000
0.444853 0.000000 0.000000
0.507353 0.000000 0.000000
0.569853 0.000000 0.000000
0.632353 0.000000 0.000000
0.694853 0.000000 0.000000
0.757353 0.000000 0.000000
0.000000 0.000000 0.000000
0.000000 0.000000 0.000000
0.000000 0.000000 0.000000
0.000000 0.000000 0.000000
0.007353 0.000000 0.000000
0.069853 0.000000 0.000000
0.132353 0.000000 0.000000
0.194853 0.000000 0.000000
0.257353 0.000000 0.000000
0.319853 0.000000 0.000000
0.382353 0.000000 0.000000
0.444853 0.000000 0.000000
0.507353 0.000000 0.000000
0.569853 0.000000 0.000000
0.632353 0.000000 0.000000
0.694853 0.000000 0.000000
0.757353 0.000000 0.000000
0.000000 0.000000 0.000000
0.000000 0.000000 0.000000
0.000000 0.000000 0.000000
0.000000 0.000000 0.000000
0.007353 0.000000 0.000000
0.069853 0.000000 0.000000
0.132353 0.000000 0.000000
0.194853 0.000000 0.000000
0.257353 0.000000 0.000000
0.319853 0.000000 0.000000
0.382353 0.000000 0.000000
0.444853 0.000000 0.000000
0.507353 0.000000 0.000000
0.569853 0.000000 0.000000
0.632353 0.000000 0.000000
0.694853 0.000000 0.000000
0.757353 0.000000 0.000000
0.000000 0.000000 0.000000
0.000000 0.000000 0.000000
0.000000 0.000000 0.000000
0.000000 0.000000 0.000000
0.007353 0.000000 0.000000
0.069853 0.000000 0.000000
0.132353 0.000000 0.000000
0.194853 0.000000 0.000000
0.257353 0.000000 0.000000
0.319853 0.000000 0.000000
0.382353 0.000000 0.000000
0.444853 0.000000 0.000000
0.507353 0.000000 0.000000
0.569853 0.000000 0.000000
0.632353 0.000000 0.000000
0.694853 0.000000 0.000000
0.757353 0.000000 0.000000
0.000000 0.056373 0.000000
0.000000 0.056373 0.000000
0.000000 0.056373 0.000000
0.000000 0.056373 0.000000
0.007353 0.056373 0.000000
0.069853 0.056373 0.000000
0.132353 0.056373 0.000000
0.194853 0.056373 0.000000
0.257353 0.056373 0.000000
0.319853 0.056373 0.000000
0.382353 0.056373 0.000000
0.444853 0.056373 0.000000
0.507353 0.056373 0.000000
0.569853 0.056373 0.000000
0.632353 0.056373 0.000000
0.694853 0.056373 0.000000
0.757353 0.056373 0.000000
0.000000 0.118873 0.000000
0.000000 0.118873 0.000000
0.000000 0.118873 0.000000
0.000000 0.118873 0.000000
0.007353 0.118873 0.000000
0.069853 0.118873 0.000000
0.132353 0.118873 0.000000
0.194853 0.118873 0.000000
0.257353 0.118873 0.000000
0.319853 0.118873 0.000000
0.382353 0.118873 0.000000
0.444853 0.118873 0.000000
0.507353 0.118873 0.000000
0.569853 0.118873 0.000000
0.632353 0.118873 0.000000
0.694853 0.118873 0.000000
0.757353 0.118873 0.000000
0.000000 0.181373 0.000000
0.000000 0.181373 0.000000
0.000000 0.181373 0.000000
0.000000 0.181373 0.000000
0.007353 0.181373 0.000000
0.069853 0.181373 0.000000
0.132353 0.181373 0.000000
0.194853 0.181373 0.000000
0.257353 0.181373 0.000000
0.319853 0.181373 0.000000
0.382353 0.181373 0.000000
0.444853 0.181373 0.000000
0.507353 0.181373 0.000000
0.569853 0.181373 0.000000
0.632353 0.181373 0.000000
0.694853 0.181373 0.000000
0.757353 0.181373 0.000000
0.000000 0.243873 0.000000
0.000000 0.243873 0.000000
0.000000 0.243873 0.000000
0.000000 0.243873 0.000000
0.007353 0.243873 0.000000
0.069853 0.243873 0.000000
0.132353 0.243873 0.000000
0.194853 0.243873 0.000000
0.257353 0.243873 0.000000
0.319853 0.243873 0.000000
0.382353 0.243873 0.000000
0.444853 0.243873 0.000000
0.507353 0.243873 0.000000
0.569853 0.243873 0.000000
0.632353 0.243873 0.000000
0.694853 0.243873 0.000000
0.757353 0.243873 0.000000
0.000000 0.306373 0.000000
0.000000 0.306373 0.000000
0.000000 0.306373 0.000000
0.000000 0.306373 0.000000
0.007353 0.306373 0.000000
0.069853 0.306373 0.000000
0.132353 0.306373 0.000000
0.194853 0.306373 0.000000
0.257353 0.306373 0.000000
0.319853 0.306373 0.000000
0.382353 0.306373 0.000000
0.444853 0.306373 0.000000
0.507353 0.306373 0.000000
0.569853 0.306373 0.000000
0.632353 0.306373 0.000000
0.694853 0.306373 0.000000
0.757353 0.306373 0.000000
0.000000 0.368873 0.000000
0.000000 0.368873 0.000000
0.000000 0.368873 0.000000
0.000000 0.368873 0.000000
0.007353 0.368873 0.000000
0.069853 0.368873 0.000000
0.132353 0.368873 0.000000
0.194853 0.368873 0.000000
0.257353 0.368873 0.000000
0.319853 0.368873 0.000000
0.382353 0.368873 0.000000
0.444853 0.368873 0.000000
0.507353 0.368873 0.000000
0.569853 0.368873 0.000000
0.632353 0.368873 0.000000
0.694853 0.368873 0.000000
0.757353 0.368873 0.000000
0.000000 0.431373 0.000000
0.000000 0.431373 0.000000
0.000000 0.431373 0.000000
0.000000 0.431373 0.000000
0.007353 0.431373 0.000000
0.069853 0.431373 0.000000
0.132353 0.431373 0.000000
0.194853 0.431373 0.000000
0.257353 0.431373 0.000000
0.319853 0.431373 0.000000
0.382353 0.431373 0.000000
0.444853 0.431373 0.000000
0.507353 0.431373 0.000000
0.569853 0.431373 0.000000
0.632353 0.431373 0.000000
0.694853 0.431373 0.000000
0.757353 0.431373 0.000000
0.000000 0.493873 0.000000
0.000000 0.493873 0.000000
0.000000 0.493873 0.000000
0.000000 0.493873 0.000000
0.007353 0.493873 0.000000
0.069853 0.493873 0.000000
0.132353 0.493873 0.000000
0.194853 0.493873 0.000000
0.257353 0.493873 0.000000
0.319853 0.493873 0.000000
0.382353 0.493873 0.000000
0.444853 0.493873 0.000000
0.507353 0.493873 0.000000
0.569853 0.493873 0.000000
0.632353 0.493873 0.000000
0.694853 0.493873 0.000000
0.757353 0.493873 0.000000
0.000000 0.556373 0.000000
0.000000 0.556373 0.000000
0.000000 0.556373 0.000000
0.000000 0.556373 0.000000
0.007353 0.556373 0.000000
0.069853 0.556373 0.000000
0.132353 0.556373 0.000000
0.194853 0.556373 0.000000
0.257353 0.556373 0.000000
0.319853 0.556373 0.000000
0.382353 0.556373 0.000000
0.444853 0.556373 0.000000
0.507353 0.556373 0.000000
0.569853 0.556373 0.000000
0.632353 0.556373 0.000000
0.694853 0.556373 0.000000
0.757353 0.556373 0.000000
0.000000 0.618873 0.000000
0.000000 0.618873 0.000000
0.000000 0.618873 0.000000
0.000000 0.618873 0.000000
0.007353 0.618873 0.000000
0.069853 0.618873 0.000000
0.132353 0.618873 0.000000
0.194853 0.618873 0.000000
0.257353 0.618873 0.000000
0.319853 0.618873 0.000000
0.382353 0.618873 0.000000
0.444853 0.618873 0.000000
0.507353 0.618873 0.000000
0.569853 0.618873 0.000000
0.632353 0.618873 0.000000
0.694853 0.618873 0.000000
0.757353 0.618873 0.000000
0.000000 0.681373 0.000000
0.000000 0.681373 0.000000
0.000000 0.681373 0.000000
0.000000 0.681373 0.000000
0.007353 0.681373 0.000000
0.069853 0.681373 0.000000
0.132353 0.681373 0.000000
0.194853 0.681373 0.000000
0.257353 0.681373 0.000000
0.319853 0.681373 0.000000
0.382353 0.681373 0.000000
0.444853 0.681373 0.000000
0.507353 0.681373 0.000000
0.569853 0.681373 0.000000
0.632353 0.681373 0.000000
0.694853 0.681373 0.000000
0.757353 0.681373 0.000000
0.000000 0.743873 0.000000
0.000000 0.743873 0.000000
0.000000 0.743873 0.000000
0.000000 0.743873 0.000000
0.007353 0.743873 0.000000
0.069853 0.743873 0.000000
0.132353 0.743873 0.000000
0.194853 0.743873 0.000000
0.257353 0.743873 0.000000
0.319853 0.743873 0.000000
0.382353 0.743873 0.000000
0.444853 0.743873 0.000000
0.507353 0.743873 0.000000
0.569853 0.743873 0.000000
0.632353 0.743873 0.000000
0.694853 0.743873 0.000000
0.757353 0.743873 0.000000
0.000000 0.806373 0.000000
0.000000 0.806373 0.000000
0.000000 0.806373 0.000000
0.000000 0.806373 0.000000
0.007353 0.806373 0.000000
0.069853 0.806373 0.000000
0.132353 0.806373 0.000000
0.194853 0.806373 0.000000
0.257353 0.806373 0.000000
0.319853 0.806373 0.000000
0.382353 0.806373 0.000000
0.444853 0.806373 0.000000
0.507353 0.806373 0.000000
0.569853 0.806373 0.000000
0.632353 0.806373 0.000000
0.694853 0.806373 0.000000
0.757353 0.806373 0.000000
0.000000 0.000000 0.042892
0.000000 0.000000 0.042892
0.000000 0.000000 0.042892
0.000000 0.000000 0.042892
0.007353 0.000000 0.042892
0.069853 0.000000 0.042892
0.132353 0.000000 0.042892
0.194853 0.000000 0.042892
0.257353 0.000000 0.042892
0.319853 0.000000 0.042892
0.382353 0.000000 0.042892
0.444853 0.000000 0.042892
0.507353 0.000000 0.042892
0.569853 0.000000 0.042892
0.632353 0.000000 0.042892
0.694853 0.000000 0.042892
0.757353 0.000000 0.042892
0.000000 0.000000 0.042892
0.000000 0.000000 0.042892
