output/mylook_20251110_014629.cube
# Generated by Cinematic LUT Generator
LUT_3D_SIZE 5
0.000000 0.000000 0.000000
0.000000 0.000000 0.000000
0.000000 0.000000 0.000000
0.227941 0.000000 0.000000
0.477941 0.000000 0.000000
0.000000 0.000000 0.000000
0.000000 0.000000 0.000000
0.000000 0.000000 0.000000
0.227941 0.000000 0.000000
0.477941 0.000000 0.000000
0.000000 0.000000 0.000000
0.000000 0.000000 0.000000
0.000000 0.000000 0.000000
0.227941 0.000000 0.000000
0.477941 0.000000 0.000000
0.000000 0.174020 0.000000
0.000000 0.174020 0.000000
0.000000 0.174020 0.000000
0.227941 0.174020 0.000000
0.477941 0.174020 0.000000
0.000000 0.424020 0.000000
0.000000 0.424020 0.000000
0.000000 0.424020 0.000000
0.227941 0.424020 0.000000
0.477941 0.424020 0.000000
0.000000 0.000000 0.000000
0.000000 0.000000 0.000000
0.000000 0.000000 0.000000
0.227941 0.000000 0.000000
0.477941 0.000000 0.000000
0.000000 0.000000 0.000000
0.000000 0.000000 0.000000
0.000000 0.000000 0.000000
0.227941 0.000000 0.000000
0.477941 0.000000 0.000000
0.000000 0.000000 0.000000
0.000000 0.000000 0.000000
0.000000 0.000000 0.000000
0.227941 0.000000 0.000000
0.477941 0.000000 0.000000
0.000000 0.174020 0.000000
0.000000 0.174020 0.000000
0.000000 0.174020 0.000000
0.227941 0.174020 0.000000
0.477941 0.174020 0.000000
0.000000 0.424020 0.000000
0.000000 0.424020 0.000000
0.000000 0.424020 0.000000
0.227941 0.424020 0.000000
0.477941 0.424020 0.000000
0.000000 0.000000 0.000000
0.000000 0.000000 0.000000
0.000000 0.000000 0.000000
0.227941 0.000000 0.000000
0.477941 0.000000 0.000000
0.000000 0.000000 0.000000
0.000000 0.000000 0.000000
0.000000 0.000000 0.000000
0.227941 0.000000 0.000000
0.477941 0.000000 0.000000
0.000000 0.000000 0.000000
0.000000 0.000000 0.000000
0.000000 0.000000 0.000000
0.227941 0.000000 0.000000
0.477941 0.000000 0.000000
0.000000 0.174020 0.000000
0.000000 0.174020 0.000000
0.000000 0.174020 0.000000
0.227941 0.174020 0.000000
0.477941 0.174020 0.000000
0.000000 0.424020 0.000000
0.000000 0.424020 0.000000
0.000000 0.424020 0.000000
0.227941 0.424020 0.000000
0.477941 0.424020 0.000000
0.000000 0.000000 0.134804
0.000000 0.000000 0.134804
0.000000 0.000000 0.134804
0.227941 0.000000 0.134804
0.477941 0.000000 0.134804
0.000000 0.000000 0.134804
0.000000 0.000000 0.134804
0.000000 0.000000 0.134804
0.227941 0.000000 0.134804
0.477941 0.000000 0.134804
0.000000 0.000000 0.134804
0.000000 0.000000 0.134804
0.000000 0.000000 0.134804
0.227941 0.000000 0.134804
0.477941 0.000000 0.134804
0.000000 0.174020 0.134804
0.000000 0.174020 0.134804
0.000000 0.174020 0.134804
0.227941 0.174020 0.134804
0.477941 0.174020 0.134804
0.000000 0.424020 0.134804
0.000000 0.424020 0.134804
0.000000 0.424020 0.134804
0.227941 0.424020 0.134804
0.477941 0.424020 0.134804
0.000000 0.000000 0.384804
0.000000 0.000000 0.384804
0.000000 0.000000 0.384804
0.227941 0.000000 0.384804
0.477941 0.000000 0.384804
0.000000 0.000000 0.384804
0.000000 0.000000 0.384804
0.000000 0.000000 0.384804
0.227941 0.000000 0.384804
0.477941 0.000000 0.384804
0.000000 0.000000 0.384804
0.000000 0.000000 0.384804
0.000000 0.000000 0.384804
0.227941 0.000000 0.384804
0.477941 0.000000 0.384804
0.000000 0.174020 0.384804
0.000000 0.174020 0.384804
0.000000 0.174020 0.384804
0.227941 0.174020 0.384804
0.477941 0.174020 0.384804
0.000000 0.424020 0.384804
0.000000 0.424020 0.384804
0.000000 0.424020 0.384804
0.227941 0.424020 0.384804
0.477941 0.424020 0.384804
